;FLAVOR:Marlin
;TIME:1204
;Filament used: 0.659086m
;Layer height: 0.2
;MINX:126.61
;MINY:112.952
;MINZ:0.2
;MAXX:143.862
;MAXY:130.195
;MAXZ:45
;TARGET_MACHINE.NAME:Anycubic Kobra
;Generated with Cura_SteamEngine 5.6.0
M140 S60
M105
M190 S60
M104 S200
M105
M109 S200
M82 ;absolute extrusion mode
G28 ;Home
G1 Z15.0 F1200 ;Move the platform down 15mm
;Prime the extruder
G92 E0
G1 F200 E3
G92 E0
G92 E0
G92 E0
G1 F2400 E-6
;LAYER_COUNT:225
;LAYER:0
M107
M204 S2000
M205 X10 Y10
G0 F3000 X128.882 Y115.742 Z0.2
M204 S1000
M205 X8 Y8
;TYPE:SKIRT
G1 F2400 E0
G1 X130.006 Y114.653 E0.05205
G1 X131.465 Y113.819 E0.10795
G1 X132.533 Y113.385 E0.14629
G1 X133.484 Y113.132 E0.17902
G1 X135.035 Y112.952 E0.23095
G1 X135.803 Y112.97 E0.2565
G1 X136.946 Y113.124 E0.29486
G1 X137.731 Y113.322 E0.32179
G1 X138.867 Y113.759 E0.36227
G1 X140.054 Y114.373 E0.40672
G1 X141.274 Y115.424 E0.46028
G1 X141.86 Y116.059 E0.48902
G1 X142.383 Y116.759 E0.51808
G1 X142.955 Y117.751 E0.55617
G1 X143.479 Y119.088 E0.60393
G1 X143.862 Y120.771 E0.66134
G1 X143.817 Y122.278 E0.71148
G1 X143.519 Y123.932 E0.76738
G1 X143.076 Y125.242 E0.81338
G1 X142.385 Y126.388 E0.85789
G1 X141.665 Y127.308 E0.89674
G1 X140.694 Y128.247 E0.94167
G1 X140.172 Y128.643 E0.96346
G1 X138.928 Y129.362 E1.01125
G1 X138.114 Y129.698 E1.04054
G1 X136.083 Y130.151 E1.10975
G1 X135.018 Y130.195 E1.1452
G1 X133.918 Y130.097 E1.18193
G1 X132.864 Y129.872 E1.21778
G1 X131.498 Y129.345 E1.26648
G1 X130.571 Y128.829 E1.30177
G1 X129.479 Y127.995 E1.34747
G1 X128.576 Y127.054 E1.39084
G1 X127.787 Y125.934 E1.43641
G1 X127.437 Y125.273 E1.46129
G1 X127.01 Y124.183 E1.50022
G1 X126.679 Y122.964 E1.54224
G1 X126.61 Y121.516 E1.59045
G1 X126.824 Y119.624 E1.65378
G1 X126.996 Y118.998 E1.67537
G1 X127.423 Y117.915 E1.71409
G1 X128.032 Y116.834 E1.75536
G1 X128.882 Y115.742 E1.80139
M204 S2000
M205 X10 Y10
G0 F3000 X129.198 Y115.988
M204 S1000
M205 X8 Y8
G1 F2400 X130.249 Y114.975 E1.84994
G1 X131.616 Y114.19 E1.90237
G1 X132.684 Y113.756 E1.94071
G1 X133.586 Y113.519 E1.97173
G1 X135.026 Y113.352 E2.01994
G1 X135.794 Y113.37 E2.04549
G1 X136.848 Y113.512 E2.08087
G1 X137.633 Y113.71 E2.10779
G1 X138.683 Y114.114 E2.14521
G1 X139.828 Y114.706 E2.18808
G1 X140.98 Y115.695 E2.23858
G1 X141.566 Y116.33 E2.26732
G1 X142.036 Y116.959 E2.29344
G1 X142.608 Y117.951 E2.33152
G1 X143.089 Y119.177 E2.37533
G1 X143.461 Y120.81 E2.43103
G1 X143.423 Y122.208 E2.47755
G1 X143.14 Y123.804 E2.53146
G1 X142.712 Y125.07 E2.57591
G1 X142.042 Y126.181 E2.61906
G1 X141.386 Y127.021 E2.65451
G1 X140.452 Y127.928 E2.69781
G1 X139.93 Y128.324 E2.7196
G1 X138.775 Y128.992 E2.76398
G1 X137.961 Y129.328 E2.79327
G1 X136.065 Y129.751 E2.85788
G1 X135.052 Y129.796 E2.89161
G1 X134 Y129.705 E2.92673
G1 X133.007 Y129.498 E2.96046
G1 X131.693 Y128.995 E3.00726
G1 X130.766 Y128.479 E3.04255
G1 X129.768 Y127.718 E3.08429
G1 X128.865 Y126.777 E3.12767
G1 X128.141 Y125.747 E3.16954
G1 X127.791 Y125.086 E3.19442
G1 X127.396 Y124.078 E3.23043
G1 X127.077 Y122.903 E3.27092
G1 X127.01 Y121.497 E3.31774
G1 X127.21 Y119.73 E3.37688
G1 X127.382 Y119.104 E3.39848
G1 X127.772 Y118.11 E3.43399
G1 X128.348 Y117.08 E3.47324
G1 X129.198 Y115.988 E3.51927
M204 S2000
M205 X10 Y10
G0 F3000 X129.514 Y116.234
M204 S1000
M205 X8 Y8
G1 F2400 X130.493 Y115.296 E3.56436
G1 X131.767 Y114.56 E3.6133
G1 X132.786 Y114.143 E3.64992
G1 X133.688 Y113.906 E3.68094
G1 X135.017 Y113.752 E3.72544
G1 X135.785 Y113.77 E3.75099
G1 X136.75 Y113.9 E3.78337
G1 X137.535 Y114.098 E3.8103
G1 X138.499 Y114.469 E3.84466
G1 X139.602 Y115.039 E3.88595
G1 X140.687 Y115.967 E3.93344
G1 X141.246 Y116.57 E3.96079
G1 X141.689 Y117.159 E3.9853
G1 X142.261 Y118.151 E4.02338
G1 X142.699 Y119.266 E4.06323
G1 X143.06 Y120.849 E4.11723
G1 X143.029 Y122.139 E4.16015
G1 X142.761 Y123.676 E4.21204
G1 X142.348 Y124.898 E4.25494
G1 X141.699 Y125.974 E4.29674
G1 X141.071 Y126.774 E4.33056
G1 X140.21 Y127.609 E4.37046
G1 X139.688 Y128.005 E4.39225
G1 X138.622 Y128.622 E4.43321
G1 X137.808 Y128.958 E4.4625
G1 X136.047 Y129.351 E4.52252
G1 X135.034 Y129.396 E4.55624
G1 X134.082 Y129.313 E4.58803
G1 X133.089 Y129.106 E4.62176
G1 X131.888 Y128.645 E4.66455
G1 X130.961 Y128.129 E4.69984
G1 X130.056 Y127.44 E4.73767
G1 X129.192 Y126.546 E4.77902
G1 X128.495 Y125.56 E4.81918
G1 X128.145 Y124.899 E4.84406
G1 X127.782 Y123.973 E4.87714
G1 X127.475 Y122.842 E4.91612
G1 X127.41 Y121.478 E4.96153
G1 X127.596 Y119.835 E5.01653
G1 X127.755 Y119.249 E5.03673
G1 X128.122 Y118.304 E5.07044
G1 X128.664 Y117.326 E5.10763
G1 X129.514 Y116.234 E5.15366
M204 S2000
M205 X10 Y10
G0 F3000 X129.791 Y116.523
M204 S1000
M205 X8 Y8
G1 F2400 X130.736 Y115.618 E5.19718
G1 X131.92 Y114.93 E5.24272
G1 X132.888 Y114.53 E5.27756
G1 X133.79 Y114.293 E5.30858
G1 X135.009 Y114.152 E5.34939
G1 X135.733 Y114.167 E5.37348
G1 X136.652 Y114.288 E5.40431
G1 X137.437 Y114.486 E5.43124
G1 X138.315 Y114.824 E5.46253
G1 X139.376 Y115.372 E5.50225
G1 X140.394 Y116.239 E5.54672
G1 X140.927 Y116.812 E5.57275
G1 X141.342 Y117.359 E5.59559
G1 X141.914 Y118.351 E5.63367
G1 X142.309 Y119.355 E5.66956
G1 X142.659 Y120.889 E5.72189
G1 X142.635 Y122.071 E5.76121
G1 X142.382 Y123.548 E5.81105
G1 X141.983 Y124.728 E5.85248
G1 X141.384 Y125.727 E5.89122
G1 X140.756 Y126.527 E5.92505
G1 X139.968 Y127.29 E5.96153
G1 X139.446 Y127.686 E5.98332
G1 X138.469 Y128.252 E6.02088
G1 X137.655 Y128.588 E6.05017
G1 X136.029 Y128.951 E6.10558
G1 X135.016 Y128.996 E6.13931
G1 X134.164 Y128.921 E6.16775
G1 X133.171 Y128.714 E6.20149
G1 X132.083 Y128.295 E6.24027
G1 X131.156 Y127.779 E6.27555
G1 X130.343 Y127.161 E6.30952
G1 X129.518 Y126.314 E6.34885
G1 X128.849 Y125.373 E6.38725
G1 X128.499 Y124.712 E6.41212
G1 X128.168 Y123.868 E6.44228
G1 X127.873 Y122.781 E6.47974
G1 X127.81 Y121.459 E6.52376
G1 X127.983 Y119.938 E6.57467
G1 X128.128 Y119.394 E6.5934
G1 X128.495 Y118.449 E6.62712
G1 X128.98 Y117.571 E6.66048
G1 X129.791 Y116.523 E6.70455
M204 S2000
M205 X10 Y10
G0 F3000 X130.068 Y116.812
M204 S1000
M205 X8 Y8
G1 F2400 X130.98 Y115.939 E6.74654
G1 X132.074 Y115.299 E6.7887
G1 X132.99 Y114.917 E6.82171
G1 X133.892 Y114.68 E6.85273
G1 X135.002 Y114.552 E6.88989
G1 X135.682 Y114.564 E6.91251
G1 X136.554 Y114.676 E6.94175
G1 X137.339 Y114.874 E6.96868
G1 X138.131 Y115.179 E6.99691
G1 X139.151 Y115.706 E7.03509
G1 X140.102 Y116.512 E7.07656
G1 X140.608 Y117.054 E7.10122
G1 X141.023 Y117.601 E7.12405
G1 X141.542 Y118.499 E7.15855
G1 X141.919 Y119.444 E7.19239
G1 X142.258 Y120.93 E7.24309
G1 X142.235 Y122.063 E7.28078
G1 X142.003 Y123.42 E7.32657
G1 X141.617 Y124.561 E7.36663
G1 X141.068 Y125.481 E7.40226
G1 X140.477 Y126.24 E7.43426
G1 X139.726 Y126.971 E7.46911
G1 X139.204 Y127.367 E7.49091
G1 X138.316 Y127.882 E7.52505
G1 X137.502 Y128.218 E7.55434
G1 X136.011 Y128.551 E7.60515
G1 X134.998 Y128.596 E7.63888
G1 X134.246 Y128.529 E7.66399
G1 X133.253 Y128.322 E7.69773
G1 X132.278 Y127.945 E7.73249
G1 X131.351 Y127.429 E7.76778
G1 X130.63 Y126.882 E7.79788
G1 X129.805 Y126.035 E7.83721
G1 X129.203 Y125.186 E7.87182
G1 X128.853 Y124.525 E7.8967
G1 X128.554 Y123.763 E7.92393
G1 X128.271 Y122.72 E7.95987
G1 X128.21 Y121.44 E8.00249
G1 X128.37 Y120.041 E8.04933
G1 X128.515 Y119.497 E8.06805
G1 X128.846 Y118.641 E8.09858
G1 X129.297 Y117.815 E8.12988
G1 X130.068 Y116.812 E8.17195
M204 S2000
M205 X10 Y10
G0 F3000 X130.345 Y117.101
M204 S1000
M205 X8 Y8
G1 F2400 X131.223 Y116.261 E8.21237
G1 X132.229 Y115.668 E8.25121
G1 X133.092 Y115.304 E8.28236
G1 X133.994 Y115.067 E8.31338
G1 X134.996 Y114.952 E8.34693
G1 X135.632 Y114.961 E8.36808
G1 X136.456 Y115.064 E8.3957
G1 X137.241 Y115.262 E8.42263
G1 X137.947 Y115.534 E8.44779
G1 X138.929 Y116.041 E8.48455
G1 X139.81 Y116.786 E8.52292
G1 X140.289 Y117.296 E8.5462
G1 X140.704 Y117.843 E8.56903
G1 X141.17 Y118.647 E8.59994
G1 X141.547 Y119.592 E8.63378
G1 X141.857 Y120.97 E8.68076
G1 X141.835 Y122.055 E8.71685
G1 X141.624 Y123.292 E8.75859
G1 X141.252 Y124.391 E8.79718
G1 X140.724 Y125.276 E8.83146
G1 X140.197 Y125.954 E8.86002
G1 X139.484 Y126.652 E8.8932
G1 X138.962 Y127.048 E8.915
G1 X138.163 Y127.512 E8.94573
G1 X137.349 Y127.848 E8.97502
G1 X135.992 Y128.151 E9.02126
G1 X135.032 Y128.197 E9.05323
G1 X134.326 Y128.137 E9.0768
G1 X133.396 Y127.948 E9.10836
G1 X132.473 Y127.595 E9.14123
G1 X131.546 Y127.079 E9.17651
G1 X130.873 Y126.564 E9.2047
G1 X130.131 Y125.803 E9.24005
G1 X129.557 Y124.999 E9.27291
G1 X129.207 Y124.338 E9.29778
G1 X128.94 Y123.658 E9.32208
G1 X128.669 Y122.659 E9.35651
G1 X128.61 Y121.421 E9.39773
G1 X128.757 Y120.144 E9.44049
G1 X128.902 Y119.6 E9.45921
G1 X129.198 Y118.831 E9.48662
G1 X129.615 Y118.058 E9.51583
G1 X130.345 Y117.101 E9.55586
M204 S2000
M205 X10 Y10
G0 F3000 X130.663 Y117.344
M204 S1000
M205 X8 Y8
G1 F2400 X131.465 Y116.583 E9.59264
G1 X132.384 Y116.037 E9.62819
G1 X133.247 Y115.673 E9.65934
G1 X134.094 Y115.454 E9.68844
G1 X134.992 Y115.352 E9.7185
G1 X135.584 Y115.358 E9.73819
G1 X136.358 Y115.452 E9.76412
G1 X137.143 Y115.65 E9.79105
G1 X137.763 Y115.889 E9.81315
G1 X138.704 Y116.375 E9.84838
G1 X139.518 Y117.06 E9.88376
G1 X139.997 Y117.57 E9.90703
G1 X140.359 Y118.045 E9.92689
G1 X140.798 Y118.795 E9.9558
G1 X141.175 Y119.74 E9.98964
G1 X141.456 Y121.012 E10.03297
G1 X141.435 Y122.047 E10.0674
G1 X141.245 Y123.164 E10.10508
G1 X140.887 Y124.221 E10.1422
G1 X140.38 Y125.071 E10.17512
G1 X139.916 Y125.669 E10.20029
G1 X139.242 Y126.333 E10.23176
G1 X138.72 Y126.729 E10.25355
G1 X138.01 Y127.142 E10.28087
G1 X137.196 Y127.478 E10.31016
G1 X135.972 Y127.752 E10.35188
G1 X135.064 Y127.798 E10.38212
G1 X134.406 Y127.745 E10.40408
G1 X133.476 Y127.556 E10.43564
G1 X132.666 Y127.245 E10.4645
G1 X131.789 Y126.761 E10.49781
G1 X131.116 Y126.246 E10.526
G1 X130.456 Y125.569 E10.55745
G1 X129.911 Y124.812 E10.58847
G1 X129.561 Y124.151 E10.61335
G1 X129.326 Y123.553 E10.63472
G1 X129.066 Y122.594 E10.66777
G1 X129.007 Y121.466 E10.70533
G1 X129.144 Y120.247 E10.74613
G1 X129.289 Y119.703 E10.76486
G1 X129.571 Y118.975 E10.79083
G1 X129.933 Y118.301 E10.81627
G1 X130.663 Y117.344 E10.85631
M204 S2000
M205 X10 Y10
G0 F3000 X130.981 Y117.587
M204 S1000
M205 X8 Y8
G1 F2400 X131.706 Y116.905 E10.88941
G1 X132.539 Y116.406 E10.92171
G1 X133.402 Y116.042 E10.95286
G1 X134.14 Y115.851 E10.97821
G1 X134.99 Y115.752 E11.00668
G1 X135.537 Y115.755 E11.02487
G1 X136.26 Y115.84 E11.04908
G1 X137.045 Y116.038 E11.07601
G1 X137.579 Y116.244 E11.09505
G1 X138.479 Y116.709 E11.12874
G1 X139.226 Y117.334 E11.16113
G1 X139.705 Y117.844 E11.18441
G1 X140.015 Y118.249 E11.20137
G1 X140.427 Y118.945 E11.22827
G1 X140.784 Y119.826 E11.25989
G1 X141.055 Y121.053 E11.30168
G1 X141.035 Y122.039 E11.33448
G1 X140.866 Y123.036 E11.36812
G1 X140.522 Y124.051 E11.40376
G1 X140.036 Y124.866 E11.43532
G1 X139.635 Y125.384 E11.45711
G1 X138.961 Y126.048 E11.48858
G1 X138.517 Y126.384 E11.5071
G1 X137.857 Y126.772 E11.53256
G1 X137.043 Y127.108 E11.56185
G1 X135.951 Y127.353 E11.59907
G1 X135.096 Y127.399 E11.62755
G1 X134.438 Y127.346 E11.64951
G1 X133.618 Y127.182 E11.67732
G1 X132.858 Y126.894 E11.70435
G1 X132.032 Y126.443 E11.73565
G1 X131.359 Y125.928 E11.76384
G1 X130.781 Y125.335 E11.79138
G1 X130.236 Y124.578 E11.82241
G1 X129.933 Y124.003 E11.84402
G1 X129.712 Y123.448 E11.86389
G1 X129.463 Y122.529 E11.89556
G1 X129.405 Y121.509 E11.92954
G1 X129.531 Y120.35 E11.96832
G1 X129.676 Y119.806 E11.98704
G1 X129.925 Y119.162 E12.01001
G1 X130.251 Y118.544 E12.03325
G1 X130.981 Y117.587 E12.07328
M204 S2000
M205 X10 Y10
G0 F3000 X131.529 Y118.169
M204 S1000
M205 X8 Y8
G1 F2400 X132.192 Y117.545 E12.10356
G1 X132.851 Y117.143 E12.12924
G1 X133.66 Y116.798 E12.15849
G1 X134.237 Y116.645 E12.17834
G1 X134.987 Y116.552 E12.20348
G1 X135.491 Y116.553 E12.22024
G1 X136.064 Y116.616 E12.23942
G1 X136.849 Y116.814 E12.26634
G1 X137.211 Y116.954 E12.27925
G1 X138.029 Y117.377 E12.30988
G1 X138.678 Y117.916 E12.33794
G1 X139.094 Y118.36 E12.35818
G1 X139.377 Y118.733 E12.37375
G1 X139.687 Y119.251 E12.39383
G1 X140.023 Y120.065 E12.42312
G1 X140.253 Y121.133 E12.45945
G1 X140.24 Y121.967 E12.4872
G1 X140.108 Y122.78 E12.51459
G1 X139.791 Y123.718 E12.54752
G1 X139.399 Y124.382 E12.57317
G1 X139.07 Y124.817 E12.59131
G1 X138.475 Y125.412 E12.6193
G1 X138.069 Y125.722 E12.63629
G1 X137.551 Y126.032 E12.65636
G1 X136.737 Y126.368 E12.68565
G1 X135.843 Y126.563 E12.71609
G1 X135.156 Y126.601 E12.73897
G1 X134.587 Y126.56 E12.75795
G1 X133.898 Y126.432 E12.78125
G1 X133.188 Y126.167 E12.80646
G1 X132.518 Y125.807 E12.83176
G1 X131.845 Y125.292 E12.85994
G1 X131.427 Y124.863 E12.87986
G1 X130.942 Y124.202 E12.90713
G1 X130.658 Y123.667 E12.92728
G1 X130.47 Y123.196 E12.94415
G1 X130.257 Y122.401 E12.97152
G1 X130.201 Y121.591 E12.99853
G1 X130.305 Y120.556 E13.03312
G1 X130.45 Y120.012 E13.05185
G1 X130.633 Y119.536 E13.06881
G1 X130.959 Y118.918 E13.09205
G1 X131.529 Y118.169 E13.12335
M204 S2000
M205 X10 Y10
G0 F3000 X131.255 Y117.878
M204 S1000
M205 X8 Y8
G1 F2400 X131.948 Y117.226 E13.155
G1 X132.694 Y116.775 E13.184
G1 X133.557 Y116.411 E13.21515
G1 X134.188 Y116.248 E13.23682
G1 X134.988 Y116.152 E13.26362
G1 X135.535 Y116.155 E13.28182
G1 X136.162 Y116.228 E13.30281
G1 X136.947 Y116.426 E13.32974
G1 X137.395 Y116.599 E13.34571
G1 X138.254 Y117.043 E13.37787
G1 X138.934 Y117.608 E13.40728
G1 X139.413 Y118.118 E13.43055
G1 X139.696 Y118.491 E13.44612
G1 X140.057 Y119.098 E13.46961
G1 X140.393 Y119.912 E13.4989
G1 X140.654 Y121.094 E13.53916
G1 X140.635 Y122.031 E13.57033
G1 X140.487 Y122.908 E13.59991
G1 X140.157 Y123.883 E13.63415
G1 X139.718 Y124.623 E13.66277
G1 X139.353 Y125.1 E13.68274
G1 X138.718 Y125.73 E13.7125
G1 X138.312 Y126.04 E13.72949
G1 X137.704 Y126.402 E13.75302
G1 X136.89 Y126.738 E13.78231
G1 X135.928 Y126.954 E13.8151
G1 X135.127 Y127 E13.84179
G1 X134.514 Y126.953 E13.86224
G1 X133.758 Y126.807 E13.88785
G1 X133.048 Y126.542 E13.91305
G1 X132.275 Y126.125 E13.94226
G1 X131.602 Y125.61 E13.97045
G1 X131.105 Y125.1 E13.99414
G1 X130.589 Y124.39 E14.02333
G1 X130.305 Y123.855 E14.04347
G1 X130.084 Y123.3 E14.06334
G1 X129.86 Y122.465 E14.0921
G1 X129.803 Y121.551 E14.12256
G1 X129.918 Y120.453 E14.15927
G1 X130.063 Y119.909 E14.178
G1 X130.279 Y119.349 E14.19796
G1 X130.605 Y118.731 E14.2212
G1 X131.255 Y117.878 E14.25687
M204 S2000
M205 X10 Y10
G1 F2400 E8.25687
;MESH:A3.stl
G0 F3000 X131.979 Y118.596
G0 X135.171 Y125.499
G0 X135.171 Y126.2
M204 S1000
M205 X8 Y8
;TYPE:WALL-OUTER
G1 F2400 E14.25687
G1 F1500 X135.805 Y126.163 E14.27799
G1 X136.599 Y125.991 E14.30502
G1 X137.357 Y125.68 E14.33227
G1 X137.859 Y125.38 E14.35172
G1 X138.216 Y125.105 E14.36671
G1 X138.761 Y124.56 E14.39234
G1 X139.068 Y124.154 E14.40927
G1 X139.436 Y123.53 E14.43336
G1 X139.725 Y122.66 E14.46386
G1 X139.842 Y121.925 E14.48861
G1 X139.852 Y121.15 E14.51439
G1 X139.648 Y120.206 E14.54651
G1 X139.335 Y119.445 E14.57388
G1 X138.932 Y118.775 E14.59988
G1 X138.399 Y118.204 E14.62586
G1 X137.821 Y117.721 E14.65092
G1 X137.031 Y117.312 E14.6805
G1 X136.722 Y117.195 E14.69149
G1 X135.977 Y117.009 E14.71703
G1 X135.455 Y116.953 E14.73449
G1 X135.005 Y116.953 E14.74946
G1 X134.3 Y117.041 E14.77309
G1 X133.799 Y117.173 E14.79032
G1 X133.043 Y117.495 E14.81765
G1 X132.426 Y117.87 E14.84167
G1 X131.813 Y118.453 E14.86981
G1 X131.292 Y119.144 E14.89859
G1 X130.991 Y119.716 E14.92009
G1 X130.83 Y120.138 E14.93511
G1 X130.695 Y120.651 E14.95275
G1 X130.602 Y121.585 E14.98397
G1 X130.657 Y122.356 E15.00968
G1 X130.845 Y123.054 E15.03372
G1 X131.015 Y123.485 E15.04913
G1 X131.292 Y124.004 E15.0687
G1 X131.744 Y124.617 E15.09403
G1 X132.096 Y124.979 E15.11083
G1 X132.75 Y125.478 E15.13819
G1 X133.369 Y125.811 E15.16157
G1 X133.992 Y126.043 E15.18368
G1 X134.644 Y126.163 E15.20573
G1 X135.171 Y126.2 E15.2233
M204 S2000
M205 X10 Y10
G0 F3000 X135.37 Y126.189
G0 X135.173 Y125.799
M204 S1000
M205 X8 Y8
;TYPE:WALL-INNER
G1 F1500 X135.751 Y125.765 E15.24255
G1 X136.479 Y125.607 E15.26733
G1 X137.177 Y125.321 E15.29242
G1 X137.633 Y125.049 E15.31008
G1 X137.952 Y124.804 E15.32346
G1 X138.459 Y124.297 E15.34731
G1 X138.735 Y123.931 E15.36255
