;FLAVOR:Marlin
;TIME:678
;Filament used: 0.366781m
;Layer height: 0.2
;MINX:100.735
;MINY:99.02
;MINZ:0.2
;MAXX:121.266
;MAXY:122.987
;MAXZ:14.4
;TARGET_MACHINE.NAME:Anycubic Kobra
;Generated with Cura_SteamEngine 5.6.0
M140 S60
M105
M190 S60
M104 S200
M105
M109 S200
M82 ;absolute extrusion mode
G28 ;Home
G1 Z15.0 F1200 ;Move the platform down 15mm
;Prime the extruder
G92 E0
G1 F200 E3
G92 E0
G92 E0
G92 E0
G1 F2400 E-6
;LAYER_COUNT:72
;LAYER:0
M107
M204 S2000
M205 X10 Y10
G0 F3000 X102.752 Y100.281 Z0.2
M204 S1000
M205 X8 Y8
;TYPE:SKIRT
G1 F2400 E0
G1 X103.799 Y99.646 E0.04073
G1 X104.827 Y99.204 E0.07795
G1 X106.282 Y99.027 E0.1267
G1 X106.968 Y99.064 E0.14955
G1 X107.906 Y99.217 E0.18116
G1 X109.198 Y99.805 E0.22837
G1 X109.871 Y100.236 E0.25495
G1 X110.831 Y101.223 E0.30074
G1 X110.988 Y101.484 E0.31087
G1 X111.071 Y101.354 E0.316
G1 X112.184 Y100.149 E0.37056
G1 X113.913 Y99.245 E0.43546
G1 X115.443 Y99.02 E0.48689
G1 X116.275 Y99.064 E0.5146
G1 X117.265 Y99.226 E0.54797
G1 X118.667 Y99.853 E0.59905
G1 X119.793 Y100.821 E0.64844
G1 X120.56 Y101.883 E0.69201
G1 X121.001 Y102.99 E0.73164
G1 X121.266 Y104.483 E0.78207
G1 X120.977 Y106.215 E0.84048
G1 X120.261 Y107.617 E0.89284
G1 X119.232 Y108.725 E0.94313
G1 X118.207 Y109.351 E0.98308
G1 X117.203 Y109.782 E1.01942
G1 X115.932 Y109.987 E1.06224
G1 X114.924 Y109.92 E1.09584
G1 X113.91 Y109.723 E1.13019
G1 X112.858 Y109.224 E1.16892
G1 X112.12 Y108.741 E1.19826
G1 X111.188 Y107.813 E1.242
G1 X111.008 Y107.516 E1.25355
G1 X110.918 Y107.66 E1.2592
G1 X109.944 Y108.714 E1.30693
G1 X109.097 Y109.249 E1.34025
G1 X107.909 Y109.782 E1.38356
G1 X106.625 Y109.987 E1.42681
G1 X105.62 Y109.92 E1.46031
G1 X104.606 Y109.723 E1.49466
G1 X103.554 Y109.224 E1.53339
G1 X102.816 Y108.741 E1.56273
G1 X101.84 Y107.769 E1.60854
G1 X101.026 Y106.248 E1.66592
G1 X100.735 Y104.503 E1.72476
G1 X101.021 Y102.772 E1.78311
G1 X101.736 Y101.381 E1.83513
G1 X102.752 Y100.281 E1.88494
M204 S2000
M205 X10 Y10
G0 F3000 X103.009 Y100.594
M204 S1000
M205 X8 Y8
G1 F2400 X104.007 Y99.988 E1.92377
G1 X104.932 Y99.594 E1.95721
G1 X106.262 Y99.427 E2.00179
G1 X106.903 Y99.459 E2.02314
G1 X107.789 Y99.604 E2.053
G1 X108.982 Y100.142 E2.09653
G1 X109.616 Y100.548 E2.12157
G1 X110.544 Y101.502 E2.16583
G1 X110.996 Y102.343 E2.19759
G1 X111.365 Y101.625 E2.22444
G1 X112.432 Y100.47 E2.27674
G1 X114.036 Y99.631 E2.33694
G1 X115.46 Y99.422 E2.38481
G1 X116.21 Y99.459 E2.40979
G1 X117.151 Y99.613 E2.4415
G1 X118.45 Y100.194 E2.48883
G1 X119.497 Y101.094 E2.53475
G1 X120.205 Y102.075 E2.57499
G1 X120.614 Y103.101 E2.61173
G1 X120.86 Y104.484 E2.65845
G1 X120.592 Y106.09 E2.7126
G1 X119.93 Y107.386 E2.76101
G1 X118.978 Y108.411 E2.80753
G1 X118.049 Y108.983 E2.84382
G1 X117.089 Y109.395 E2.87857
G1 X115.912 Y109.585 E2.91822
G1 X114.951 Y109.521 E2.95025
G1 X114.037 Y109.341 E2.98124
G1 X113.077 Y108.889 E3.01653
G1 X112.37 Y108.427 E3.04462
G1 X111.47 Y107.53 E3.08688
G1 X111 Y106.652 E3.12001
G1 X110.624 Y107.389 E3.14753
G1 X109.687 Y108.403 E3.19345
G1 X108.883 Y108.911 E3.22508
G1 X107.795 Y109.395 E3.26468
G1 X106.606 Y109.585 E3.30473
G1 X105.647 Y109.521 E3.3367
G1 X104.733 Y109.341 E3.36768
G1 X103.773 Y108.889 E3.40297
G1 X103.066 Y108.427 E3.43106
G1 X102.166 Y107.53 E3.47333
G1 X101.41 Y106.117 E3.52663
G1 X101.141 Y104.502 E3.58108
G1 X101.406 Y102.899 E3.63512
G1 X102.067 Y101.613 E3.68321
G1 X103.009 Y100.594 E3.72937
M204 S2000
M205 X10 Y10
G0 F3000 X103.266 Y100.906
M204 S1000
M205 X8 Y8
G1 F2400 X104.164 Y100.356 E3.76439
G1 X105.036 Y99.984 E3.79593
G1 X106.244 Y99.827 E3.83644
G1 X106.838 Y99.854 E3.85622
G1 X107.675 Y99.991 E3.88443
G1 X108.766 Y100.479 E3.92418
G1 X109.361 Y100.86 E3.94768
G1 X110.22 Y101.743 E3.98865
G1 X110.901 Y103.009 E4.03646
G1 X110.999 Y103.605 E4.05655
G1 X111.095 Y103.026 E4.07607
G1 X111.697 Y101.855 E4.11987
G1 X112.68 Y100.791 E4.16805
G1 X114.159 Y100.017 E4.22357
G1 X115.478 Y99.824 E4.26791
G1 X116.145 Y99.854 E4.29011
G1 X117.037 Y100 E4.32017
G1 X118.233 Y100.535 E4.36375
G1 X119.201 Y101.367 E4.40621
G1 X119.85 Y102.267 E4.44311
G1 X120.227 Y103.212 E4.47695
G1 X120.454 Y104.485 E4.51996
G1 X120.207 Y105.965 E4.56987
G1 X119.599 Y107.155 E4.61431
G1 X118.723 Y108.098 E4.65712
G1 X117.891 Y108.615 E4.6897
G1 X116.975 Y109.008 E4.72285
G1 X115.892 Y109.183 E4.75934
G1 X115.028 Y109.128 E4.78814
G1 X114.162 Y108.958 E4.81749
G1 X113.248 Y108.527 E4.8511
G1 X112.621 Y108.114 E4.87607
G1 X111.796 Y107.291 E4.91483
G1 X111.098 Y105.986 E4.96405
G1 X110.999 Y105.393 E4.98405
G1 X110.904 Y105.962 E5.00323
G1 X110.293 Y107.158 E5.0479
G1 X109.429 Y108.093 E5.09025
G1 X108.72 Y108.546 E5.11823
G1 X107.681 Y109.008 E5.15605
G1 X106.587 Y109.183 E5.1929
G1 X105.724 Y109.128 E5.22166
G1 X104.858 Y108.958 E5.25101
G1 X103.944 Y108.527 E5.28462
G1 X103.317 Y108.114 E5.3096
G1 X102.492 Y107.291 E5.34835
G1 X101.794 Y105.986 E5.39758
G1 X101.547 Y104.501 E5.44765
G1 X101.791 Y103.026 E5.49737
G1 X102.398 Y101.845 E5.54154
G1 X103.266 Y100.906 E5.58407
M204 S2000
M205 X10 Y10
G0 F3000 X103.523 Y101.217
M204 S1000
M205 X8 Y8
G1 F2400 X104.321 Y100.724 E5.61527
G1 X105.144 Y100.373 E5.64503
G1 X106.228 Y100.227 E5.6814
G1 X106.773 Y100.249 E5.69955
G1 X107.559 Y100.378 E5.72604
G1 X108.55 Y100.816 E5.76208
G1 X109.106 Y101.172 E5.78403
G1 X109.895 Y101.983 E5.82167
G1 X110.517 Y103.139 E5.86533
G1 X110.742 Y104.504 E5.91134
G1 X110.519 Y105.837 E5.95629
G1 X109.962 Y106.927 E5.99701
G1 X109.172 Y107.782 E6.03572
G1 X108.558 Y108.18 E6.06006
G1 X107.565 Y108.621 E6.0962
G1 X106.566 Y108.781 E6.12985
G1 X105.801 Y108.736 E6.15534
G1 X104.987 Y108.576 E6.18293
G1 X104.115 Y108.165 E6.21499
G1 X103.568 Y107.8 E6.23686
G1 X102.818 Y107.052 E6.27209
G1 X102.178 Y105.855 E6.31724
G1 X101.953 Y104.5 E6.36292
G1 X102.176 Y103.153 E6.40834
G1 X102.73 Y102.075 E6.44865
G1 X103.523 Y101.217 E6.48751
M204 S2000
M205 X10 Y10
G0 F3000 X103.782 Y101.527
M204 S1000
M205 X8 Y8
G1 F2400 X104.478 Y101.092 E6.5148
G1 X105.252 Y100.762 E6.54279
G1 X106.214 Y100.627 E6.5751
G1 X106.708 Y100.644 E6.59154
G1 X107.444 Y100.765 E6.61635
G1 X108.334 Y101.153 E6.64864
G1 X108.851 Y101.484 E6.66906
G1 X109.57 Y102.223 E6.70335
G1 X110.133 Y103.269 E6.74286
G1 X110.336 Y104.503 E6.78446
G1 X110.134 Y105.712 E6.82522
G1 X109.631 Y106.696 E6.86198
G1 X108.914 Y107.472 E6.89712
G1 X108.34 Y107.844 E6.91987
G1 X107.451 Y108.234 E6.95216
G1 X106.544 Y108.379 E6.98271
G1 X105.878 Y108.343 E7.00489
G1 X105.113 Y108.193 E7.03082
G1 X104.337 Y107.832 E7.05929
G1 X103.82 Y107.487 E7.07996
G1 X103.143 Y106.812 E7.11176
G1 X102.563 Y105.726 E7.15271
G1 X102.359 Y104.499 E7.19408
G1 X102.561 Y103.28 E7.23517
G1 X103.061 Y102.307 E7.27156
G1 X103.782 Y101.527 E7.30689
M204 S2000
M205 X10 Y10
G0 F3000 X104.041 Y101.837
M204 S1000
M205 X8 Y8
G1 F2400 X104.635 Y101.46 E7.33029
G1 X105.36 Y101.151 E7.3565
G1 X106.203 Y101.027 E7.38484
G1 X106.643 Y101.039 E7.39948
G1 X107.333 Y101.152 E7.42273
G1 X108.118 Y101.49 E7.45116
G1 X108.596 Y101.796 E7.47004
G1 X109.245 Y102.463 E7.50099
G1 X109.749 Y103.399 E7.53635
G1 X109.931 Y104.505 E7.57363
G1 X109.75 Y105.584 E7.61002
G1 X109.3 Y106.465 E7.64292
G1 X108.656 Y107.162 E7.67448
G1 X108.122 Y107.508 E7.69565
G1 X107.337 Y107.847 E7.72409
G1 X106.525 Y107.977 E7.75144
G1 X105.955 Y107.95 E7.77042
G1 X105.234 Y107.809 E7.79485
G1 X104.559 Y107.499 E7.81956
G1 X104.072 Y107.174 E7.83903
G1 X103.468 Y106.572 E7.86739
G1 X102.948 Y105.597 E7.90415
G1 X102.765 Y104.498 E7.9412
G1 X102.946 Y103.407 E7.97799
G1 X103.392 Y102.539 E8.01044
G1 X104.041 Y101.837 E8.04224
M204 S2000
M205 X10 Y10
G0 F3000 X104.3 Y102.147
M204 S1000
M205 X8 Y8
G1 F2400 X104.792 Y101.828 E8.06174
G1 X105.471 Y101.539 E8.08629
G1 X106.196 Y101.427 E8.11069
G1 X106.579 Y101.434 E8.12343
G1 X107.222 Y101.539 E8.1451
G1 X107.902 Y101.827 E8.16966
G1 X108.344 Y102.11 E8.18712
G1 X108.919 Y102.7 E8.21452
G1 X109.365 Y103.529 E8.24583
G1 X109.525 Y104.504 E8.27869
G1 X109.365 Y105.459 E8.3109
G1 X108.97 Y106.232 E8.33977
G1 X108.396 Y106.853 E8.36789
G1 X107.904 Y107.172 E8.3874
G1 X107.226 Y107.46 E8.4119
G1 X106.505 Y107.575 E8.43618
G1 X105.974 Y107.55 E8.45386
G1 X105.359 Y107.426 E8.47473
G1 X104.781 Y107.166 E8.49581
G1 X104.324 Y106.861 E8.51408
G1 X103.793 Y106.332 E8.53901
G1 X103.332 Y105.468 E8.57158
G1 X103.171 Y104.498 E8.60429
G1 X103.331 Y103.534 E8.63679
G1 X103.723 Y102.771 E8.66532
G1 X104.3 Y102.147 E8.69359
M204 S2000
M205 X10 Y10
G0 F3000 X104.56 Y102.456
M204 S1000
M205 X8 Y8
G1 F2400 X105.01 Y102.164 E8.71143
G1 X105.582 Y101.927 E8.73202
G1 X106.194 Y101.827 E8.75265
G1 X106.515 Y101.829 E8.76332
G1 X107.109 Y101.926 E8.78334
G1 X107.686 Y102.164 E8.8041
G1 X108.092 Y102.424 E8.82014
G1 X108.593 Y102.938 E8.84401
G1 X108.981 Y103.659 E8.87124
G1 X109.119 Y104.503 E8.89969
G1 X108.98 Y105.334 E8.92771
G1 X108.64 Y105.999 E8.95255
G1 X108.136 Y106.544 E8.97724
G1 X107.686 Y106.836 E8.99508
G1 X107.113 Y107.073 E9.01571
G1 X106.484 Y107.173 E9.03689
G1 X106.053 Y107.158 E9.05123
G1 X105.484 Y107.043 E9.07054
G1 X105.003 Y106.833 E9.088
G1 X104.576 Y106.548 E9.10507
G1 X104.118 Y106.092 E9.12657
G1 X103.717 Y105.339 E9.15494
G1 X103.577 Y104.498 E9.1833
G1 X103.716 Y103.661 E9.21152
G1 X104.054 Y103.003 E9.23612
G1 X104.56 Y102.456 E9.26091
M204 S2000
M205 X10 Y10
G0 F3000 X105.083 Y103.069
M204 S1000
M205 X8 Y8
G1 F2400 X105.323 Y102.901 E9.27065
G1 X105.767 Y102.707 E9.28677
G1 X106.204 Y102.627 E9.30154
G1 X106.456 Y102.624 E9.30993
G1 X106.929 Y102.707 E9.3259
G1 X107.373 Y102.901 E9.34201
G1 X107.61 Y103.065 E9.3516
G1 X107.944 Y103.418 E9.36776
G1 X108.211 Y103.915 E9.38653
G1 X108.307 Y104.501 E9.40628
G1 X108.21 Y105.084 E9.42594
G1 X107.979 Y105.535 E9.44279
G1 X107.613 Y105.931 E9.46072
G1 X107.373 Y106.099 E9.47047
G1 X106.929 Y106.293 E9.48658
G1 X106.492 Y106.373 E9.50136
G1 X106.204 Y106.373 E9.51094
G1 X105.767 Y106.293 E9.52571
G1 X105.323 Y106.099 E9.54183
G1 X105.086 Y105.935 E9.55142
G1 X104.766 Y105.608 E9.56663
G1 X104.485 Y105.081 E9.5865
G1 X104.389 Y104.499 E9.60612
G1 X104.486 Y103.915 E9.62581
G1 X104.717 Y103.465 E9.64263
G1 X105.083 Y103.069 E9.66057
M204 S2000
M205 X10 Y10
G0 F3000 X104.822 Y102.763
M204 S1000
M205 X8 Y8
G1 F2400 X105.163 Y102.534 E9.67423
G1 X105.695 Y102.314 E9.69337
G1 X106.199 Y102.227 E9.71039
G1 X106.451 Y102.224 E9.71877
G1 X106.998 Y102.313 E9.7372
G1 X107.533 Y102.534 E9.75645
G1 X107.838 Y102.736 E9.76862
G1 X108.268 Y103.177 E9.78911
G1 X108.596 Y103.787 E9.81214
G1 X108.713 Y104.502 E9.83624
G1 X108.595 Y105.209 E9.86008
G1 X108.31 Y105.766 E9.88089
G1 X107.874 Y106.237 E9.90224
G1 X107.533 Y106.466 E9.9159
G1 X107.001 Y106.686 E9.93505
G1 X106.492 Y106.773 E9.95222
G1 X106.132 Y106.766 E9.9642
G1 X105.607 Y106.66 E9.98201
G1 X105.163 Y106.466 E9.99813
G1 X104.858 Y106.264 E10.01029
G1 X104.442 Y105.85 E10.02981
G1 X104.101 Y105.21 E10.05393
G1 X103.983 Y104.498 E10.07794
G1 X104.101 Y103.788 E10.10188
G1 X104.385 Y103.235 E10.12255
G1 X104.822 Y102.763 E10.14395
M204 S2000
M205 X10 Y10
G1 F2400 E4.14395
G0 F3000 X105.079 Y102.502
G0 X106.178 Y102.16
G0 X111.865 Y103.28
M204 S1000
M205 X8 Y8
G1 F2400 E10.14395
G1 X112.361 Y102.315 E10.18004
G1 X113.174 Y101.435 E10.21988
G1 X114.407 Y100.789 E10.26618
G1 X115.519 Y100.627 E10.30356
G1 X116.015 Y100.644 E10.32006
G1 X116.809 Y100.774 E10.34682
G1 X117.799 Y101.217 E10.3829
G1 X118.605 Y101.909 E10.41823
G1 X119.148 Y102.663 E10.44913
G1 X119.453 Y103.426 E10.47646
G1 X119.642 Y104.487 E10.51231
G1 X119.437 Y105.715 E10.55372
G1 X118.937 Y106.693 E10.59025
G1 X118.212 Y107.473 E10.62567
G1 X117.52 Y107.908 E10.65285
G1 X116.75 Y108.234 E10.68067
G1 X115.848 Y108.379 E10.71105
G1 X115.182 Y108.343 E10.73324
G1 X114.417 Y108.193 E10.75916
G1 X113.641 Y107.832 E10.78763
G1 X113.124 Y107.487 E10.8083
G1 X112.447 Y106.812 E10.8401
G1 X111.867 Y105.726 E10.88105
G1 X111.663 Y104.499 E10.92242
G1 X111.865 Y103.28 E10.96352
M204 S2000
M205 X10 Y10
G0 F3000 X112.693 Y102.545
M204 S1000
M205 X8 Y8
G1 F2400 X113.422 Y101.756 E10.99924
G1 X114.532 Y101.175 E11.04092
G1 X115.508 Y101.027 E11.07375
G1 X115.95 Y101.039 E11.08845
G1 X116.695 Y101.161 E11.11356
G1 X117.582 Y101.558 E11.14589
G1 X118.307 Y102.18 E11.17766
G1 X118.795 Y102.858 E11.20544
G1 X119.066 Y103.537 E11.22976
G1 X119.236 Y104.488 E11.26189
G1 X119.052 Y105.59 E11.29905
G1 X118.606 Y106.462 E11.33163
G1 X117.955 Y107.163 E11.36344
G1 X117.364 Y107.54 E11.38676
G1 X116.64 Y107.847 E11.41292
G1 X115.829 Y107.977 E11.44023
G1 X115.259 Y107.95 E11.45921
G1 X114.538 Y107.809 E11.48365
G1 X113.863 Y107.499 E11.50835
G1 X113.376 Y107.174 E11.52783
G1 X112.772 Y106.572 E11.55619
G1 X112.252 Y105.597 E11.59294
G1 X112.069 Y104.498 E11.63
G1 X112.25 Y103.407 E11.66678
G1 X112.693 Y102.545 E11.69902
M204 S2000
M205 X10 Y10
G0 F3000 X113.025 Y102.775
M204 S1000
M205 X8 Y8
G1 F2400 X113.669 Y102.078 E11.73058
G1 X114.658 Y101.56 E11.76771
G1 X115.501 Y101.427 E11.7961
G1 X115.885 Y101.434 E11.80887
G1 X116.581 Y101.548 E11.83233
G1 X117.365 Y101.899 E11.8609
G1 X118.009 Y102.451 E11.88911
G1 X118.444 Y103.056 E11.91389
G1 X118.679 Y103.644 E11.93495
G1 X118.83 Y104.489 E11.9635
G1 X118.667 Y105.465 E11.99642
G1 X118.275 Y106.231 E12.02504
G1 X117.697 Y106.854 E12.0533
G1 X117.208 Y107.172 E12.0727
G1 X116.53 Y107.46 E12.0972
G1 X115.809 Y107.575 E12.12149
G1 X115.278 Y107.55 E12.13917
G1 X114.663 Y107.426 E12.16003
G1 X114.085 Y107.166 E12.18111
G1 X113.628 Y106.861 E12.19939
G1 X113.097 Y106.332 E12.22432
G1 X112.636 Y105.468 E12.25689
G1 X112.475 Y104.498 E12.28959
G1 X112.635 Y103.534 E12.32209
G1 X113.025 Y102.775 E12.35048
M204 S2000
M205 X10 Y10
G0 F3000 X113.357 Y103.005
M204 S1000
M205 X8 Y8
G1 F2400 X113.916 Y102.4 E12.37787
G1 X114.784 Y101.945 E12.41047
G1 X115.499 Y101.827 E12.43457
G1 X115.82 Y101.829 E12.44525
G1 X116.467 Y101.935 E12.46705
G1 X117.148 Y102.24 E12.49187
G1 X117.711 Y102.722 E12.51652
G1 X118.091 Y103.25 E12.53816
G1 X118.292 Y103.755 E12.55624
G1 X118.424 Y104.491 E12.58111
G1 X118.282 Y105.34 E12.60974
G1 X117.944 Y106 E12.6344
G1 X117.44 Y106.544 E12.65907
G1 X116.99 Y106.836 E12.67691
G1 X116.417 Y107.073 E12.69753
G1 X115.788 Y107.173 E12.71871
G1 X115.357 Y107.158 E12.73306
G1 X114.788 Y107.043 E12.75237
G1 X114.307 Y106.833 E12.76982
G1 X113.88 Y106.548 E12.7869
G1 X113.422 Y106.092 E12.80839
G1 X113.021 Y105.339 E12.83677
G1 X112.881 Y104.498 E12.86512
G1 X113.02 Y103.661 E12.89334
G1 X113.357 Y103.005 E12.91787
M204 S2000
M205 X10 Y10
G0 F3000 X114.021 Y103.465
M204 S1000
M205 X8 Y8
G1 F2400 X114.41 Y103.044 E12.93694
G1 X115.044 Y102.712 E12.96074
G1 X115.509 Y102.627 E12.97646
G1 X115.761 Y102.624 E12.98485
G1 X116.234 Y102.707 E13.00082
G1 X116.716 Y102.924 E13.0184
G1 X117.092 Y103.231 E13.03454
G1 X117.374 Y103.611 E13.05028
G1 X117.504 Y103.896 E13.0607
G1 X117.612 Y104.5 E13.08111
G1 X117.514 Y105.084 E13.10081
G1 X117.283 Y105.535 E13.11766
G1 X116.917 Y105.931 E13.13559
G1 X116.677 Y106.099 E13.14534
G1 X116.233 Y106.293 E13.16145
G1 X115.796 Y106.373 E13.17623
G1 X115.508 Y106.373 E13.18581
G1 X115.071 Y106.293 E13.20058
G1 X114.627 Y106.099 E13.2167
G1 X114.39 Y105.935 E13.22629
G1 X114.07 Y105.608 E13.2415
G1 X113.789 Y105.081 E13.26137
G1 X113.693 Y104.499 E13.28099
G1 X113.79 Y103.915 E13.30068
G1 X114.021 Y103.465 E13.3175
M204 S2000
M205 X10 Y10
G0 F3000 X113.689 Y103.235
M204 S1000
M205 X8 Y8
G1 F2400 X114.163 Y102.722 E13.34073
G1 X114.913 Y102.329 E13.36889
G1 X115.504 Y102.227 E13.38884
G1 X115.756 Y102.224 E13.39722
G1 X116.351 Y102.321 E13.41727
G1 X116.932 Y102.582 E13.43846
G1 X117.413 Y102.993 E13.4595
G1 X117.738 Y103.445 E13.47802
G1 X117.898 Y103.826 E13.49176
G1 X118.018 Y104.496 E13.5144
G1 X117.898 Y105.212 E13.53855
G1 X117.614 Y105.766 E13.55925
G1 X117.178 Y106.237 E13.5806
G1 X116.837 Y106.466 E13.59426
G1 X116.305 Y106.686 E13.61341
G1 X115.796 Y106.773 E13.63059
G1 X115.436 Y106.766 E13.64256
G1 X114.911 Y106.66 E13.66038
G1 X114.467 Y106.466 E13.67649
G1 X114.162 Y106.264 E13.68866
G1 X113.746 Y105.85 E13.70818
G1 X113.405 Y105.21 E13.7323
