;FLAVOR:Marlin
;TIME:1136
;Filament used: 0.611011m
;Layer height: 0.2
;MINX:100.281
;MINY:95.281
;MINZ:0.2
;MAXX:121.719
;MAXY:126.719
;MAXZ:20
;TARGET_MACHINE.NAME:Anycubic Kobra
;Generated with Cura_SteamEngine 5.6.0
M140 S60
M105
M190 S60
M104 S200
M105
M109 S200
M82 ;absolute extrusion mode
G28 ;Home
G1 Z15.0 F1200 ;Move the platform down 15mm
;Prime the extruder
G92 E0
G1 F200 E3
G92 E0
G92 E0
G92 E0
G1 F2400 E-6
;LAYER_COUNT:100
;LAYER:0
M107
M204 S2000
M205 X10 Y10
G0 F3000 X102.13 Y96.801 Z0.2
M204 S1000
M205 X8 Y8
;TYPE:SKIRT
G1 F2400 E0
G1 X103.029 Y96.118 E0.03755
G1 X104.143 Y95.623 E0.0781
G1 X105.054 Y95.392 E0.10936
G1 X106.126 Y95.281 E0.1452
G1 X107.33 Y95.449 E0.18563
G1 X108.382 Y95.812 E0.22265
G1 X109.369 Y96.39 E0.26069
G1 X110.177 Y97.109 E0.29666
G1 X110.856 Y98.002 E0.33398
G1 X111.001 Y98.299 E0.34497
G1 X111.318 Y97.718 E0.36698
G1 X112.13 Y96.801 E0.40772
G1 X113.029 Y96.118 E0.44527
G1 X114.143 Y95.623 E0.48582
G1 X115.054 Y95.392 E0.51708
G1 X116.126 Y95.281 E0.55292
G1 X117.33 Y95.449 E0.59335
G1 X118.382 Y95.812 E0.63037
G1 X119.369 Y96.39 E0.66841
G1 X120.177 Y97.109 E0.70438
G1 X120.886 Y98.041 E0.74333
G1 X121.394 Y99.186 E0.785
G1 X121.594 Y99.964 E0.81171
G1 X121.719 Y101.098 E0.84966
G1 X121.553 Y102.325 E0.89084
G1 X121.188 Y103.39 E0.92829
G1 X120.615 Y104.374 E0.96616
G1 X119.88 Y105.163 E1.00202
G1 X119.087 Y105.812 E1.03611
G1 X118.701 Y105.999 E1.05037
G1 X119.369 Y106.39 E1.07611
G1 X120.177 Y107.109 E1.11209
G1 X120.886 Y108.041 E1.15104
G1 X121.394 Y109.186 E1.1927
G1 X121.594 Y109.964 E1.21942
G1 X121.719 Y111.098 E1.25736
G1 X121.553 Y112.325 E1.29854
G1 X121.188 Y113.39 E1.33599
G1 X120.615 Y114.374 E1.37386
G1 X119.88 Y115.163 E1.40973
G1 X119.087 Y115.812 E1.44381
G1 X118.694 Y116.002 E1.45833
G1 X119.216 Y116.302 E1.47835
G1 X119.938 Y116.853 E1.50856
G1 X120.822 Y117.907 E1.55431
G1 X121.399 Y119.204 E1.60153
G1 X121.596 Y119.979 E1.62813
G1 X121.719 Y121.106 E1.66583
G1 X121.553 Y122.325 E1.70675
G1 X121.188 Y123.39 E1.74419
G1 X120.615 Y124.374 E1.78207
G1 X119.88 Y125.163 E1.81793
G1 X119.043 Y125.847 E1.85388
G1 X117.71 Y126.427 E1.90224
G1 X116.946 Y126.608 E1.92835
G1 X115.871 Y126.719 E1.96429
G1 X114.659 Y126.549 E2.005
G1 X113.616 Y126.186 E2.04173
G1 X112.614 Y125.605 E2.08025
G1 X111.685 Y124.708 E2.12321
G1 X111.139 Y123.96 E2.15401
G1 X111.003 Y123.707 E2.16356
G1 X110.615 Y124.374 E2.18923
G1 X109.88 Y125.163 E2.22509
G1 X109.043 Y125.847 E2.26104
G1 X107.71 Y126.427 E2.30939
G1 X106.946 Y126.608 E2.33551
G1 X105.871 Y126.719 E2.37145
G1 X104.659 Y126.549 E2.41216
G1 X103.616 Y126.186 E2.44889
G1 X102.614 Y125.605 E2.48741
G1 X101.685 Y124.708 E2.53036
G1 X101.139 Y123.96 E2.56117
G1 X100.687 Y123.118 E2.59295
G1 X100.394 Y121.96 E2.63268
G1 X100.286 Y120.95 E2.66646
G1 X100.42 Y119.731 E2.70725
G1 X100.775 Y118.741 E2.74223
G1 X101.302 Y117.784 E2.77857
G1 X101.851 Y117.065 E2.80866
G1 X102.866 Y116.214 E2.85271
G1 X103.299 Y116.002 E2.86875
G1 X102.614 Y115.605 E2.89508
G1 X101.685 Y114.708 E2.93803
G1 X101.139 Y113.96 E2.96883
G1 X100.688 Y113.118 E3.0006
G1 X100.394 Y111.958 E3.04041
G1 X100.281 Y110.873 E3.07669
G1 X100.462 Y109.612 E3.11906
G1 X100.853 Y108.578 E3.15583
G1 X101.318 Y107.718 E3.18834
G1 X102.13 Y106.801 E3.22908
G1 X102.994 Y106.145 E3.26516
G1 X103.295 Y106 E3.27628
G1 X102.614 Y105.605 E3.30246
G1 X101.685 Y104.708 E3.34541
G1 X101.139 Y103.96 E3.37621
G1 X100.688 Y103.118 E3.40798
G1 X100.394 Y101.958 E3.44778
G1 X100.281 Y100.873 E3.48407
G1 X100.462 Y99.612 E3.52644
G1 X100.853 Y98.578 E3.5632
G1 X101.318 Y97.718 E3.59572
G1 X102.13 Y96.801 E3.63646
M204 S2000
M205 X10 Y10
G0 F3000 X102.403 Y97.096
M204 S1000
M205 X8 Y8
G1 F2400 X103.235 Y96.464 E3.67121
G1 X104.243 Y96.01 E3.70798
G1 X105.095 Y95.79 E3.73725
G1 X106.12 Y95.684 E3.77152
G1 X107.237 Y95.84 E3.80903
G1 X108.214 Y96.177 E3.84341
G1 X109.131 Y96.714 E3.87875
G1 X109.884 Y97.384 E3.91228
G1 X110.538 Y98.244 E3.94821
G1 X111.009 Y99.294 E3.98649
G1 X111.229 Y98.716 E4.00706
G1 X111.647 Y97.95 E4.03608
G1 X112.403 Y97.096 E4.07401
G1 X113.235 Y96.464 E4.10877
G1 X114.243 Y96.01 E4.14554
G1 X115.095 Y95.79 E4.1748
G1 X116.12 Y95.684 E4.20908
G1 X117.237 Y95.84 E4.24659
G1 X118.214 Y96.177 E4.28096
G1 X119.131 Y96.714 E4.31631
G1 X119.884 Y97.384 E4.34983
G1 X120.538 Y98.244 E4.38577
G1 X121.007 Y99.288 E4.42383
G1 X121.196 Y100.008 E4.44859
G1 X121.316 Y101.096 E4.485
G1 X121.162 Y102.232 E4.52313
G1 X120.823 Y103.221 E4.5579
G1 X120.292 Y104.133 E4.593
G1 X119.587 Y104.89 E4.6274
G1 X118.835 Y105.502 E4.65965
G1 X117.71 Y106.003 E4.70061
G1 X118.248 Y106.197 E4.71963
G1 X119.131 Y106.714 E4.75367
G1 X119.884 Y107.384 E4.78719
G1 X120.538 Y108.244 E4.82313
G1 X121.007 Y109.288 E4.86119
G1 X121.196 Y110.008 E4.88595
G1 X121.316 Y111.096 E4.92236
G1 X121.162 Y112.232 E4.96049
G1 X120.823 Y113.221 E4.99526
G1 X120.292 Y114.133 E5.03036
G1 X119.587 Y114.89 E5.06477
G1 X118.835 Y115.502 E5.09701
G1 X117.705 Y116.005 E5.13815
G1 X118.243 Y116.207 E5.15727
G1 X118.973 Y116.62 E5.18516
G1 X119.662 Y117.146 E5.21399
G1 X120.478 Y118.119 E5.25623
G1 X121.011 Y119.303 E5.29942
G1 X121.208 Y120.078 E5.32601
G1 X121.316 Y121.103 E5.36029
G1 X121.162 Y122.232 E5.39819
G1 X120.823 Y123.221 E5.43296
G1 X120.292 Y124.133 E5.46806
G1 X119.587 Y124.89 E5.50247
G1 X118.834 Y125.502 E5.53474
G1 X117.616 Y126.038 E5.579
G1 X116.905 Y126.21 E5.60333
G1 X115.877 Y126.316 E5.63771
G1 X114.755 Y126.159 E5.67539
G1 X113.784 Y125.821 E5.70958
G1 X112.855 Y125.282 E5.74531
G1 X112.007 Y124.471 E5.78433
G1 X111.492 Y123.771 E5.81324
G1 X111.084 Y123.01 E5.84196
G1 X110.996 Y122.715 E5.8522
G1 X110.804 Y123.253 E5.8712
G1 X110.292 Y124.133 E5.90506
G1 X109.587 Y124.89 E5.93946
G1 X108.834 Y125.502 E5.97174
G1 X107.616 Y126.038 E6.016
G1 X106.905 Y126.21 E6.04033
G1 X105.877 Y126.316 E6.0747
G1 X104.755 Y126.159 E6.11238
G1 X103.784 Y125.821 E6.14658
G1 X102.855 Y125.282 E6.1823
G1 X102.007 Y124.471 E6.22133
G1 X101.492 Y123.771 E6.25023
G1 X101.062 Y122.969 E6.2805
G1 X100.792 Y121.918 E6.31659
G1 X100.689 Y120.952 E6.3489
G1 X100.813 Y119.822 E6.38671
G1 X101.152 Y118.876 E6.42013
G1 X101.62 Y118.027 E6.45238
G1 X102.144 Y117.341 E6.48109
G1 X103.123 Y116.52 E6.52359
G1 X104.287 Y115.996 E6.56604
G1 X103.751 Y115.802 E6.585
G1 X102.855 Y115.282 E6.61946
G1 X102.007 Y114.471 E6.65848
G1 X101.492 Y113.771 E6.68739
G1 X101.062 Y112.969 E6.71766
G1 X100.792 Y111.917 E6.75378
G1 X100.684 Y110.881 E6.78842
G1 X100.852 Y109.713 E6.82767
G1 X101.205 Y108.768 E6.86122
G1 X101.647 Y107.95 E6.89215
G1 X102.403 Y107.096 E6.93008
G1 X103.236 Y106.464 E6.96486
G1 X104.286 Y105.996 E7.00309
G1 X103.751 Y105.802 E7.02202
G1 X102.855 Y105.282 E7.05648
G1 X102.007 Y104.471 E7.09551
G1 X101.492 Y103.771 E7.12441
G1 X101.062 Y102.969 E7.15468
G1 X100.792 Y101.917 E7.1908
G1 X100.684 Y100.881 E7.22544
G1 X100.852 Y99.713 E7.26469
G1 X101.205 Y98.768 E7.29824
G1 X101.647 Y97.95 E7.32917
G1 X102.403 Y97.096 E7.3671
M204 S2000
M205 X10 Y10
G0 F3000 X102.673 Y97.394
M204 S1000
M205 X8 Y8
G1 F2400 X103.442 Y96.81 E7.39922
G1 X104.407 Y96.375 E7.43443
G1 X105.136 Y96.188 E7.45946
G1 X106.114 Y96.087 E7.49216
G1 X107.144 Y96.231 E7.52675
G1 X108.046 Y96.542 E7.55848
G1 X108.893 Y97.038 E7.59113
G1 X109.588 Y97.656 E7.62206
G1 X110.192 Y98.451 E7.65527
G1 X110.621 Y99.392 E7.68967
G1 X110.798 Y100.052 E7.7124
G1 X110.913 Y101.094 E7.74726
G1 X110.771 Y102.139 E7.78234
G1 X110.458 Y103.052 E7.81444
G1 X109.969 Y103.892 E7.84677
G1 X109.294 Y104.617 E7.87972
G1 X108.624 Y105.158 E7.90836
G1 X107.52 Y105.65 E7.94856
G1 X106.864 Y105.812 E7.97103
G1 X105.884 Y105.913 E8.0038
G1 X104.85 Y105.768 E8.03853
G1 X103.952 Y105.456 E8.07015
G1 X103.098 Y104.96 E8.10299
G1 X102.328 Y104.232 E8.13824
G1 X101.845 Y103.582 E8.16517
G1 X101.437 Y102.821 E8.19389
G1 X101.19 Y101.875 E8.22641
G1 X101.087 Y100.888 E8.25942
G1 X101.242 Y99.814 E8.29551
G1 X101.58 Y98.908 E8.32767
G1 X101.978 Y98.179 E8.35529
G1 X102.673 Y97.394 E8.39017
M204 S2000
M205 X10 Y10
G0 F3000 X102.943 Y97.692
M204 S1000
M205 X8 Y8
G1 F2400 X103.648 Y97.157 E8.4196
G1 X104.509 Y96.762 E8.45111
G1 X105.177 Y96.586 E8.47408
G1 X106.108 Y96.49 E8.50521
G1 X107.051 Y96.622 E8.53688
G1 X107.878 Y96.907 E8.56598
G1 X108.655 Y97.362 E8.59593
G1 X109.295 Y97.931 E8.62441
G1 X109.846 Y98.656 E8.6547
G1 X110.235 Y99.499 E8.68558
G1 X110.4 Y100.096 E8.70618
G1 X110.51 Y101.092 E8.7395
G1 X110.38 Y102.046 E8.77153
G1 X110.093 Y102.883 E8.80096
G1 X109.646 Y103.651 E8.83051
G1 X109.001 Y104.344 E8.862
G1 X108.413 Y104.814 E8.88704
G1 X107.422 Y105.262 E8.92321
G1 X106.823 Y105.414 E8.94376
G1 X105.891 Y105.51 E8.97493
G1 X104.945 Y105.377 E9.0067
G1 X104.12 Y105.091 E9.03574
G1 X103.34 Y104.638 E9.06574
G1 X102.603 Y103.941 E9.09948
G1 X102.197 Y103.393 E9.12217
G1 X101.813 Y102.678 E9.14916
G1 X101.588 Y101.833 E9.17824
G1 X101.49 Y100.895 E9.20961
G1 X101.632 Y99.911 E9.24268
G1 X101.931 Y99.1 E9.27143
G1 X102.309 Y98.408 E9.29765
G1 X102.943 Y97.692 E9.32946
M204 S2000
M205 X10 Y10
G0 F3000 X103.213 Y97.99
M204 S1000
M205 X8 Y8
G1 F2400 X103.855 Y97.503 E9.35626
G1 X104.676 Y97.126 E9.38631
G1 X105.275 Y96.974 E9.40687
G1 X106.101 Y96.893 E9.43447
G1 X106.958 Y97.013 E9.46325
G1 X107.71 Y97.272 E9.48971
G1 X108.417 Y97.686 E9.51696
G1 X109.002 Y98.206 E9.54299
G1 X109.502 Y98.863 E9.57045
G1 X109.85 Y99.609 E9.59783
G1 X110.002 Y100.14 E9.6162
G1 X110.107 Y101.09 E9.64799
G1 X109.989 Y101.953 E9.67696
G1 X109.728 Y102.714 E9.70372
G1 X109.322 Y103.412 E9.73057
G1 X108.751 Y104.031 E9.75858
G1 X108.199 Y104.472 E9.78208
G1 X107.324 Y104.874 E9.81411
G1 X106.725 Y105.026 E9.83466
G1 X105.899 Y105.107 E9.86227
G1 X105.04 Y104.986 E9.89112
G1 X104.288 Y104.726 E9.91759
G1 X103.58 Y104.314 E9.94483
G1 X102.923 Y103.701 E9.97472
G1 X102.55 Y103.204 E9.99538
G1 X102.188 Y102.529 E10.02086
G1 X101.986 Y101.791 E10.04631
G1 X101.893 Y100.902 E10.07604
G1 X102.022 Y100.009 E10.10605
G1 X102.282 Y99.292 E10.13141
G1 X102.64 Y98.637 E10.15624
G1 X103.213 Y97.99 E10.18499
M204 S2000
M205 X10 Y10
G0 F3000 X103.486 Y98.285
M204 S1000
M205 X8 Y8
G1 F2400 X104.065 Y97.846 E10.20915
G1 X104.778 Y97.513 E10.23533
G1 X105.314 Y97.372 E10.25376
G1 X106.093 Y97.296 E10.27979
G1 X106.865 Y97.404 E10.30572
G1 X107.542 Y97.637 E10.32953
G1 X108.179 Y98.01 E10.35409
G1 X108.709 Y98.481 E10.37767
G1 X109.156 Y99.068 E10.40221
G1 X109.487 Y99.778 E10.42826
G1 X109.616 Y100.246 E10.44441
G1 X109.704 Y101.087 E10.47253
G1 X109.598 Y101.86 E10.49849
G1 X109.363 Y102.545 E10.52257
G1 X108.998 Y103.174 E10.54676
G1 X108.501 Y103.718 E10.57127
G1 X107.984 Y104.131 E10.59328
G1 X107.222 Y104.487 E10.62125
G1 X106.686 Y104.628 E10.63968
G1 X105.907 Y104.704 E10.66572
G1 X105.135 Y104.596 E10.69164
G1 X104.456 Y104.361 E10.71554
G1 X103.822 Y103.992 E10.73994
G1 X103.241 Y103.458 E10.76619
G1 X102.903 Y103.015 E10.78472
G1 X102.562 Y102.379 E10.80872
G1 X102.372 Y101.685 E10.83265
G1 X102.296 Y100.911 E10.85852
G1 X102.412 Y100.107 E10.88554
G1 X102.633 Y99.484 E10.90752
G1 X102.969 Y98.869 E10.93083
G1 X103.486 Y98.285 E10.95678
M204 S2000
M205 X10 Y10
G0 F3000 X103.756 Y98.583
M204 S1000
M205 X8 Y8
G1 F2400 X104.275 Y98.189 E10.97845
G1 X104.884 Y97.899 E11.00088
G1 X105.353 Y97.77 E11.01706
G1 X106.085 Y97.699 E11.04152
G1 X106.77 Y97.794 E11.06452
G1 X107.375 Y98.003 E11.08581
G1 X107.941 Y98.334 E11.10762
G1 X108.416 Y98.756 E11.12875
G1 X108.811 Y99.275 E11.15045
G1 X109.101 Y99.884 E11.17288
G1 X109.23 Y100.352 E11.18903
G1 X109.301 Y101.082 E11.21342
G1 X109.207 Y101.767 E11.23642
G1 X108.998 Y102.376 E11.25783
G1 X108.673 Y102.936 E11.27937
G1 X108.251 Y103.405 E11.30035
G1 X107.769 Y103.79 E11.32087
G1 X107.116 Y104.101 E11.34493
G1 X106.647 Y104.23 E11.3611
G1 X105.915 Y104.301 E11.38556
G1 X105.23 Y104.206 E11.40857
G1 X104.624 Y103.996 E11.4299
G1 X104.06 Y103.668 E11.4516
G1 X103.559 Y103.215 E11.47406
G1 X103.221 Y102.772 E11.4926
G1 X102.936 Y102.231 E11.51293
G1 X102.77 Y101.646 E11.53316
G1 X102.699 Y100.921 E11.55739
G1 X102.802 Y100.203 E11.58151
G1 X102.984 Y99.676 E11.60006
G1 X103.3 Y99.098 E11.62197
G1 X103.756 Y98.583 E11.64485
M204 S2000
M205 X10 Y10
G0 F3000 X104.029 Y98.878
M204 S1000
M205 X8 Y8
G1 F2400 X104.483 Y98.533 E11.66381
G1 X104.99 Y98.285 E11.68258
G1 X105.459 Y98.156 E11.69876
G1 X106.076 Y98.101 E11.71936
G1 X106.675 Y98.184 E11.73948
G1 X107.208 Y98.369 E11.75824
G1 X107.703 Y98.658 E11.77731
G1 X108.123 Y99.031 E11.79599
G1 X108.467 Y99.483 E11.81488
G1 X108.715 Y99.99 E11.83365
G1 X108.844 Y100.458 E11.8498
G1 X108.899 Y101.073 E11.87034
G1 X108.816 Y101.674 E11.89052
G1 X108.633 Y102.207 E11.90926
G1 X108.348 Y102.698 E11.92814
G1 X108.002 Y103.092 E11.94558
G1 X107.553 Y103.45 E11.96468
G1 X107.01 Y103.715 E11.98478
G1 X106.541 Y103.844 E12.00096
G1 X105.924 Y103.899 E12.02156
G1 X105.325 Y103.816 E12.04167
G1 X104.792 Y103.631 E12.06044
G1 X104.298 Y103.343 E12.07946
G1 X103.874 Y102.968 E12.09828
G1 X103.575 Y102.586 E12.11442
G1 X103.31 Y102.083 E12.13333
G1 X103.155 Y101.537 E12.15221
G1 X103.101 Y100.93 E12.17247
G1 X103.182 Y100.329 E12.19264
G1 X103.335 Y99.868 E12.2088
G1 X103.631 Y99.327 E12.22931
G1 X104.029 Y98.878 E12.24927
M204 S2000
M205 X10 Y10
G0 F3000 X104.528 Y99.504
M204 S1000
M205 X8 Y8
G1 F2400 X104.848 Y99.245 E12.26296
G1 X105.216 Y99.053 E12.27676
G1 X105.608 Y98.938 E12.29035
G1 X106.02 Y98.901 E12.30411
G1 X106.43 Y98.946 E12.31783
G1 X106.82 Y99.068 E12.33142
G1 X107.185 Y99.267 E12.34525
G1 X107.497 Y99.529 E12.3588
G1 X107.755 Y99.848 E12.37244
G1 X107.947 Y100.216 E12.38625
G1 X108.062 Y100.607 E12.3998
G1 X108.099 Y101.018 E12.41353
G1 X108.054 Y101.43 E12.42731
G1 X107.933 Y101.82 E12.4409
G1 X107.735 Y102.184 E12.45468
G1 X107.5 Y102.47 E12.46699
G1 X107.152 Y102.755 E12.48195
G1 X106.784 Y102.947 E12.49576
G1 X106.392 Y103.062 E12.50934
G1 X105.98 Y103.099 E12.5231
G1 X105.57 Y103.054 E12.53682
G1 X105.18 Y102.932 E12.55041
G1 X104.815 Y102.733 E12.56424
G1 X104.5 Y102.47 E12.57789
G1 X104.243 Y102.151 E12.59151
G1 X104.067 Y101.82 E12.60398
G1 X103.938 Y101.392 E12.61885
G1 X103.901 Y100.982 E12.63254
G1 X103.946 Y100.569 E12.64636
G1 X104.068 Y100.18 E12.65992
G1 X104.267 Y99.815 E12.67374
G1 X104.528 Y99.504 E12.68725
M204 S2000
M205 X10 Y10
G0 F3000 X104.276 Y99.193
M204 S1000
M205 X8 Y8
G1 F2400 X104.663 Y98.89 E12.7036
G1 X105.103 Y98.669 E12.71997
G1 X105.495 Y98.554 E12.73356
G1 X106.064 Y98.503 E12.75256
G1 X106.549 Y98.564 E12.76882
G1 X107.011 Y98.717 E12.78501
G1 X107.442 Y98.961 E12.80148
G1 X107.808 Y99.277 E12.81756
G1 X108.11 Y99.663 E12.83386
G1 X108.331 Y100.103 E12.85024
G1 X108.446 Y100.494 E12.8638
G1 X108.497 Y101.061 E12.88273
G1 X108.436 Y101.549 E12.89909
G1 X108.284 Y102.011 E12.91526
G1 X108.044 Y102.438 E12.93156
G1 X107.753 Y102.779 E12.94647
G1 X107.337 Y103.11 E12.96415
G1 X106.897 Y103.331 E12.98052
G1 X106.505 Y103.446 E12.99411
G1 X105.936 Y103.497 E13.01311
G1 X105.451 Y103.436 E13.02937
G1 X104.989 Y103.283 E13.04556
G1 X104.559 Y103.04 E13.06198
G1 X104.189 Y102.721 E13.07823
G1 X103.89 Y102.339 E13.09437
G1 X103.684 Y101.935 E13.10945
G1 X103.54 Y101.428 E13.12698
G1 X103.503 Y100.939 E13.14329
G1 X103.564 Y100.449 E13.15971
G1 X103.686 Y100.06 E13.17327
G1 X103.961 Y99.558 E13.19231
G1 X104.276 Y99.193 E13.20835
M204 S2000
M205 X10 Y10
G1 F2400 E7.20835
G0 F3000 X104.234 Y99.144
G0 X105.018 Y98.629
G0 X106 Y98.432
G0 X112.022 Y100.009
M204 S1000
M205 X8 Y8
G1 F2400 E13.20835
G1 X112.282 Y99.292 E13.23371
G1 X112.64 Y98.637 E13.25854
G1 X113.213 Y97.99 E13.28729
G1 X113.855 Y97.503 E13.31409
G1 X114.676 Y97.126 E13.34414
G1 X115.275 Y96.974 E13.36469
G1 X116.101 Y96.893 E13.3923
G1 X116.958 Y97.013 E13.42108
G1 X117.71 Y97.272 E13.44753
G1 X118.417 Y97.686 E13.47478
G1 X119.002 Y98.206 E13.50081
G1 X119.502 Y98.863 E13.52827
G1 X119.85 Y99.609 E13.55565
G1 X120.002 Y100.14 E13.57402
G1 X120.107 Y101.09 E13.60581
G1 X119.989 Y101.953 E13.63478
G1 X119.728 Y102.714 E13.66154
G1 X119.322 Y103.412 E13.6884
G1 X118.751 Y104.031 E13.71641
G1 X118.199 Y104.472 E13.73991
