;FLAVOR:Marlin
;TIME:5521
;Filament used: 5.15735m
;Layer height: 0.2
;MINX:81.696
;MINY:79.699
;MINZ:0.1
;MAXX:141.304
;MAXY:142.301
;MAXZ:19.2
;TARGET_MACHINE.NAME:Anycubic Kobra
;Generated with Cura_SteamEngine 5.6.0
M140 S60
M105
M190 S60
M104 S200
M105
M109 S200
M82 ;absolute extrusion mode
G28 ;Home
G1 Z15.0 F1200 ;Move the platform down 15mm
;Prime the extruder
G92 E0
G1 F200 E3
G92 E0
G92 E0
G92 E0
G1 F2400 E-6
;LAYER_COUNT:96
;LAYER:0
M107
M204 S2000
M205 X10 Y10
G0 F3000 X82.703 Y80.92 Z0.2
M204 S1000
M205 X8 Y8
;TYPE:SKIRT
G1 F2400 E0
G1 X83.427 Y80.337 E0.03092
G1 X84.419 Y79.843 E0.06778
G1 X85.322 Y79.711 E0.09813
G1 X125.701 Y79.699 E1.44114
G1 X126.782 Y79.921 E1.47784
G1 X127.69 Y80.404 E1.51205
G1 X128.075 Y80.706 E1.52833
G1 X128.658 Y81.43 E1.55924
G1 X129.123 Y82.364 E1.59395
G1 X129.204 Y82.786 E1.60824
G1 X137.709 Y82.778 E1.89111
G1 X138.79 Y83 E1.92782
G1 X139.698 Y83.483 E1.96203
G1 X140.083 Y83.785 E1.9783
G1 X140.666 Y84.509 E2.00922
G1 X141.16 Y85.501 E2.04608
G1 X141.292 Y86.404 E2.07643
G1 X141.304 Y95.783 E2.38838
G1 X141.082 Y96.864 E2.42508
G1 X140.599 Y97.772 E2.45929
G1 X140.297 Y98.157 E2.47556
G1 X139.573 Y98.74 E2.50648
G1 X138.581 Y99.234 E2.54334
G1 X137.678 Y99.366 E2.57369
G1 X129.296 Y99.378 E2.85248
G1 X129.296 Y123.704 E3.66157
G1 X129.074 Y124.785 E3.69827
G1 X128.591 Y125.693 E3.73248
G1 X128.289 Y126.078 E3.74875
G1 X127.565 Y126.661 E3.77967
G1 X126.573 Y127.155 E3.81653
G1 X125.67 Y127.287 E3.84688
G1 X109.296 Y127.3 E4.39148
G1 X109.296 Y138.706 E4.77085
G1 X109.074 Y139.787 E4.80755
G1 X108.591 Y140.695 E4.84176
G1 X108.289 Y141.08 E4.85803
G1 X107.565 Y141.663 E4.88895
G1 X106.573 Y142.157 E4.92581
G1 X105.67 Y142.289 E4.95616
G1 X85.291 Y142.301 E5.63397
G1 X84.21 Y142.079 E5.67068
G1 X83.302 Y141.596 E5.70488
G1 X82.917 Y141.294 E5.72116
G1 X82.334 Y140.57 E5.75207
G1 X81.84 Y139.578 E5.78893
G1 X81.708 Y138.675 E5.81929
G1 X81.696 Y83.294 E7.66127
G1 X81.918 Y82.213 E7.69797
G1 X82.401 Y81.305 E7.73218
G1 X82.703 Y80.92 E7.74845
M204 S2000
M205 X10 Y10
G0 F3000 X82.954 Y81.232
M204 S1000
M205 X8 Y8
G1 F2400 X83.647 Y80.674 E7.77804
G1 X84.539 Y80.23 E7.81118
G1 X85.38 Y80.107 E7.83945
G1 X125.66 Y80.099 E9.17917
G1 X126.646 Y80.301 E9.21265
G1 X127.451 Y80.725 E9.24291
G1 X127.763 Y80.957 E9.25584
G1 X128.321 Y81.65 E9.28543
G1 X128.765 Y82.542 E9.31857
G1 X128.87 Y83.261 E9.34274
G1 X129.38 Y83.186 E9.35989
G1 X137.668 Y83.178 E9.63555
G1 X138.654 Y83.38 E9.66902
G1 X139.459 Y83.804 E9.69928
G1 X139.771 Y84.036 E9.71221
G1 X140.329 Y84.729 E9.74181
G1 X140.773 Y85.621 E9.77495
G1 X140.896 Y86.462 E9.80322
G1 X140.904 Y95.742 E10.11187
G1 X140.702 Y96.728 E10.14535
G1 X140.278 Y97.533 E10.17561
G1 X140.046 Y97.845 E10.18854
G1 X139.353 Y98.403 E10.21813
G1 X138.461 Y98.847 E10.25127
G1 X137.62 Y98.97 E10.27954
G1 X129.371 Y98.978 E10.5539
G1 X128.896 Y98.886 E10.57
G1 X128.896 Y123.663 E11.39408
G1 X128.694 Y124.649 E11.42756
G1 X128.27 Y125.454 E11.45782
G1 X128.038 Y125.766 E11.47075
G1 X127.345 Y126.324 E11.50034
G1 X126.453 Y126.768 E11.53348
G1 X125.612 Y126.891 E11.56175
G1 X108.896 Y126.9 E12.11773
G1 X108.896 Y138.665 E12.50904
G1 X108.694 Y139.651 E12.54251
G1 X108.27 Y140.456 E12.57277
G1 X108.038 Y140.768 E12.5857
G1 X107.345 Y141.326 E12.6153
G1 X106.453 Y141.77 E12.64844
G1 X105.612 Y141.893 E12.67671
G1 X85.332 Y141.901 E13.35122
G1 X84.346 Y141.699 E13.3847
G1 X83.541 Y141.275 E13.41496
G1 X83.229 Y141.043 E13.42789
G1 X82.671 Y140.35 E13.45748
G1 X82.227 Y139.458 E13.49062
G1 X82.104 Y138.617 E13.51889
G1 X82.096 Y83.335 E15.35758
G1 X82.298 Y82.349 E15.39105
G1 X82.722 Y81.544 E15.42132
G1 X82.954 Y81.232 E15.43425
M204 S2000
M205 X10 Y10
G0 F3000 X83.245 Y81.511
M204 S1000
M205 X8 Y8
G1 F2400 X83.863 Y81.013 E15.46064
G1 X84.659 Y80.617 E15.49022
G1 X85.438 Y80.503 E15.5164
G1 X125.619 Y80.499 E16.85283
G1 X126.509 Y80.681 E16.88304
G1 X127.264 Y81.079 E16.91143
G1 X127.484 Y81.248 E16.92065
G1 X127.982 Y81.866 E16.94705
G1 X128.378 Y82.662 E16.97662
G1 X128.492 Y83.441 E17.00281
G1 X128.496 Y83.777 E17.01398
G1 X128.72 Y83.687 E17.02201
G1 X129.438 Y83.582 E17.04615
G1 X137.627 Y83.578 E17.31852
G1 X138.517 Y83.76 E17.34873
G1 X139.272 Y84.158 E17.37712
G1 X139.492 Y84.327 E17.38634
G1 X139.99 Y84.945 E17.41274
G1 X140.386 Y85.741 E17.44231
G1 X140.5 Y86.52 E17.4685
G1 X140.504 Y95.701 E17.77386
G1 X140.322 Y96.591 E17.80407
G1 X139.924 Y97.346 E17.83246
G1 X139.755 Y97.566 E17.84169
G1 X139.137 Y98.064 E17.86808
G1 X138.341 Y98.46 E17.89765
G1 X137.562 Y98.574 E17.92384
G1 X129.371 Y98.578 E18.19627
G1 X128.496 Y98.392 E18.22603
G1 X128.496 Y123.622 E19.06518
G1 X128.314 Y124.512 E19.09539
G1 X127.916 Y125.267 E19.12378
G1 X127.747 Y125.487 E19.13301
G1 X127.129 Y125.985 E19.15941
G1 X126.333 Y126.381 E19.18898
G1 X125.554 Y126.495 E19.21516
G1 X108.496 Y126.5 E19.78251
G1 X108.496 Y138.624 E20.18576
G1 X108.314 Y139.514 E20.21597
G1 X107.916 Y140.269 E20.24436
G1 X107.747 Y140.489 E20.25359
G1 X107.129 Y140.987 E20.27999
G1 X106.333 Y141.383 E20.30956
G1 X105.554 Y141.497 E20.33574
G1 X85.373 Y141.501 E21.00696
G1 X84.483 Y141.319 E21.03718
G1 X83.728 Y140.921 E21.06557
G1 X83.508 Y140.752 E21.07479
G1 X83.01 Y140.134 E21.10119
G1 X82.614 Y139.338 E21.13076
G1 X82.5 Y138.559 E21.15695
G1 X82.496 Y83.376 E22.99234
G1 X82.678 Y82.486 E23.02255
G1 X83.076 Y81.731 E23.05094
G1 X83.245 Y81.511 E23.06017
M204 S2000
M205 X10 Y10
G0 F3000 X83.533 Y81.792
M204 S1000
M205 X8 Y8
G1 F2400 X84.079 Y81.352 E23.08349
G1 X84.779 Y81.004 E23.10949
G1 X85.496 Y80.899 E23.13359
G1 X125.578 Y80.899 E24.46673
G1 X126.374 Y81.062 E24.49375
G1 X127.078 Y81.433 E24.52022
G1 X127.203 Y81.536 E24.52561
G1 X127.643 Y82.082 E24.54893
G1 X127.991 Y82.782 E24.57493
G1 X128.096 Y83.499 E24.59903
G1 X128.096 Y84.426 E24.62986
G1 X128.778 Y84.083 E24.65525
G1 X129.496 Y83.978 E24.67939
G1 X137.586 Y83.978 E24.94846
G1 X138.382 Y84.141 E24.97549
G1 X139.086 Y84.512 E25.00195
G1 X139.211 Y84.615 E25.00734
G1 X139.651 Y85.161 E25.03066
G1 X139.999 Y85.861 E25.05666
G1 X140.104 Y86.578 E25.08077
G1 X140.104 Y95.66 E25.38284
G1 X139.941 Y96.456 E25.40986
G1 X139.57 Y97.16 E25.43633
G1 X139.467 Y97.285 E25.44171
G1 X138.921 Y97.725 E25.46504
G1 X138.221 Y98.073 E25.49104
G1 X137.504 Y98.178 E25.51514
G1 X129.414 Y98.178 E25.78421
G1 X128.616 Y98.014 E25.81131
G1 X128.096 Y97.74 E25.83086
G1 X128.096 Y123.581 E26.69033
G1 X127.933 Y124.377 E26.71736
G1 X127.562 Y125.081 E26.74383
G1 X127.459 Y125.206 E26.74921
G1 X126.913 Y125.646 E26.77254
G1 X126.213 Y125.994 E26.79854
G1 X125.496 Y126.099 E26.82264
G1 X108.096 Y126.1 E27.40137
G1 X108.096 Y138.583 E27.81655
G1 X107.933 Y139.379 E27.84358
G1 X107.562 Y140.083 E27.87004
G1 X107.459 Y140.208 E27.87543
G1 X106.913 Y140.648 E27.89875
G1 X106.213 Y140.996 E27.92475
G1 X105.496 Y141.101 E27.94886
G1 X85.414 Y141.101 E28.61679
G1 X84.618 Y140.938 E28.64381
G1 X83.914 Y140.567 E28.67028
G1 X83.789 Y140.464 E28.67567
G1 X83.349 Y139.918 E28.69899
G1 X83.001 Y139.218 E28.72499
G1 X82.896 Y138.501 E28.74909
G1 X82.896 Y83.417 E30.58119
G1 X83.059 Y82.621 E30.60822
G1 X83.43 Y81.917 E30.63468
G1 X83.533 Y81.792 E30.64007
M204 S2000
M205 X10 Y10
G0 F3000 X83.784 Y82.103
M204 S1000
M205 X8 Y8
G1 F2400 X84.295 Y81.691 E30.6619
G1 X84.901 Y81.39 E30.68441
G1 X85.496 Y81.299 E30.70443
G1 X125.537 Y81.299 E32.0362
G1 X126.239 Y81.443 E32.06003
G1 X126.892 Y81.787 E32.08458
G1 X127.304 Y82.298 E32.10641
G1 X127.605 Y82.904 E32.12892
G1 X127.696 Y83.499 E32.14894
G1 X127.696 Y85.35 E32.2105
G1 X127.844 Y85.134 E32.21921
G1 X128.295 Y84.77 E32.23849
G1 X128.901 Y84.469 E32.26099
G1 X129.496 Y84.378 E32.28101
G1 X137.545 Y84.378 E32.54872
G1 X138.247 Y84.522 E32.57256
G1 X138.9 Y84.866 E32.59711
G1 X139.312 Y85.377 E32.61894
G1 X139.613 Y85.983 E32.64144
G1 X139.704 Y86.578 E32.66146
G1 X139.704 Y95.619 E32.96217
G1 X139.56 Y96.321 E32.986
G1 X139.216 Y96.974 E33.01055
G1 X138.705 Y97.386 E33.03238
G1 X138.099 Y97.687 E33.05489
G1 X137.504 Y97.778 E33.07491
G1 X129.455 Y97.778 E33.34262
G1 X128.753 Y97.634 E33.36645
G1 X128.101 Y97.29 E33.39097
G1 X127.696 Y96.791 E33.41235
G1 X127.696 Y123.54 E34.30202
G1 X127.552 Y124.242 E34.32586
G1 X127.208 Y124.895 E34.35041
G1 X126.697 Y125.307 E34.37224
G1 X126.091 Y125.608 E34.39474
G1 X125.496 Y125.699 E34.41476
G1 X107.696 Y125.7 E35.00679
G1 X107.696 Y138.542 E35.43392
G1 X107.552 Y139.244 E35.45775
G1 X107.208 Y139.897 E35.4823
G1 X106.697 Y140.309 E35.50413
G1 X106.091 Y140.61 E35.52664
G1 X105.496 Y140.701 E35.54666
G1 X85.455 Y140.701 E36.21323
G1 X84.753 Y140.557 E36.23706
G1 X84.1 Y140.213 E36.26161
G1 X83.688 Y139.702 E36.28344
G1 X83.387 Y139.096 E36.30595
G1 X83.296 Y138.501 E36.32597
G1 X83.296 Y83.458 E38.1567
G1 X83.44 Y82.756 E38.18054
G1 X83.784 Y82.103 E38.20509
M204 S2000
M205 X10 Y10
G0 F3000 X84.101 Y82.361
M204 S1000
M205 X8 Y8
G1 F2400 X84.473 Y82.049 E38.22123
G1 X85.022 Y81.776 E38.24163
G1 X85.496 Y81.699 E38.2576
G1 X125.496 Y81.699 E39.58801
G1 X126.102 Y81.823 E39.60858
G1 X126.634 Y82.104 E39.62859
G1 X126.946 Y82.476 E39.64474
G1 X127.219 Y83.025 E39.66513
G1 X127.296 Y83.499 E39.6811
G1 X127.296 Y123.499 E41.01151
G1 X127.172 Y124.105 E41.03208
G1 X126.891 Y124.637 E41.05209
G1 X126.519 Y124.949 E41.06824
G1 X125.97 Y125.222 E41.08863
G1 X125.496 Y125.299 E41.10461
G1 X107.296 Y125.3 E41.70994
G1 X107.296 Y138.501 E42.14901
G1 X107.172 Y139.107 E42.16958
G1 X106.891 Y139.639 E42.18959
G1 X106.519 Y139.951 E42.20574
G1 X105.97 Y140.224 E42.22613
G1 X105.496 Y140.301 E42.2421
G1 X85.496 Y140.301 E42.90731
G1 X84.89 Y140.177 E42.92788
G1 X84.358 Y139.896 E42.94789
G1 X84.046 Y139.524 E42.96404
G1 X83.773 Y138.975 E42.98443
G1 X83.696 Y138.501 E43.0004
G1 X83.696 Y83.499 E44.82978
G1 X83.82 Y82.893 E44.85035
G1 X84.101 Y82.361 E44.87036
M204 S2000
M205 X10 Y10
G0 F3000 X84.419 Y82.616
M204 S1000
M205 X8 Y8
G1 F2400 X84.651 Y82.407 E44.88075
G1 X85.145 Y82.161 E44.8991
G1 X85.496 Y82.099 E44.91096
G1 X125.496 Y82.099 E46.24136
G1 X125.915 Y82.177 E46.25554
G1 X126.379 Y82.422 E46.27299
G1 X126.588 Y82.654 E46.28338
G1 X126.834 Y83.148 E46.30173
G1 X126.896 Y83.499 E46.31359
G1 X126.896 Y123.499 E47.64399
G1 X126.818 Y123.918 E47.65817
G1 X126.573 Y124.382 E47.67562
G1 X126.341 Y124.591 E47.68601
G1 X125.847 Y124.837 E47.70436
G1 X125.496 Y124.899 E47.71622
G1 X106.896 Y124.9 E48.33485
G1 X106.896 Y138.501 E48.78723
G1 X106.818 Y138.92 E48.8014
G1 X106.573 Y139.384 E48.81885
G1 X106.341 Y139.593 E48.82924
G1 X105.847 Y139.839 E48.84759
G1 X105.496 Y139.901 E48.85945
G1 X85.496 Y139.901 E49.52465
G1 X85.077 Y139.823 E49.53883
G1 X84.613 Y139.578 E49.55628
G1 X84.404 Y139.346 E49.56666
G1 X84.158 Y138.852 E49.58502
G1 X84.096 Y138.501 E49.59687
G1 X84.096 Y83.499 E51.42625
G1 X84.174 Y83.08 E51.44042
G1 X84.419 Y82.616 E51.45788
M204 S2000
M205 X10 Y10
G0 F3000 X84.703 Y82.898
M204 S1000
M205 X8 Y8
G1 F2400 X84.841 Y82.759 E51.46439
G1 X85.223 Y82.553 E51.47883
G1 X85.496 Y82.499 E51.48808
G1 X125.496 Y82.499 E52.81849
G1 X125.834 Y82.569 E52.82997
G1 X126.097 Y82.706 E52.83983
G1 X126.236 Y82.844 E52.84634
G1 X126.442 Y83.226 E52.86078
G1 X126.496 Y83.499 E52.87004
G1 X126.496 Y123.499 E54.20044
G1 X126.426 Y123.837 E54.21192
G1 X126.289 Y124.1 E54.22178
G1 X126.151 Y124.239 E54.2283
G1 X125.769 Y124.445 E54.24273
G1 X125.496 Y124.499 E54.25199
G1 X106.496 Y124.5 E54.88393
G1 X106.496 Y138.501 E55.34961
G1 X106.426 Y138.839 E55.36109
G1 X106.289 Y139.102 E55.37095
G1 X106.151 Y139.241 E55.37747
G1 X105.769 Y139.447 E55.3919
G1 X105.496 Y139.501 E55.40116
G1 X85.496 Y139.501 E56.06636
G1 X85.158 Y139.431 E56.07784
G1 X84.895 Y139.294 E56.0877
G1 X84.756 Y139.156 E56.09422
G1 X84.55 Y138.774 E56.10865
G1 X84.496 Y138.501 E56.11791
G1 X84.496 Y83.499 E57.94728
G1 X84.566 Y83.161 E57.95876
G1 X84.703 Y82.898 E57.96863
M204 S2000
M205 X10 Y10
G0 F3000 X85.335 Y83.38
M204 S1000
M205 X8 Y8
G1 F2400 X85.496 Y83.299 E57.97462
G1 X125.496 Y83.299 E59.30503
G1 X125.615 Y83.338 E59.30919
G1 X125.696 Y83.499 E59.31519
G1 X125.696 Y123.499 E60.64559
G1 X125.657 Y123.618 E60.64976
G1 X125.496 Y123.699 E60.65575
G1 X105.696 Y123.7 E61.3143
G1 X105.696 Y138.501 E61.80658
G1 X105.657 Y138.62 E61.81075
G1 X105.496 Y138.701 E61.81674
G1 X85.496 Y138.701 E62.48195
G1 X85.377 Y138.662 E62.48611
G1 X85.296 Y138.501 E62.49211
G1 X85.296 Y83.499 E64.32148
G1 X85.335 Y83.38 E64.32565
M204 S2000
M205 X10 Y10
G0 F3000 X85.046 Y83.103
M204 S1000
M205 X8 Y8
G1 F2400 X84.955 Y83.255 E64.33154
G1 X84.896 Y83.499 E64.33989
G1 X84.896 Y138.501 E66.16926
G1 X84.939 Y138.681 E66.17542
G1 X85.1 Y138.951 E66.18587
G1 X85.252 Y139.042 E66.19176
G1 X85.496 Y139.101 E66.20011
G1 X105.496 Y139.101 E66.86532
G1 X105.676 Y139.058 E66.87147
G1 X105.946 Y138.897 E66.88193
G1 X106.037 Y138.745 E66.88782
G1 X106.096 Y138.501 E66.89617
G1 X106.096 Y124.1 E67.37515
G1 X125.496 Y124.099 E68.02039
G1 X125.676 Y124.056 E68.02655
G1 X125.946 Y123.895 E68.03701
G1 X126.037 Y123.743 E68.0429
G1 X126.096 Y123.499 E68.05125
G1 X126.096 Y83.499 E69.38165
G1 X126.053 Y83.319 E69.38781
G1 X125.892 Y83.049 E69.39826
G1 X125.74 Y82.958 E69.40416
G1 X125.496 Y82.899 E69.41251
G1 X85.496 Y82.899 E70.74291
G1 X85.316 Y82.942 E70.74907
G1 X85.046 Y83.103 E70.75952
M204 S2000
M205 X10 Y10
G1 F2400 E64.75952
G0 F3000 X85.046 Y82.834
G0 X126.149 Y82.846
G0 X127.696 Y86.578
M204 S1000
M205 X8 Y8
G1 F2400 E70.75952
G1 X127.82 Y85.972 E70.78009
G1 X128.101 Y85.44 E70.80011
G1 X128.473 Y85.128 E70.81625
G1 X129.022 Y84.855 E70.83665
G1 X129.496 Y84.778 E70.85262
G1 X137.504 Y84.778 E71.11897
G1 X138.11 Y84.902 E71.13954
G1 X138.642 Y85.183 E71.15955
G1 X138.954 Y85.555 E71.1757
G1 X139.227 Y86.104 E71.19609
G1 X139.304 Y86.578 E71.21206
G1 X139.304 Y95.578 E71.5114
G1 X139.18 Y96.184 E71.53198
G1 X138.899 Y96.716 E71.55199
G1 X138.527 Y97.028 E71.56814
G1 X137.978 Y97.301 E71.58853
G1 X137.504 Y97.378 E71.6045
G1 X129.496 Y97.378 E71.87085
G1 X128.89 Y97.254 E71.89142
G1 X128.358 Y96.973 E71.91143
G1 X128.046 Y96.601 E71.92758
G1 X127.773 Y96.052 E71.94798
G1 X127.696 Y95.578 E71.96395
G1 X127.696 Y86.578 E72.26329
M204 S2000
M205 X10 Y10
G0 F3000 X128.419 Y85.695
M204 S1000
M205 X8 Y8
G1 F2400 X128.651 Y85.486 E72.27367
G1 X129.145 Y85.24 E72.29203
G1 X129.496 Y85.178 E72.30388
G1 X137.504 Y85.178 E72.57023
G1 X137.923 Y85.256 E72.58441
G1 X138.387 Y85.501 E72.60186
G1 X138.596 Y85.733 E72.61224
G1 X138.842 Y86.227 E72.6306
G1 X138.904 Y86.578 E72.64245
G1 X138.904 Y95.578 E72.9418
G1 X138.826 Y95.997 E72.95597
G1 X138.581 Y96.461 E72.97342
G1 X138.349 Y96.67 E72.98381
G1 X137.855 Y96.916 E73.00216
G1 X137.504 Y96.978 E73.01402
G1 X129.496 Y96.978 E73.28037
G1 X129.077 Y96.9 E73.29454
G1 X128.613 Y96.655 E73.31199
G1 X128.404 Y96.423 E73.32238
G1 X128.158 Y95.929 E73.34073
G1 X128.096 Y95.578 E73.35259
G1 X128.096 Y86.578 E73.65193
G1 X128.174 Y86.159 E73.66611
G1 X128.419 Y85.695 E73.68356
M204 S2000
M205 X10 Y10
G0 F3000 X128.703 Y85.977
M204 S1000
M205 X8 Y8
G1 F2400 X128.841 Y85.838 E73.69007
G1 X129.223 Y85.632 E73.70451
G1 X129.496 Y85.578 E73.71376
G1 X137.504 Y85.578 E73.98011
G1 X137.842 Y85.648 E73.99159
G1 X138.105 Y85.785 E74.00145
G1 X138.244 Y85.923 E74.00797
G1 X138.45 Y86.305 E74.0224
G1 X138.504 Y86.578 E74.03166
G1 X138.504 Y95.578 E74.331
G1 X138.434 Y95.916 E74.34248
G1 X138.297 Y96.179 E74.35234
G1 X138.159 Y96.318 E74.35886
G1 X137.777 Y96.524 E74.37329
G1 X137.504 Y96.578 E74.38255
G1 X129.496 Y96.578 E74.6489
G1 X129.158 Y96.508 E74.66038
G1 X128.895 Y96.371 E74.67024
G1 X128.756 Y96.233 E74.67676
G1 X128.55 Y95.851 E74.69119
G1 X128.496 Y95.578 E74.70045
G1 X128.496 Y86.578 E74.99979
G1 X128.566 Y86.24 E75.01127
G1 X128.703 Y85.977 E75.02113
M204 S2000
M205 X10 Y10
G0 F3000 X129.335 Y86.459
M204 S1000
M205 X8 Y8
G1 F2400 X129.496 Y86.378 E75.02713
G1 X137.504 Y86.378 E75.29347
G1 X137.623 Y86.417 E75.29764
G1 X137.704 Y86.578 E75.30363
G1 X137.704 Y95.578 E75.60297
G1 X137.665 Y95.697 E75.60714
G1 X137.504 Y95.778 E75.61313
G1 X129.496 Y95.778 E75.87948
G1 X129.377 Y95.739 E75.88365
