;FLAVOR:Marlin
;TIME:5428
;Filament used: 5.14272m
;Layer height: 0.2
;MINX:81.696
;MINY:79.699
;MINZ:0.1
;MAXX:141.304
;MAXY:142.301
;MAXZ:19.2
;TARGET_MACHINE.NAME:Anycubic Kobra
;Generated with Cura_SteamEngine 5.6.0
M140 S60
M105
M190 S60
M104 S200
M105
M109 S200
M82 ;absolute extrusion mode
G28 ;Home
G1 Z15.0 F1200 ;Move the platform down 15mm
;Prime the extruder
G92 E0
G1 F200 E3
G92 E0
G92 E0
G92 E0
G1 F2400 E-6
;LAYER_COUNT:96
;LAYER:0
M107
M204 S2000
M205 X10 Y10
G0 F3000 X82.703 Y95.922 Z0.2
M204 S1000
M205 X8 Y8
;TYPE:SKIRT
G1 F2400 E0
G1 X83.427 Y95.339 E0.03092
G1 X84.419 Y94.845 E0.06778
G1 X85.322 Y94.713 E0.09813
G1 X101.696 Y94.7 E0.64273
G1 X101.696 Y83.294 E1.0221
G1 X101.918 Y82.213 E1.0588
G1 X102.401 Y81.305 E1.09301
G1 X102.703 Y80.92 E1.10928
G1 X103.427 Y80.337 E1.1402
G1 X104.419 Y79.843 E1.17706
G1 X105.322 Y79.711 E1.20741
G1 X125.701 Y79.699 E1.88522
G1 X126.782 Y79.921 E1.92192
G1 X127.69 Y80.404 E1.95613
G1 X128.075 Y80.706 E1.97241
G1 X128.658 Y81.43 E2.00332
G1 X129.152 Y82.422 E2.04018
G1 X129.284 Y83.325 E2.07053
G1 X129.296 Y97.784 E2.55144
G1 X137.709 Y97.78 E2.83126
G1 X138.79 Y98.002 E2.86796
G1 X139.698 Y98.485 E2.90217
G1 X140.083 Y98.787 E2.91845
G1 X140.666 Y99.511 E2.94936
G1 X141.16 Y100.503 E2.98622
G1 X141.292 Y101.406 E3.01658
G1 X141.304 Y110.785 E3.32852
G1 X141.082 Y111.866 E3.36523
G1 X140.599 Y112.774 E3.39943
G1 X140.297 Y113.159 E3.41571
G1 X139.573 Y113.742 E3.44663
G1 X138.581 Y114.236 E3.48348
G1 X137.678 Y114.368 E3.51384
G1 X129.296 Y114.38 E3.79262
G1 X129.296 Y138.706 E4.60171
G1 X129.074 Y139.787 E4.63842
G1 X128.591 Y140.695 E4.67262
G1 X128.289 Y141.08 E4.6889
G1 X127.565 Y141.663 E4.71981
G1 X126.573 Y142.157 E4.75667
G1 X125.67 Y142.289 E4.78703
G1 X85.291 Y142.301 E6.13004
G1 X84.21 Y142.079 E6.16674
G1 X83.302 Y141.596 E6.20095
G1 X82.917 Y141.294 E6.21722
G1 X82.334 Y140.57 E6.24814
G1 X81.84 Y139.578 E6.285
G1 X81.708 Y138.675 E6.31535
G1 X81.696 Y98.296 E7.65836
G1 X81.918 Y97.215 E7.69507
G1 X82.401 Y96.307 E7.72927
G1 X82.703 Y95.922 E7.74555
M204 S2000
M205 X10 Y10
G0 F3000 X82.954 Y96.234
M204 S1000
M205 X8 Y8
G1 F2400 X83.647 Y95.676 E7.77514
G1 X84.539 Y95.232 E7.80828
G1 X85.38 Y95.109 E7.83655
G1 X102.096 Y95.1 E8.39253
G1 X102.096 Y83.335 E8.78383
G1 X102.298 Y82.349 E8.81731
G1 X102.722 Y81.544 E8.84757
G1 X102.954 Y81.232 E8.8605
G1 X103.647 Y80.674 E8.89009
G1 X104.539 Y80.23 E8.92323
G1 X105.38 Y80.107 E8.9515
G1 X125.66 Y80.099 E9.62602
G1 X126.646 Y80.301 E9.6595
G1 X127.451 Y80.725 E9.68976
G1 X127.763 Y80.957 E9.70269
G1 X128.321 Y81.65 E9.73228
G1 X128.765 Y82.542 E9.76542
G1 X128.888 Y83.383 E9.79369
G1 X128.896 Y98.259 E10.28847
G1 X129.438 Y98.184 E10.30667
G1 X137.668 Y98.18 E10.5804
G1 X138.654 Y98.382 E10.61387
G1 X139.459 Y98.806 E10.64413
G1 X139.771 Y99.038 E10.65707
G1 X140.329 Y99.731 E10.68666
G1 X140.773 Y100.623 E10.7198
G1 X140.896 Y101.464 E10.74807
G1 X140.904 Y110.744 E11.05672
G1 X140.702 Y111.73 E11.0902
G1 X140.278 Y112.535 E11.12046
G1 X140.046 Y112.847 E11.13339
G1 X139.353 Y113.405 E11.16298
G1 X138.461 Y113.849 E11.19612
G1 X137.62 Y113.972 E11.22439
G1 X129.371 Y113.98 E11.49876
G1 X128.896 Y113.888 E11.51485
G1 X128.896 Y138.665 E12.33893
G1 X128.694 Y139.651 E12.37241
G1 X128.27 Y140.456 E12.40267
G1 X128.038 Y140.768 E12.4156
G1 X127.345 Y141.326 E12.4452
G1 X126.453 Y141.77 E12.47834
G1 X125.612 Y141.893 E12.5066
G1 X85.332 Y141.901 E13.84632
G1 X84.346 Y141.699 E13.8798
G1 X83.541 Y141.275 E13.91006
G1 X83.229 Y141.043 E13.92299
G1 X82.671 Y140.35 E13.95258
G1 X82.227 Y139.458 E13.98572
G1 X82.104 Y138.617 E14.01399
G1 X82.096 Y98.337 E15.35371
G1 X82.298 Y97.351 E15.38719
G1 X82.722 Y96.546 E15.41745
G1 X82.954 Y96.234 E15.43038
M204 S2000
M205 X10 Y10
G0 F3000 X83.245 Y96.513
M204 S1000
M205 X8 Y8
G1 F2400 X83.863 Y96.015 E15.45678
G1 X84.659 Y95.619 E15.48635
G1 X85.438 Y95.505 E15.51253
G1 X102.496 Y95.5 E16.07989
G1 X102.496 Y83.376 E16.48313
G1 X102.678 Y82.486 E16.51335
G1 X103.076 Y81.731 E16.54173
G1 X103.245 Y81.511 E16.55096
G1 X103.863 Y81.013 E16.57736
G1 X104.659 Y80.617 E16.60693
G1 X105.438 Y80.503 E16.63311
G1 X125.619 Y80.499 E17.30434
G1 X126.509 Y80.681 E17.33455
G1 X127.264 Y81.079 E17.36294
G1 X127.484 Y81.248 E17.37216
G1 X127.982 Y81.866 E17.39856
G1 X128.378 Y82.662 E17.42813
G1 X128.492 Y83.441 E17.45432
G1 X128.496 Y98.779 E17.96446
G1 X128.72 Y98.689 E17.97249
G1 X129.438 Y98.584 E17.99663
G1 X137.627 Y98.58 E18.26899
G1 X138.517 Y98.762 E18.29921
G1 X139.272 Y99.16 E18.32759
G1 X139.492 Y99.329 E18.33682
G1 X139.99 Y99.947 E18.36322
G1 X140.386 Y100.743 E18.39279
G1 X140.5 Y101.522 E18.41897
G1 X140.504 Y110.703 E18.72434
G1 X140.322 Y111.593 E18.75455
G1 X139.924 Y112.348 E18.78294
G1 X139.755 Y112.568 E18.79216
G1 X139.137 Y113.066 E18.81856
G1 X138.341 Y113.462 E18.84813
G1 X137.562 Y113.576 E18.87432
G1 X129.371 Y113.58 E19.14675
G1 X128.496 Y113.394 E19.1765
G1 X128.496 Y138.624 E20.01566
G1 X128.314 Y139.514 E20.04587
G1 X127.916 Y140.269 E20.07426
G1 X127.747 Y140.489 E20.08349
G1 X127.129 Y140.987 E20.10988
G1 X126.333 Y141.383 E20.13945
G1 X125.554 Y141.497 E20.16564
G1 X85.373 Y141.501 E21.50207
G1 X84.483 Y141.319 E21.53228
G1 X83.728 Y140.921 E21.56067
G1 X83.508 Y140.752 E21.56989
G1 X83.01 Y140.134 E21.59629
G1 X82.614 Y139.338 E21.62586
G1 X82.5 Y138.559 E21.65205
G1 X82.496 Y98.378 E22.98847
G1 X82.678 Y97.488 E23.01869
G1 X83.076 Y96.733 E23.04707
G1 X83.245 Y96.513 E23.0563
M204 S2000
M205 X10 Y10
G0 F3000 X83.533 Y96.794
M204 S1000
M205 X8 Y8
G1 F2400 X84.079 Y96.354 E23.07962
G1 X84.779 Y96.006 E23.10562
G1 X85.496 Y95.901 E23.12973
G1 X102.896 Y95.9 E23.70845
G1 X102.896 Y83.417 E24.12364
G1 X103.059 Y82.621 E24.15066
G1 X103.43 Y81.917 E24.17713
G1 X103.533 Y81.792 E24.18252
G1 X104.079 Y81.352 E24.20584
G1 X104.779 Y81.004 E24.23184
G1 X105.496 Y80.899 E24.25594
G1 X125.578 Y80.899 E24.92387
G1 X126.374 Y81.062 E24.9509
G1 X127.078 Y81.433 E24.97736
G1 X127.203 Y81.536 E24.98275
G1 X127.643 Y82.082 E25.00607
G1 X127.991 Y82.782 E25.03208
G1 X128.096 Y83.499 E25.05618
G1 X128.096 Y99.428 E25.58598
G1 X128.778 Y99.085 E25.61137
G1 X129.496 Y98.98 E25.6355
G1 X137.586 Y98.98 E25.90458
G1 X138.382 Y99.143 E25.9316
G1 X139.086 Y99.514 E25.95807
G1 X139.211 Y99.617 E25.96346
G1 X139.651 Y100.163 E25.98678
G1 X139.999 Y100.863 E26.01278
G1 X140.104 Y101.58 E26.03688
G1 X140.104 Y110.662 E26.33895
G1 X139.941 Y111.458 E26.36597
G1 X139.57 Y112.162 E26.39244
G1 X139.467 Y112.287 E26.39783
G1 X138.921 Y112.727 E26.42115
G1 X138.221 Y113.075 E26.44715
G1 X137.504 Y113.18 E26.47125
G1 X129.414 Y113.18 E26.74033
G1 X128.616 Y113.016 E26.76743
G1 X128.096 Y112.742 E26.78697
G1 X128.096 Y138.583 E27.64645
G1 X127.933 Y139.379 E27.67347
G1 X127.562 Y140.083 E27.69994
G1 X127.459 Y140.208 E27.70533
G1 X126.913 Y140.648 E27.72865
G1 X126.213 Y140.996 E27.75465
G1 X125.496 Y141.101 E27.77875
G1 X85.414 Y141.101 E29.11189
G1 X84.618 Y140.938 E29.13891
G1 X83.914 Y140.567 E29.16538
G1 X83.789 Y140.464 E29.17077
G1 X83.349 Y139.918 E29.19409
G1 X83.001 Y139.218 E29.22009
G1 X82.896 Y138.501 E29.24419
G1 X82.896 Y98.419 E30.57732
G1 X83.059 Y97.623 E30.60435
G1 X83.43 Y96.919 E30.63082
G1 X83.533 Y96.794 E30.6362
M204 S2000
M205 X10 Y10
G0 F3000 X83.784 Y97.105
M204 S1000
M205 X8 Y8
G1 F2400 X84.295 Y96.693 E30.65804
G1 X84.901 Y96.392 E30.68054
G1 X85.496 Y96.301 E30.70056
G1 X103.296 Y96.3 E31.29259
G1 X103.296 Y83.458 E31.71972
G1 X103.44 Y82.756 E31.74355
G1 X103.784 Y82.103 E31.7681
G1 X104.295 Y81.691 E31.78993
G1 X104.901 Y81.39 E31.81244
G1 X105.496 Y81.299 E31.83246
G1 X125.537 Y81.299 E32.49902
G1 X126.239 Y81.443 E32.52286
G1 X126.892 Y81.787 E32.54741
G1 X127.304 Y82.298 E32.56924
G1 X127.605 Y82.904 E32.59174
G1 X127.696 Y83.499 E32.61176
G1 X127.696 Y100.352 E33.1723
G1 X127.844 Y100.136 E33.18101
G1 X128.295 Y99.772 E33.20028
G1 X128.901 Y99.471 E33.22279
G1 X129.496 Y99.38 E33.24281
G1 X137.545 Y99.38 E33.51052
G1 X138.247 Y99.524 E33.53435
G1 X138.9 Y99.868 E33.5589
G1 X139.312 Y100.379 E33.58073
G1 X139.613 Y100.985 E33.60324
G1 X139.704 Y101.58 E33.62326
G1 X139.704 Y110.621 E33.92396
G1 X139.56 Y111.323 E33.9478
G1 X139.216 Y111.976 E33.97235
G1 X138.705 Y112.388 E33.99418
G1 X138.099 Y112.689 E34.01668
G1 X137.504 Y112.78 E34.0367
G1 X129.455 Y112.78 E34.30441
G1 X128.753 Y112.636 E34.32825
G1 X128.101 Y112.292 E34.35277
G1 X127.696 Y111.793 E34.37414
G1 X127.696 Y138.542 E35.26382
G1 X127.552 Y139.244 E35.28765
G1 X127.208 Y139.897 E35.3122
G1 X126.697 Y140.309 E35.33403
G1 X126.091 Y140.61 E35.35654
G1 X125.496 Y140.701 E35.37656
G1 X85.455 Y140.701 E36.70833
G1 X84.753 Y140.557 E36.73216
G1 X84.1 Y140.213 E36.75671
G1 X83.688 Y139.702 E36.77854
G1 X83.387 Y139.096 E36.80105
G1 X83.296 Y138.501 E36.82107
G1 X83.296 Y98.46 E38.15284
G1 X83.44 Y97.758 E38.17667
G1 X83.784 Y97.105 E38.20122
M204 S2000
M205 X10 Y10
G0 F3000 X84.101 Y97.363
M204 S1000
M205 X8 Y8
G1 F2400 X84.473 Y97.051 E38.21737
G1 X85.022 Y96.778 E38.23776
G1 X85.496 Y96.701 E38.25373
G1 X103.696 Y96.7 E38.85907
G1 X103.696 Y83.499 E39.29813
G1 X103.82 Y82.893 E39.31871
G1 X104.101 Y82.361 E39.33872
G1 X104.473 Y82.049 E39.35487
G1 X105.022 Y81.776 E39.37526
G1 X105.496 Y81.699 E39.39123
G1 X125.496 Y81.699 E40.05643
G1 X126.102 Y81.823 E40.07701
G1 X126.634 Y82.104 E40.09702
G1 X126.946 Y82.476 E40.11317
G1 X127.219 Y83.025 E40.13356
G1 X127.296 Y83.499 E40.14953
G1 X127.296 Y138.501 E41.97891
G1 X127.172 Y139.107 E41.99948
G1 X126.891 Y139.639 E42.01949
G1 X126.519 Y139.951 E42.03564
G1 X125.97 Y140.224 E42.05603
G1 X125.496 Y140.301 E42.072
G1 X85.496 Y140.301 E43.40241
G1 X84.89 Y140.177 E43.42298
G1 X84.358 Y139.896 E43.44299
G1 X84.046 Y139.524 E43.45914
G1 X83.773 Y138.975 E43.47953
G1 X83.696 Y138.501 E43.49551
G1 X83.696 Y98.501 E44.82591
G1 X83.82 Y97.895 E44.84648
G1 X84.101 Y97.363 E44.8665
M204 S2000
M205 X10 Y10
G0 F3000 X84.651 Y97.409
M204 S1000
M205 X8 Y8
G1 F2400 X85.145 Y97.163 E44.88485
G1 X85.496 Y97.101 E44.89671
G1 X104.096 Y97.1 E45.51534
G1 X104.096 Y83.499 E45.96771
G1 X104.174 Y83.08 E45.98189
G1 X104.419 Y82.616 E45.99934
G1 X104.651 Y82.407 E46.00973
G1 X105.145 Y82.161 E46.02808
G1 X105.496 Y82.099 E46.03994
G1 X125.496 Y82.099 E46.70514
G1 X125.915 Y82.177 E46.71932
G1 X126.379 Y82.422 E46.73677
G1 X126.588 Y82.654 E46.74715
G1 X126.834 Y83.148 E46.76551
G1 X126.896 Y83.499 E46.77736
G1 X126.896 Y138.501 E48.60674
G1 X126.818 Y138.92 E48.62091
G1 X126.573 Y139.384 E48.63837
G1 X126.341 Y139.593 E48.64875
G1 X125.847 Y139.839 E48.66711
G1 X125.496 Y139.901 E48.67896
G1 X85.496 Y139.901 E50.00937
G1 X85.077 Y139.823 E50.02354
G1 X84.613 Y139.578 E50.04099
G1 X84.404 Y139.346 E50.05138
G1 X84.158 Y138.852 E50.06973
G1 X84.096 Y138.501 E50.08159
G1 X84.096 Y98.501 E51.412
G1 X84.174 Y98.082 E51.42617
G1 X84.419 Y97.618 E51.44362
G1 X84.651 Y97.409 E51.45401
M204 S2000
M205 X10 Y10
G0 F3000 X84.841 Y97.761
M204 S1000
M205 X8 Y8
G1 F2400 X85.223 Y97.555 E51.46844
G1 X85.496 Y97.501 E51.4777
G1 X104.496 Y97.5 E52.10964
G1 X104.496 Y83.499 E52.57532
G1 X104.566 Y83.161 E52.5868
G1 X104.703 Y82.898 E52.59666
G1 X104.841 Y82.759 E52.60318
G1 X105.223 Y82.553 E52.61761
G1 X105.496 Y82.499 E52.62687
G1 X125.496 Y82.499 E53.29207
G1 X125.834 Y82.569 E53.30355
G1 X126.097 Y82.706 E53.31341
G1 X126.236 Y82.844 E53.31993
G1 X126.442 Y83.226 E53.33436
G1 X126.496 Y83.499 E53.34362
G1 X126.496 Y138.501 E55.17299
G1 X126.426 Y138.839 E55.18447
G1 X126.289 Y139.102 E55.19434
G1 X126.151 Y139.241 E55.20085
G1 X125.769 Y139.447 E55.21529
G1 X125.496 Y139.501 E55.22454
G1 X85.496 Y139.501 E56.55495
G1 X85.158 Y139.431 E56.56643
G1 X84.895 Y139.294 E56.57629
G1 X84.756 Y139.156 E56.5828
G1 X84.55 Y138.774 E56.59724
G1 X84.496 Y138.501 E56.6065
G1 X84.496 Y98.501 E57.9369
G1 X84.566 Y98.163 E57.94838
G1 X84.703 Y97.9 E57.95824
G1 X84.841 Y97.761 E57.96476
M204 S2000
M205 X10 Y10
G0 F3000 X85.335 Y98.382
M204 S1000
M205 X8 Y8
G1 F2400 X85.496 Y98.301 E57.97075
G1 X105.296 Y98.3 E58.6293
G1 X105.296 Y83.499 E59.12159
G1 X105.335 Y83.38 E59.12575
G1 X105.496 Y83.299 E59.13175
G1 X125.496 Y83.299 E59.79695
G1 X125.615 Y83.338 E59.80111
G1 X125.696 Y83.499 E59.80711
G1 X125.696 Y138.501 E61.63648
G1 X125.657 Y138.62 E61.64065
G1 X125.496 Y138.701 E61.64664
G1 X85.496 Y138.701 E62.97705
G1 X85.377 Y138.662 E62.98121
G1 X85.296 Y138.501 E62.98721
G1 X85.296 Y98.501 E64.31761
G1 X85.335 Y98.382 E64.32178
M204 S2000
M205 X10 Y10
G0 F3000 X85.046 Y98.105
M204 S1000
M205 X8 Y8
G1 F2400 X85.316 Y97.944 E64.33223
G1 X85.496 Y97.901 E64.33839
G1 X104.896 Y97.9 E64.98364
G1 X104.896 Y83.499 E65.46261
G1 X104.955 Y83.255 E65.47096
G1 X105.046 Y83.103 E65.47686
G1 X105.316 Y82.942 E65.48731
G1 X105.496 Y82.899 E65.49347
G1 X125.496 Y82.899 E66.15867
G1 X125.74 Y82.958 E66.16702
G1 X125.892 Y83.049 E66.17291
G1 X126.053 Y83.319 E66.18337
G1 X126.096 Y83.499 E66.18952
G1 X126.096 Y138.501 E68.0189
G1 X126.037 Y138.745 E68.02725
G1 X125.946 Y138.897 E68.03314
G1 X125.676 Y139.058 E68.04359
G1 X125.496 Y139.101 E68.04975
G1 X85.496 Y139.101 E69.38015
G1 X85.252 Y139.042 E69.3885
G1 X85.1 Y138.951 E69.3944
G1 X84.939 Y138.681 E69.40485
G1 X84.896 Y138.501 E69.41101
G1 X84.896 Y98.501 E70.74141
G1 X84.955 Y98.257 E70.74976
G1 X85.046 Y98.105 E70.75565
M204 S2000
M205 X10 Y10
G1 F2400 E64.75565
G0 F3000 X85.045 Y97.836
G0 X104.843 Y82.846
G0 X126.149 Y82.846
G0 X127.696 Y101.58
M204 S1000
M205 X8 Y8
G1 F2400 E70.75565
G1 X127.82 Y100.974 E70.77623
G1 X128.101 Y100.442 E70.79624
G1 X128.473 Y100.13 E70.81239
G1 X129.022 Y99.857 E70.83278
G1 X129.496 Y99.78 E70.84875
G1 X137.504 Y99.78 E71.1151
G1 X138.11 Y99.904 E71.13567
G1 X138.642 Y100.185 E71.15568
G1 X138.954 Y100.557 E71.17183
G1 X139.227 Y101.106 E71.19222
G1 X139.304 Y101.58 E71.2082
G1 X139.304 Y110.58 E71.50754
G1 X139.18 Y111.186 E71.52811
G1 X138.899 Y111.718 E71.54812
G1 X138.527 Y112.03 E71.56427
G1 X137.978 Y112.303 E71.58466
G1 X137.504 Y112.38 E71.60063
G1 X129.496 Y112.38 E71.86698
G1 X128.89 Y112.256 E71.88756
G1 X128.358 Y111.975 E71.90757
G1 X128.046 Y111.603 E71.92371
G1 X127.773 Y111.054 E71.94411
G1 X127.696 Y110.58 E71.96008
G1 X127.696 Y101.58 E72.25942
M204 S2000
M205 X10 Y10
G0 F3000 X128.419 Y100.697
M204 S1000
M205 X8 Y8
G1 F2400 X128.651 Y100.488 E72.26981
G1 X129.145 Y100.242 E72.28816
G1 X129.496 Y100.18 E72.30002
G1 X137.504 Y100.18 E72.56636
G1 X137.923 Y100.258 E72.58054
G1 X138.387 Y100.503 E72.59799
G1 X138.596 Y100.735 E72.60838
G1 X138.842 Y101.229 E72.62673
G1 X138.904 Y101.58 E72.63859
G1 X138.904 Y110.58 E72.93793
G1 X138.826 Y110.999 E72.9521
G1 X138.581 Y111.463 E72.96956
G1 X138.349 Y111.672 E72.97994
G1 X137.855 Y111.918 E72.9983
G1 X137.504 Y111.98 E73.01015
G1 X129.496 Y111.98 E73.2765
G1 X129.077 Y111.902 E73.29067
G1 X128.613 Y111.657 E73.30813
G1 X128.404 Y111.425 E73.31851
G1 X128.158 Y110.931 E73.33687
G1 X128.096 Y110.58 E73.34872
G1 X128.096 Y101.58 E73.64806
G1 X128.174 Y101.161 E73.66224
G1 X128.419 Y100.697 E73.67969
M204 S2000
M205 X10 Y10
G0 F3000 X128.703 Y100.979
M204 S1000
M205 X8 Y8
G1 F2400 X128.841 Y100.84 E73.6862
G1 X129.223 Y100.634 E73.70064
G1 X129.496 Y100.58 E73.7099
G1 X137.504 Y100.58 E73.97624
G1 X137.842 Y100.65 E73.98772
G1 X138.105 Y100.787 E73.99759
G1 X138.244 Y100.925 E74.0041
G1 X138.45 Y101.307 E74.01854
G1 X138.504 Y101.58 E74.02779
G1 X138.504 Y110.58 E74.32713
G1 X138.434 Y110.918 E74.33861
G1 X138.297 Y111.181 E74.34848
G1 X138.159 Y111.32 E74.35499
G1 X137.777 Y111.526 E74.36943
G1 X137.504 Y111.58 E74.37868
G1 X129.496 Y111.58 E74.64503
G1 X129.158 Y111.51 E74.65651
G1 X128.895 Y111.373 E74.66637
G1 X128.756 Y111.235 E74.67289
G1 X128.55 Y110.853 E74.68732
G1 X128.496 Y110.58 E74.69658
G1 X128.496 Y101.58 E74.99592
G1 X128.566 Y101.242 E75.0074
G1 X128.703 Y100.979 E75.01726
M204 S2000
M205 X10 Y10
G0 F3000 X129.335 Y101.461
M204 S1000
M205 X8 Y8
G1 F2400 X129.496 Y101.38 E75.02326
G1 X137.504 Y101.38 E75.28961
G1 X137.623 Y101.419 E75.29377
G1 X137.704 Y101.58 E75.29976
G1 X137.704 Y110.58 E75.59911
G1 X137.665 Y110.699 E75.60327
