;FLAVOR:Marlin
;TIME:1452
;Filament used: 1.64603m
;Layer height: 0.2
;MINX:98.44
;MINY:84.594
;MINZ:0.2
;MAXX:123.56
;MAXY:137.397
;MAXZ:7.2
;TARGET_MACHINE.NAME:Anycubic Kobra
;Generated with Cura_SteamEngine 5.6.0
M140 S60
M105
M190 S60
M104 S200
M105
M109 S200
M82 ;absolute extrusion mode
G28 ;Home
G1 Z15.0 F1200 ;Move the platform down 15mm
;Prime the extruder
G92 E0
G1 F200 E3
G92 E0
G92 E0
G92 E0
G1 F2400 E-6
;LAYER_COUNT:36
;LAYER:0
M107
M204 S2000
M205 X10 Y10
G0 F3000 X99.447 Y85.815 Z0.2
M204 S1000
M205 X8 Y8
;TYPE:SKIRT
G1 F2400 E0
G1 X100.171 Y85.232 E0.03092
G1 X101.163 Y84.738 E0.06778
G1 X102.066 Y84.606 E0.09813
G1 X119.965 Y84.594 E0.69345
G1 X121.046 Y84.816 E0.73016
G1 X121.954 Y85.299 E0.76436
G1 X122.339 Y85.601 E0.78064
G1 X122.922 Y86.325 E0.81156
G1 X123.416 Y87.317 E0.84841
G1 X123.548 Y88.22 E0.87877
G1 X123.56 Y133.802 E2.39483
G1 X123.338 Y134.883 E2.43154
G1 X122.855 Y135.791 E2.46574
G1 X122.553 Y136.176 E2.48202
G1 X121.829 Y136.759 E2.51293
G1 X120.837 Y137.253 E2.54979
G1 X119.934 Y137.385 E2.58015
G1 X102.035 Y137.397 E3.17547
G1 X100.954 Y137.175 E3.21217
G1 X100.046 Y136.692 E3.24638
G1 X99.661 Y136.39 E3.26266
G1 X99.078 Y135.666 E3.29357
G1 X98.584 Y134.674 E3.33043
G1 X98.452 Y133.771 E3.36078
G1 X98.44 Y88.189 E4.87685
G1 X98.662 Y87.108 E4.91355
G1 X99.145 Y86.2 E4.94776
G1 X99.447 Y85.815 E4.96403
M204 S2000
M205 X10 Y10
G0 F3000 X99.698 Y86.127
M204 S1000
M205 X8 Y8
G1 F2400 X100.391 Y85.569 E4.99363
G1 X101.283 Y85.125 E5.02677
G1 X102.124 Y85.002 E5.05504
G1 X119.924 Y84.994 E5.64707
G1 X120.91 Y85.196 E5.68054
G1 X121.715 Y85.62 E5.7108
G1 X122.027 Y85.852 E5.72374
G1 X122.585 Y86.545 E5.75333
G1 X123.029 Y87.437 E5.78647
G1 X123.152 Y88.278 E5.81474
G1 X123.16 Y133.761 E7.32751
G1 X122.958 Y134.747 E7.36098
G1 X122.534 Y135.552 E7.39124
G1 X122.302 Y135.864 E7.40418
G1 X121.609 Y136.422 E7.43377
G1 X120.717 Y136.866 E7.46691
G1 X119.876 Y136.989 E7.49518
G1 X102.076 Y136.997 E8.08721
G1 X101.09 Y136.795 E8.12068
G1 X100.285 Y136.371 E8.15095
G1 X99.973 Y136.139 E8.16388
G1 X99.415 Y135.446 E8.19347
G1 X98.971 Y134.554 E8.22661
G1 X98.848 Y133.713 E8.25488
G1 X98.84 Y88.23 E9.76765
G1 X99.042 Y87.244 E9.80113
G1 X99.466 Y86.439 E9.83139
G1 X99.698 Y86.127 E9.84432
M204 S2000
M205 X10 Y10
G0 F3000 X99.989 Y86.406
M204 S1000
M205 X8 Y8
G1 F2400 X100.607 Y85.908 E9.87072
G1 X101.403 Y85.512 E9.90029
G1 X102.182 Y85.398 E9.92647
G1 X119.883 Y85.394 E10.51521
G1 X120.773 Y85.576 E10.54542
G1 X121.528 Y85.974 E10.57381
G1 X121.748 Y86.143 E10.58304
G1 X122.246 Y86.761 E10.60944
G1 X122.642 Y87.557 E10.63901
G1 X122.756 Y88.336 E10.66519
G1 X122.76 Y133.72 E12.17467
G1 X122.578 Y134.61 E12.20488
G1 X122.18 Y135.365 E12.23327
G1 X122.011 Y135.585 E12.2425
G1 X121.393 Y136.083 E12.2689
G1 X120.597 Y136.479 E12.29847
G1 X119.818 Y136.593 E12.32465
G1 X102.117 Y136.597 E12.91339
G1 X101.227 Y136.415 E12.9436
G1 X100.472 Y136.017 E12.97199
G1 X100.252 Y135.848 E12.98122
G1 X99.754 Y135.23 E13.00762
G1 X99.358 Y134.434 E13.03719
G1 X99.244 Y133.655 E13.06337
G1 X99.24 Y88.271 E14.57285
G1 X99.422 Y87.381 E14.60306
G1 X99.82 Y86.626 E14.63145
G1 X99.989 Y86.406 E14.64068
M204 S2000
M205 X10 Y10
G0 F3000 X100.277 Y86.687
M204 S1000
M205 X8 Y8
G1 F2400 X100.174 Y86.812 E14.64606
G1 X99.803 Y87.516 E14.67253
G1 X99.64 Y88.312 E14.69956
G1 X99.64 Y133.597 E16.20574
G1 X99.745 Y134.314 E16.22984
G1 X100.093 Y135.014 E16.25584
G1 X100.533 Y135.56 E16.27917
G1 X100.658 Y135.663 E16.28455
G1 X101.362 Y136.034 E16.31102
G1 X102.158 Y136.197 E16.33805
G1 X119.76 Y136.197 E16.92349
G1 X120.477 Y136.092 E16.94759
G1 X121.177 Y135.744 E16.97359
G1 X121.723 Y135.304 E16.99692
G1 X121.826 Y135.179 E17.0023
G1 X122.197 Y134.475 E17.02877
G1 X122.36 Y133.679 E17.0558
G1 X122.36 Y88.394 E18.56198
G1 X122.255 Y87.677 E18.58608
G1 X121.907 Y86.977 E18.61208
G1 X121.467 Y86.431 E18.63541
G1 X121.342 Y86.328 E18.64079
G1 X120.638 Y85.957 E18.66726
G1 X119.842 Y85.794 E18.69428
G1 X102.24 Y85.794 E19.27973
G1 X101.523 Y85.899 E19.30383
G1 X100.823 Y86.247 E19.32983
G1 X100.277 Y86.687 E19.35315
M204 S2000
M205 X10 Y10
G0 F3000 X100.528 Y86.998
M204 S1000
M205 X8 Y8
G1 F2400 X101.039 Y86.586 E19.37499
G1 X101.645 Y86.285 E19.39749
G1 X102.24 Y86.194 E19.41751
G1 X119.801 Y86.194 E20.00159
G1 X120.503 Y86.338 E20.02543
G1 X121.156 Y86.682 E20.04998
G1 X121.568 Y87.193 E20.07181
G1 X121.869 Y87.799 E20.09431
G1 X121.96 Y88.394 E20.11433
G1 X121.96 Y133.638 E21.61915
G1 X121.816 Y134.34 E21.64299
G1 X121.472 Y134.993 E21.66754
G1 X120.961 Y135.405 E21.68937
G1 X120.355 Y135.706 E21.71187
G1 X119.76 Y135.797 E21.73189
G1 X102.199 Y135.797 E22.31598
G1 X101.497 Y135.653 E22.33981
G1 X100.844 Y135.309 E22.36436
G1 X100.432 Y134.798 E22.38619
G1 X100.131 Y134.192 E22.4087
G1 X100.04 Y133.597 E22.42872
G1 X100.04 Y88.353 E23.93354
G1 X100.184 Y87.651 E23.95737
G1 X100.528 Y86.998 E23.98192
M204 S2000
M205 X10 Y10
G0 F3000 X100.845 Y87.256
M204 S1000
M205 X8 Y8
G1 F2400 X101.217 Y86.944 E23.99807
G1 X101.766 Y86.671 E24.01846
G1 X102.24 Y86.594 E24.03443
G1 X119.76 Y86.594 E24.61715
G1 X120.366 Y86.718 E24.63772
G1 X120.898 Y86.999 E24.65774
G1 X121.21 Y87.371 E24.67388
G1 X121.483 Y87.92 E24.69428
G1 X121.56 Y88.394 E24.71025
G1 X121.56 Y133.597 E26.21371
G1 X121.436 Y134.203 E26.23428
G1 X121.155 Y134.735 E26.25429
G1 X120.783 Y135.047 E26.27044
G1 X120.234 Y135.32 E26.29083
G1 X119.76 Y135.397 E26.3068
G1 X102.24 Y135.397 E26.88952
G1 X101.634 Y135.273 E26.91009
G1 X101.102 Y134.992 E26.93011
G1 X100.79 Y134.62 E26.94625
G1 X100.517 Y134.071 E26.96665
G1 X100.44 Y133.597 E26.98262
G1 X100.44 Y88.394 E28.48608
G1 X100.564 Y87.788 E28.50665
G1 X100.845 Y87.256 E28.52666
M204 S2000
M205 X10 Y10
G0 F3000 X101.163 Y87.511
M204 S1000
M205 X8 Y8
G1 F2400 X100.918 Y87.975 E28.54411
G1 X100.84 Y88.394 E28.55829
G1 X100.84 Y133.597 E30.06175
G1 X100.902 Y133.948 E30.0736
G1 X101.148 Y134.442 E30.09196
G1 X101.357 Y134.674 E30.10234
G1 X101.821 Y134.919 E30.11979
G1 X102.24 Y134.997 E30.13397
G1 X119.76 Y134.997 E30.71669
G1 X120.111 Y134.935 E30.72854
G1 X120.605 Y134.689 E30.7469
G1 X120.837 Y134.48 E30.75728
G1 X121.082 Y134.016 E30.77473
G1 X121.16 Y133.597 E30.78891
G1 X121.16 Y88.394 E32.29237
G1 X121.098 Y88.043 E32.30422
G1 X120.852 Y87.549 E32.32258
G1 X120.643 Y87.317 E32.33296
G1 X120.179 Y87.072 E32.35042
G1 X119.76 Y86.994 E32.36459
G1 X102.24 Y86.994 E32.94731
G1 X101.889 Y87.056 E32.95916
G1 X101.395 Y87.302 E32.97752
G1 X101.163 Y87.511 E32.9879
M204 S2000
M205 X10 Y10
G0 F3000 X101.447 Y87.793
M204 S1000
M205 X8 Y8
G1 F2400 X101.585 Y87.654 E32.99442
G1 X101.967 Y87.448 E33.00885
G1 X102.24 Y87.394 E33.01811
G1 X119.76 Y87.394 E33.60083
G1 X120.098 Y87.464 E33.61231
G1 X120.361 Y87.601 E33.62217
G1 X120.5 Y87.739 E33.62869
G1 X120.706 Y88.121 E33.64312
G1 X120.76 Y88.394 E33.65238
G1 X120.76 Y133.597 E35.15584
G1 X120.69 Y133.935 E35.16732
G1 X120.553 Y134.198 E35.17718
G1 X120.415 Y134.337 E35.18369
G1 X120.033 Y134.543 E35.19813
G1 X119.76 Y134.597 E35.20738
G1 X102.24 Y134.597 E35.7901
G1 X101.902 Y134.527 E35.80158
G1 X101.639 Y134.39 E35.81145
G1 X101.5 Y134.252 E35.81796
G1 X101.294 Y133.87 E35.8324
G1 X101.24 Y133.597 E35.84165
G1 X101.24 Y88.394 E37.34511
G1 X101.31 Y88.056 E37.35659
G1 X101.447 Y87.793 E37.36645
M204 S2000
M205 X10 Y10
G0 F3000 X102.079 Y88.275
M204 S1000
M205 X8 Y8
G1 F2400 X102.24 Y88.194 E37.37245
G1 X119.76 Y88.194 E37.95516
G1 X119.879 Y88.233 E37.95933
G1 X119.96 Y88.394 E37.96532
G1 X119.96 Y133.597 E39.46878
G1 X119.921 Y133.716 E39.47295
G1 X119.76 Y133.797 E39.47894
G1 X102.24 Y133.797 E40.06166
G1 X102.121 Y133.758 E40.06582
G1 X102.04 Y133.597 E40.07182
G1 X102.04 Y88.394 E41.57528
G1 X102.079 Y88.275 E41.57944
M204 S2000
M205 X10 Y10
G0 F3000 X101.79 Y87.998
M204 S1000
M205 X8 Y8
G1 F2400 X102.06 Y87.837 E41.5899
G1 X102.24 Y87.794 E41.59605
G1 X119.76 Y87.794 E42.17877
G1 X120.004 Y87.853 E42.18712
G1 X120.156 Y87.944 E42.19301
G1 X120.317 Y88.214 E42.20347
G1 X120.36 Y88.394 E42.20962
G1 X120.36 Y133.597 E43.71308
G1 X120.301 Y133.841 E43.72143
G1 X120.21 Y133.993 E43.72732
G1 X119.94 Y134.154 E43.73778
G1 X119.76 Y134.197 E43.74393
G1 X102.24 Y134.197 E44.32665
G1 X101.996 Y134.138 E44.335
G1 X101.844 Y134.047 E44.34089
G1 X101.683 Y133.777 E44.35135
G1 X101.64 Y133.597 E44.3575
G1 X101.64 Y88.394 E45.86096
G1 X101.699 Y88.15 E45.86931
G1 X101.79 Y87.998 E45.8752
M204 S2000
M205 X10 Y10
G1 F2400 E39.8752
;MESH:Accessories3.stl
G0 F3000 X102.654 Y88.808
G0 X119.56 Y133.397
M204 S1000
M205 X8 Y8
;TYPE:WALL-OUTER
G1 F2400 E45.8752
G1 F1500 X119.56 Y88.594 E47.36536
G1 X102.44 Y88.594 E47.93477
G1 X102.44 Y133.397 E49.42492
G1 X119.56 Y133.397 E49.99434
M204 S2000
M205 X10 Y10
G0 F3000 X119.56 Y133.197
G0 X119.16 Y132.997
M204 S1000
M205 X8 Y8
;TYPE:WALL-INNER
G1 F1500 X119.16 Y88.994 E51.45788
G1 X102.84 Y88.994 E52.00069
G1 X102.84 Y132.997 E53.46423
G1 X119.16 Y132.997 E54.00704
M204 S2000
M205 X10 Y10
G0 F3000 X118.76 Y132.597
M204 S1000
M205 X8 Y8
G1 F1500 X118.76 Y89.394 E55.44398
G1 X103.24 Y89.394 E55.96017
G1 X103.24 Y132.597 E57.39711
G1 X118.76 Y132.597 E57.91331
M204 S2000
M205 X10 Y10
G0 F3000 X118.38 Y132.217
M204 S1000
M205 X8 Y8
;TYPE:SKIN
G1 F1500 X118.38 Y89.774 E59.32497
G1 X103.62 Y89.774 E59.81589
G1 X103.62 Y132.217 E61.22755
G1 X118.38 Y132.217 E61.71847
M204 S2000
M205 X10 Y10
G0 F3000 X104.297 Y132.016
M204 S1000
M205 X8 Y8
G1 F1500 X103.819 Y131.538 E61.74095
M204 S2000
M205 X10 Y10
G0 F3000 X103.819 Y130.972
M204 S1000
M205 X8 Y8
G1 F1500 X104.863 Y132.016 E61.79006
M204 S2000
M205 X10 Y10
G0 F3000 X105.428 Y132.016
M204 S1000
M205 X8 Y8
G1 F1500 X103.819 Y130.406 E61.86576
M204 S2000
M205 X10 Y10
G0 F3000 X103.819 Y129.841
M204 S1000
M205 X8 Y8
G1 F1500 X105.994 Y132.016 E61.96807
M204 S2000
M205 X10 Y10
G0 F3000 X106.56 Y132.016
M204 S1000
M205 X8 Y8
G1 F1500 X103.819 Y129.275 E62.097
M204 S2000
M205 X10 Y10
G0 F3000 X103.819 Y128.709
M204 S1000
M205 X8 Y8
G1 F1500 X107.125 Y132.016 E62.25253
M204 S2000
M205 X10 Y10
G0 F3000 X107.691 Y132.016
M204 S1000
M205 X8 Y8
G1 F1500 X103.819 Y128.144 E62.43465
M204 S2000
M205 X10 Y10
G0 F3000 X103.819 Y127.578
M204 S1000
M205 X8 Y8
G1 F1500 X108.257 Y132.016 E62.6434
M204 S2000
M205 X10 Y10
G0 F3000 X108.823 Y132.016
M204 S1000
M205 X8 Y8
G1 F1500 X103.819 Y127.012 E62.87878
M204 S2000
M205 X10 Y10
G0 F3000 X103.819 Y126.446
M204 S1000
M205 X8 Y8
G1 F1500 X109.388 Y132.016 E63.14075
M204 S2000
M205 X10 Y10
G0 F3000 X109.954 Y132.016
M204 S1000
M205 X8 Y8
G1 F1500 X103.819 Y125.881 E63.42932
M204 S2000
M205 X10 Y10
G0 F3000 X103.819 Y125.315
M204 S1000
M205 X8 Y8
G1 F1500 X110.52 Y132.016 E63.74451
M204 S2000
M205 X10 Y10
G0 F3000 X111.085 Y132.016
M204 S1000
M205 X8 Y8
G1 F1500 X103.819 Y124.749 E64.08631
M204 S2000
M205 X10 Y10
G0 F3000 X103.819 Y124.184
M204 S1000
M205 X8 Y8
G1 F1500 X111.651 Y132.016 E64.4547
M204 S2000
M205 X10 Y10
G0 F3000 X112.217 Y132.016
M204 S1000
M205 X8 Y8
G1 F1500 X103.819 Y123.618 E64.84972
M204 S2000
M205 X10 Y10
G0 F3000 X103.819 Y123.052
M204 S1000
M205 X8 Y8
G1 F1500 X112.782 Y132.016 E65.27133
M204 S2000
M205 X10 Y10
G0 F3000 X113.348 Y132.016
M204 S1000
M205 X8 Y8
G1 F1500 X103.819 Y122.487 E65.71955
M204 S2000
M205 X10 Y10
G0 F3000 X103.819 Y121.921
M204 S1000
M205 X8 Y8
G1 F1500 X113.914 Y132.016 E66.19439
M204 S2000
M205 X10 Y10
G0 F3000 X114.479 Y132.016
M204 S1000
M205 X8 Y8
G1 F1500 X103.819 Y121.355 E66.69582
M204 S2000
M205 X10 Y10
G0 F3000 X103.819 Y120.79
M204 S1000
M205 X8 Y8
G1 F1500 X115.045 Y132.016 E67.22386
M204 S2000
M205 X10 Y10
G0 F3000 X115.611 Y132.016
M204 S1000
M205 X8 Y8
G1 F1500 X103.819 Y120.224 E67.77852
M204 S2000
M205 X10 Y10
G0 F3000 X103.819 Y119.658
M204 S1000
M205 X8 Y8
G1 F1500 X116.176 Y132.016 E68.35978
M204 S2000
M205 X10 Y10
G0 F3000 X116.742 Y132.016
M204 S1000
M205 X8 Y8
G1 F1500 X103.819 Y119.093 E68.96764
M204 S2000
M205 X10 Y10
G0 F3000 X103.819 Y118.527
M204 S1000
M205 X8 Y8
G1 F1500 X117.308 Y132.016 E69.60212
M204 S2000
M205 X10 Y10
G0 F3000 X117.873 Y132.016
M204 S1000
M205 X8 Y8
G1 F1500 X103.819 Y117.961 E70.2632
M204 S2000
M205 X10 Y10
G0 F3000 X103.819 Y117.395
M204 S1000
M205 X8 Y8
G1 F1500 X118.179 Y131.755 E70.93865
M204 S2000
M205 X10 Y10
G0 F3000 X118.179 Y131.19
M204 S1000
M205 X8 Y8
G1 F1500 X103.819 Y116.83 E71.6141
M204 S2000
M205 X10 Y10
G0 F3000 X103.819 Y116.264
M204 S1000
M205 X8 Y8
G1 F1500 X118.179 Y130.624 E72.28955
M204 S2000
M205 X10 Y10
G0 F3000 X118.179 Y130.058
M204 S1000
M205 X8 Y8
G1 F1500 X103.819 Y115.698 E72.965
M204 S2000
M205 X10 Y10
G0 F3000 X103.819 Y115.133
M204 S1000
M205 X8 Y8
G1 F1500 X118.179 Y129.493 E73.64045
M204 S2000
M205 X10 Y10
G0 F3000 X118.179 Y128.927
M204 S1000
M205 X8 Y8
G1 F1500 X103.819 Y114.567 E74.3159
M204 S2000
M205 X10 Y10
G0 F3000 X103.819 Y114.001
M204 S1000
M205 X8 Y8
G1 F1500 X118.179 Y128.361 E74.99135
M204 S2000
M205 X10 Y10
G0 F3000 X118.179 Y127.796
M204 S1000
M205 X8 Y8
G1 F1500 X103.819 Y113.436 E75.6668
M204 S2000
M205 X10 Y10
G0 F3000 X103.819 Y112.87
M204 S1000
M205 X8 Y8
G1 F1500 X118.179 Y127.23 E76.34225
M204 S2000
M205 X10 Y10
G0 F3000 X118.179 Y126.664
M204 S1000
M205 X8 Y8
G1 F1500 X103.819 Y112.304 E77.0177
M204 S2000
M205 X10 Y10
G0 F3000 X103.819 Y111.739
M204 S1000
M205 X8 Y8
G1 F1500 X118.179 Y126.099 E77.69315
M204 S2000
M205 X10 Y10
G0 F3000 X118.179 Y125.533
M204 S1000
M205 X8 Y8
G1 F1500 X103.819 Y111.173 E78.3686
M204 S2000
M205 X10 Y10
G0 F3000 X103.819 Y110.607
M204 S1000
M205 X8 Y8
G1 F1500 X118.179 Y124.967 E79.04405
M204 S2000
M205 X10 Y10
G0 F3000 X118.179 Y124.402
M204 S1000
M205 X8 Y8
G1 F1500 X103.819 Y110.042 E79.7195
M204 S2000
M205 X10 Y10
G0 F3000 X103.819 Y109.476
M204 S1000
M205 X8 Y8
G1 F1500 X118.179 Y123.836 E80.39495
M204 S2000
M205 X10 Y10
G0 F3000 X118.179 Y123.27
M204 S1000
M205 X8 Y8
G1 F1500 X103.819 Y108.91 E81.0704
M204 S2000
M205 X10 Y10
G0 F3000 X103.819 Y108.345
M204 S1000
M205 X8 Y8
G1 F1500 X118.179 Y122.704 E81.74583
M204 S2000
M205 X10 Y10
G0 F3000 X118.179 Y122.139
M204 S1000
M205 X8 Y8
G1 F1500 X103.819 Y107.779 E82.42128
M204 S2000
M205 X10 Y10
G0 F3000 X103.819 Y107.213
M204 S1000
M205 X8 Y8
G1 F1500 X118.179 Y121.573 E83.09673
M204 S2000
M205 X10 Y10
G0 F3000 X118.179 Y121.007
M204 S1000
M205 X8 Y8
G1 F1500 X103.819 Y106.647 E83.77218
M204 S2000
M205 X10 Y10
G0 F3000 X103.819 Y106.082
M204 S1000
M205 X8 Y8
G1 F1500 X118.179 Y120.442 E84.44763
M204 S2000
M205 X10 Y10
G0 F3000 X118.179 Y119.876
M204 S1000
M205 X8 Y8
G1 F1500 X103.819 Y105.516 E85.12308
M204 S2000
M205 X10 Y10
G0 F3000 X103.819 Y104.95
M204 S1000
M205 X8 Y8
G1 F1500 X118.179 Y119.31 E85.79853
M204 S2000
M205 X10 Y10
G0 F3000 X118.179 Y118.745
M204 S1000
M205 X8 Y8
G1 F1500 X103.819 Y104.385 E86.47398
M204 S2000
M205 X10 Y10
G0 F3000 X103.819 Y103.819
M204 S1000
M205 X8 Y8
G1 F1500 X118.179 Y118.179 E87.14943
M204 S2000
M205 X10 Y10
G0 F3000 X118.179 Y117.613
M204 S1000
M205 X8 Y8
G1 F1500 X103.819 Y103.253 E87.82488
M204 S2000
M205 X10 Y10
G0 F3000 X103.819 Y102.688
M204 S1000
M205 X8 Y8
G1 F1500 X118.179 Y117.048 E88.50033
M204 S2000
M205 X10 Y10
G0 F3000 X118.179 Y116.482
M204 S1000
M205 X8 Y8
G1 F1500 X103.819 Y102.122 E89.17578
M204 S2000
M205 X10 Y10
G0 F3000 X103.819 Y101.556
M204 S1000
M205 X8 Y8
G1 F1500 X118.179 Y115.916 E89.85123
M204 S2000
M205 X10 Y10
G0 F3000 X118.179 Y115.351
M204 S1000
M205 X8 Y8
G1 F1500 X103.819 Y100.991 E90.52669
M204 S2000
M205 X10 Y10
G0 F3000 X103.819 Y100.425
M204 S1000
M205 X8 Y8
G1 F1500 X118.179 Y114.785 E91.20214
M204 S2000
M205 X10 Y10
G0 F3000 X118.179 Y114.219
M204 S1000
M205 X8 Y8
G1 F1500 X103.819 Y99.859 E91.87759
M204 S2000
M205 X10 Y10
G0 F3000 X103.819 Y99.294
M204 S1000
M205 X8 Y8
G1 F1500 X118.179 Y113.653 E92.55301
M204 S2000
M205 X10 Y10
G0 F3000 X118.179 Y113.088
M204 S1000
M205 X8 Y8
G1 F1500 X103.819 Y98.728 E93.22846
M204 S2000
M205 X10 Y10
G0 F3000 X103.819 Y98.162
M204 S1000
M205 X8 Y8
G1 F1500 X118.179 Y112.522 E93.90391
M204 S2000
M205 X10 Y10
G0 F3000 X118.179 Y111.956
M204 S1000
M205 X8 Y8
G1 F1500 X103.819 Y97.596 E94.57936
M204 S2000
