;FLAVOR:Marlin
;TIME:6838
;Filament used: 6.62002m
;Layer height: 0.2
;MINX:65.828
;MINY:81.558
;MINZ:0.2
;MAXX:156.172
;MAXY:140.442
;MAXZ:37
;TARGET_MACHINE.NAME:Anycubic Kobra
;Generated with Cura_SteamEngine 5.6.0
M140 S60
M105
M190 S60
M104 S200
M105
M109 S200
M82 ;absolute extrusion mode
G28 ;Home
G1 Z15.0 F1200 ;Move the platform down 15mm
;Prime the extruder
G92 E0
G1 F200 E3
G92 E0
G92 E0
G92 E0
G1 F2400 E-6
;LAYER_COUNT:185
;LAYER:0
M107
M204 S2000
M205 X10 Y10
G0 F3000 X66.835 Y82.779 Z0.2
M204 S1000
M205 X8 Y8
;TYPE:SKIRT
G1 F2400 E0
G1 X67.559 Y82.196 E0.03092
G1 X68.551 Y81.702 E0.06778
G1 X69.454 Y81.57 E0.09813
G1 X92.833 Y81.558 E0.87572
G1 X93.914 Y81.78 E0.91242
G1 X94.822 Y82.263 E0.94663
G1 X95.207 Y82.565 E0.9629
G1 X95.79 Y83.289 E0.99382
G1 X96.284 Y84.281 E1.03068
G1 X96.416 Y85.184 E1.06103
G1 X96.428 Y136.847 E2.77935
G1 X96.206 Y137.928 E2.81606
G1 X95.723 Y138.836 E2.85026
G1 X95.421 Y139.221 E2.86654
G1 X94.697 Y139.804 E2.89745
G1 X93.705 Y140.298 E2.93431
G1 X92.802 Y140.43 E2.96467
G1 X69.423 Y140.442 E3.74226
G1 X68.342 Y140.22 E3.77896
G1 X67.434 Y139.737 E3.81317
G1 X67.049 Y139.435 E3.82944
G1 X66.466 Y138.711 E3.86036
G1 X65.972 Y137.719 E3.89722
G1 X65.84 Y136.816 E3.92757
G1 X65.828 Y85.153 E5.64589
G1 X66.05 Y84.072 E5.68259
G1 X66.533 Y83.164 E5.7168
G1 X66.835 Y82.779 E5.73308
M204 S2000
M205 X10 Y10
G0 F3000 X67.086 Y83.091
M204 S1000
M205 X8 Y8
G1 F2400 X67.779 Y82.533 E5.76267
G1 X68.671 Y82.089 E5.79581
G1 X69.512 Y81.966 E5.82408
G1 X92.792 Y81.958 E6.59837
G1 X93.778 Y82.16 E6.63185
G1 X94.583 Y82.584 E6.66211
G1 X94.895 Y82.816 E6.67504
G1 X95.453 Y83.509 E6.70463
G1 X95.897 Y84.401 E6.73777
G1 X96.02 Y85.242 E6.76604
G1 X96.028 Y136.806 E8.48107
G1 X95.826 Y137.792 E8.51454
G1 X95.402 Y138.597 E8.54481
G1 X95.17 Y138.909 E8.55774
G1 X94.477 Y139.467 E8.58733
G1 X93.585 Y139.911 E8.62047
G1 X92.744 Y140.034 E8.64874
G1 X69.464 Y140.042 E9.42304
G1 X68.478 Y139.84 E9.45651
G1 X67.673 Y139.416 E9.48677
G1 X67.361 Y139.184 E9.4997
G1 X66.803 Y138.491 E9.5293
G1 X66.359 Y137.599 E9.56244
G1 X66.236 Y136.758 E9.59071
G1 X66.228 Y85.194 E11.30573
G1 X66.43 Y84.208 E11.33921
G1 X66.854 Y83.403 E11.36947
G1 X67.086 Y83.091 E11.3824
M204 S2000
M205 X10 Y10
G0 F3000 X67.377 Y83.37
M204 S1000
M205 X8 Y8
G1 F2400 X67.995 Y82.872 E11.4088
G1 X68.791 Y82.476 E11.43837
G1 X69.57 Y82.362 E11.46455
G1 X92.751 Y82.358 E12.23556
G1 X93.641 Y82.54 E12.26577
G1 X94.396 Y82.938 E12.29416
G1 X94.616 Y83.107 E12.30339
G1 X95.114 Y83.725 E12.32978
G1 X95.51 Y84.521 E12.35935
G1 X95.624 Y85.3 E12.38554
G1 X95.628 Y136.765 E14.09727
G1 X95.446 Y137.655 E14.12749
G1 X95.048 Y138.41 E14.15587
G1 X94.879 Y138.63 E14.1651
G1 X94.261 Y139.128 E14.1915
G1 X93.465 Y139.524 E14.22107
G1 X92.686 Y139.638 E14.24725
G1 X69.505 Y139.642 E15.01826
G1 X68.615 Y139.46 E15.04847
G1 X67.86 Y139.062 E15.07686
G1 X67.64 Y138.893 E15.08609
G1 X67.142 Y138.275 E15.11248
G1 X66.746 Y137.479 E15.14205
G1 X66.632 Y136.7 E15.16824
G1 X66.628 Y85.235 E16.87997
G1 X66.81 Y84.345 E16.91019
G1 X67.208 Y83.59 E16.93857
G1 X67.377 Y83.37 E16.9478
M204 S2000
M205 X10 Y10
G0 F3000 X67.665 Y83.651
M204 S1000
M205 X8 Y8
G1 F2400 X68.211 Y83.211 E16.97112
G1 X68.911 Y82.863 E16.99712
G1 X69.628 Y82.758 E17.02122
G1 X92.71 Y82.758 E17.78894
G1 X93.506 Y82.921 E17.81596
G1 X94.21 Y83.292 E17.84243
G1 X94.335 Y83.395 E17.84781
G1 X94.775 Y83.941 E17.87114
G1 X95.123 Y84.641 E17.89714
G1 X95.228 Y85.358 E17.92124
G1 X95.228 Y136.724 E19.62968
G1 X95.065 Y137.52 E19.6567
G1 X94.694 Y138.224 E19.68317
G1 X94.591 Y138.349 E19.68856
G1 X94.045 Y138.789 E19.71188
G1 X93.345 Y139.137 E19.73788
G1 X92.628 Y139.242 E19.76198
G1 X69.546 Y139.242 E20.52969
G1 X68.75 Y139.079 E20.55672
G1 X68.046 Y138.708 E20.58319
G1 X67.921 Y138.605 E20.58857
G1 X67.481 Y138.059 E20.6119
G1 X67.133 Y137.359 E20.6379
G1 X67.028 Y136.642 E20.662
G1 X67.028 Y85.276 E22.37044
G1 X67.191 Y84.48 E22.39746
G1 X67.562 Y83.776 E22.42393
G1 X67.665 Y83.651 E22.42932
M204 S2000
M205 X10 Y10
G0 F3000 X67.916 Y83.962
M204 S1000
M205 X8 Y8
G1 F2400 X68.427 Y83.55 E22.45115
G1 X69.033 Y83.249 E22.47366
G1 X69.628 Y83.158 E22.49368
G1 X92.669 Y83.158 E23.26002
G1 X93.371 Y83.302 E23.28386
G1 X94.024 Y83.646 E23.3084
G1 X94.436 Y84.157 E23.33024
G1 X94.737 Y84.763 E23.35274
G1 X94.828 Y85.358 E23.37276
G1 X94.828 Y136.683 E25.07984
G1 X94.684 Y137.385 E25.10367
G1 X94.34 Y138.038 E25.12822
G1 X93.829 Y138.45 E25.15005
G1 X93.223 Y138.751 E25.17256
G1 X92.628 Y138.842 E25.19258
G1 X69.587 Y138.842 E25.95893
G1 X68.885 Y138.698 E25.98276
G1 X68.232 Y138.354 E26.00731
G1 X67.82 Y137.843 E26.02914
G1 X67.519 Y137.237 E26.05165
G1 X67.428 Y136.642 E26.07167
G1 X67.428 Y85.317 E27.77874
G1 X67.572 Y84.615 E27.80258
G1 X67.916 Y83.962 E27.82712
M204 S2000
M205 X10 Y10
G0 F3000 X68.605 Y83.908
M204 S1000
M205 X8 Y8
G1 F2400 X69.154 Y83.635 E27.84752
G1 X69.628 Y83.558 E27.86349
G1 X92.628 Y83.558 E28.62847
G1 X93.234 Y83.682 E28.64905
G1 X93.766 Y83.963 E28.66906
G1 X94.078 Y84.335 E28.68521
G1 X94.351 Y84.884 E28.7056
G1 X94.428 Y85.358 E28.72157
G1 X94.428 Y136.642 E30.42728
G1 X94.304 Y137.248 E30.44786
G1 X94.023 Y137.78 E30.46787
G1 X93.651 Y138.092 E30.48402
G1 X93.102 Y138.365 E30.50441
G1 X92.628 Y138.442 E30.52038
G1 X69.628 Y138.442 E31.28536
G1 X69.022 Y138.318 E31.30594
G1 X68.49 Y138.037 E31.32595
G1 X68.178 Y137.665 E31.3421
G1 X67.905 Y137.116 E31.36249
G1 X67.828 Y136.642 E31.37846
G1 X67.828 Y85.358 E33.08417
G1 X67.952 Y84.752 E33.10475
G1 X68.233 Y84.22 E33.12476
G1 X68.605 Y83.908 E33.14091
M204 S2000
M205 X10 Y10
G0 F3000 X68.783 Y84.266
M204 S1000
M205 X8 Y8
G1 F2400 X69.277 Y84.02 E33.15926
G1 X69.628 Y83.958 E33.17112
G1 X92.628 Y83.958 E33.9361
G1 X93.047 Y84.036 E33.95027
G1 X93.511 Y84.281 E33.96773
G1 X93.72 Y84.513 E33.97811
G1 X93.966 Y85.007 E33.99647
G1 X94.028 Y85.358 E34.00832
G1 X94.028 Y136.642 E35.71404
G1 X93.95 Y137.061 E35.72821
G1 X93.705 Y137.525 E35.74566
G1 X93.473 Y137.734 E35.75605
G1 X92.979 Y137.98 E35.7744
G1 X92.628 Y138.042 E35.78626
G1 X69.628 Y138.042 E36.55124
G1 X69.209 Y137.964 E36.56542
G1 X68.745 Y137.719 E36.58287
G1 X68.536 Y137.487 E36.59325
G1 X68.29 Y136.993 E36.61161
G1 X68.228 Y136.642 E36.62346
G1 X68.228 Y85.358 E38.32918
G1 X68.306 Y84.939 E38.34335
G1 X68.551 Y84.475 E38.3608
G1 X68.783 Y84.266 E38.37119
M204 S2000
M205 X10 Y10
G0 F3000 X68.973 Y84.618
M204 S1000
M205 X8 Y8
G1 F2400 X69.355 Y84.412 E38.38563
G1 X69.628 Y84.358 E38.39488
G1 X92.628 Y84.358 E39.15986
G1 X92.966 Y84.428 E39.17135
G1 X93.229 Y84.565 E39.18121
G1 X93.368 Y84.703 E39.18772
G1 X93.574 Y85.085 E39.20216
G1 X93.628 Y85.358 E39.21141
G1 X93.628 Y136.642 E40.91713
G1 X93.558 Y136.98 E40.92861
G1 X93.421 Y137.243 E40.93847
G1 X93.283 Y137.382 E40.94498
G1 X92.901 Y137.588 E40.95942
G1 X92.628 Y137.642 E40.96868
G1 X69.628 Y137.642 E41.73366
G1 X69.29 Y137.572 E41.74514
G1 X69.027 Y137.435 E41.755
G1 X68.888 Y137.297 E41.76152
G1 X68.682 Y136.915 E41.77595
G1 X68.628 Y136.642 E41.78521
G1 X68.628 Y85.358 E43.49092
G1 X68.698 Y85.02 E43.5024
G1 X68.835 Y84.757 E43.51226
G1 X68.973 Y84.618 E43.51878
M204 S2000
M205 X10 Y10
G0 F3000 X69.467 Y85.239
M204 S1000
M205 X8 Y8
G1 F2400 X69.628 Y85.158 E43.52477
G1 X92.628 Y85.158 E44.28976
G1 X92.747 Y85.197 E44.29392
G1 X92.828 Y85.358 E44.29992
G1 X92.828 Y136.642 E46.00563
G1 X92.789 Y136.761 E46.00979
G1 X92.628 Y136.842 E46.01579
G1 X69.628 Y136.842 E46.78077
G1 X69.509 Y136.803 E46.78494
G1 X69.428 Y136.642 E46.79093
G1 X69.428 Y85.358 E48.49664
G1 X69.467 Y85.239 E48.50081
M204 S2000
M205 X10 Y10
G0 F3000 X69.178 Y84.962
M204 S1000
M205 X8 Y8
G1 F2400 X69.448 Y84.801 E48.51126
G1 X69.628 Y84.758 E48.51742
G1 X92.628 Y84.758 E49.2824
G1 X92.872 Y84.817 E49.29075
G1 X93.024 Y84.908 E49.29664
G1 X93.185 Y85.178 E49.3071
G1 X93.228 Y85.358 E49.31326
G1 X93.228 Y136.642 E51.01897
G1 X93.169 Y136.886 E51.02732
G1 X93.078 Y137.038 E51.03321
G1 X92.808 Y137.199 E51.04367
G1 X92.628 Y137.242 E51.04982
G1 X69.628 Y137.242 E51.8148
G1 X69.384 Y137.183 E51.82315
G1 X69.232 Y137.092 E51.82905
G1 X69.071 Y136.822 E51.8395
G1 X69.028 Y136.642 E51.84566
G1 X69.028 Y85.358 E53.55137
G1 X69.087 Y85.114 E53.55972
G1 X69.178 Y84.962 E53.56561
M204 S2000
M205 X10 Y10
G1 F2400 E47.56561
G0 F3000 X69.178 Y84.693
G0 X93.281 Y84.705
G0 X125.572 Y85.153
M204 S1000
M205 X8 Y8
G1 F2400 E53.56561
G1 X125.794 Y84.072 E53.60232
G1 X126.277 Y83.164 E53.63652
G1 X126.579 Y82.779 E53.6528
G1 X127.303 Y82.196 E53.68371
G1 X128.295 Y81.702 E53.72057
G1 X129.198 Y81.57 E53.75093
G1 X152.577 Y81.558 E54.52851
G1 X153.658 Y81.78 E54.56522
G1 X154.566 Y82.263 E54.59943
G1 X154.951 Y82.565 E54.6157
G1 X155.534 Y83.289 E54.64662
G1 X156.028 Y84.281 E54.68348
G1 X156.16 Y85.184 E54.71383
G1 X156.172 Y136.847 E56.43215
G1 X155.95 Y137.928 E56.46885
G1 X155.467 Y138.836 E56.50306
G1 X155.165 Y139.221 E56.51933
G1 X154.441 Y139.804 E56.55025
G1 X153.449 Y140.298 E56.58711
G1 X152.546 Y140.43 E56.61746
G1 X129.167 Y140.442 E57.39505
G1 X128.086 Y140.22 E57.43176
G1 X127.178 Y139.737 E57.46596
G1 X126.793 Y139.435 E57.48224
G1 X126.21 Y138.711 E57.51316
G1 X125.716 Y137.719 E57.55001
G1 X125.584 Y136.816 E57.58037
G1 X125.572 Y85.153 E59.29869
M204 S2000
M205 X10 Y10
G1 F2400 E53.29869
G0 F3000 X126.598 Y83.403
M204 S1000
M205 X8 Y8
G1 F2400 E59.29869
G1 X126.83 Y83.091 E59.31162
G1 X127.523 Y82.533 E59.34121
G1 X128.415 Y82.089 E59.37435
G1 X129.256 Y81.966 E59.40262
G1 X152.536 Y81.958 E60.17692
G1 X153.522 Y82.16 E60.21039
G1 X154.327 Y82.584 E60.24065
G1 X154.639 Y82.816 E60.25358
G1 X155.197 Y83.509 E60.28318
G1 X155.641 Y84.401 E60.31632
G1 X155.764 Y85.242 E60.34459
G1 X155.772 Y136.806 E62.05961
G1 X155.57 Y137.792 E62.09309
G1 X155.146 Y138.597 E62.12335
G1 X154.914 Y138.909 E62.13628
G1 X154.221 Y139.467 E62.16587
G1 X153.329 Y139.911 E62.19901
G1 X152.488 Y140.034 E62.22728
G1 X129.208 Y140.042 E63.00158
G1 X128.222 Y139.84 E63.03505
G1 X127.417 Y139.416 E63.06531
G1 X127.105 Y139.184 E63.07825
G1 X126.547 Y138.491 E63.10784
G1 X126.103 Y137.599 E63.14098
G1 X125.98 Y136.758 E63.16925
G1 X125.972 Y85.194 E64.88427
G1 X126.174 Y84.208 E64.91775
G1 X126.598 Y83.403 E64.94801
M204 S2000
M205 X10 Y10
G0 F3000 X126.952 Y83.59
M204 S1000
M205 X8 Y8
G1 F2400 X127.121 Y83.37 E64.95724
G1 X127.739 Y82.872 E64.98364
G1 X128.535 Y82.476 E65.01321
G1 X129.314 Y82.362 E65.03939
G1 X152.495 Y82.358 E65.8104
G1 X153.385 Y82.54 E65.84061
G1 X154.14 Y82.938 E65.869
G1 X154.36 Y83.107 E65.87822
G1 X154.858 Y83.725 E65.90462
G1 X155.254 Y84.521 E65.93419
G1 X155.368 Y85.3 E65.96038
G1 X155.372 Y136.765 E67.67211
G1 X155.19 Y137.655 E67.70232
G1 X154.792 Y138.41 E67.73071
G1 X154.623 Y138.63 E67.73994
G1 X154.005 Y139.128 E67.76634
G1 X153.209 Y139.524 E67.79591
G1 X152.43 Y139.638 E67.82209
G1 X129.249 Y139.642 E68.59309
G1 X128.359 Y139.46 E68.62331
G1 X127.604 Y139.062 E68.6517
G1 X127.384 Y138.893 E68.66092
G1 X126.886 Y138.275 E68.68732
G1 X126.49 Y137.479 E68.71689
G1 X126.376 Y136.7 E68.74308
G1 X126.372 Y85.235 E70.45481
G1 X126.554 Y84.345 E70.48502
G1 X126.952 Y83.59 E70.51341
M204 S2000
M205 X10 Y10
G0 F3000 X127.306 Y83.776
M204 S1000
M205 X8 Y8
G1 F2400 X127.409 Y83.651 E70.5188
G1 X127.955 Y83.211 E70.54212
G1 X128.655 Y82.863 E70.56812
G1 X129.372 Y82.758 E70.59222
G1 X152.454 Y82.758 E71.35993
G1 X153.25 Y82.921 E71.38696
G1 X153.954 Y83.292 E71.41343
G1 X154.079 Y83.395 E71.41881
G1 X154.519 Y83.941 E71.44214
G1 X154.867 Y84.641 E71.46814
G1 X154.972 Y85.358 E71.49224
G1 X154.972 Y136.724 E73.20068
G1 X154.809 Y137.52 E73.2277
G1 X154.438 Y138.224 E73.25417
G1 X154.335 Y138.349 E73.25956
G1 X153.789 Y138.789 E73.28288
G1 X153.089 Y139.137 E73.30888
G1 X152.372 Y139.242 E73.33298
G1 X129.29 Y139.242 E74.10069
G1 X128.494 Y139.079 E74.12772
G1 X127.79 Y138.708 E74.15418
G1 X127.665 Y138.605 E74.15957
G1 X127.225 Y138.059 E74.18289
G1 X126.877 Y137.359 E74.20889
G1 X126.772 Y136.642 E74.233
G1 X126.772 Y85.276 E75.94144
G1 X126.935 Y84.48 E75.96846
G1 X127.306 Y83.776 E75.99493
M204 S2000
M205 X10 Y10
G0 F3000 X127.66 Y83.962
M204 S1000
M205 X8 Y8
G1 F2400 X128.171 Y83.55 E76.01676
G1 X128.777 Y83.249 E76.03927
G1 X129.372 Y83.158 E76.05929
G1 X152.413 Y83.158 E76.82563
G1 X153.115 Y83.302 E76.84947
G1 X153.768 Y83.646 E76.87402
G1 X154.18 Y84.157 E76.89585
G1 X154.481 Y84.763 E76.91835
G1 X154.572 Y85.358 E76.93837
G1 X154.572 Y136.683 E78.64545
G1 X154.428 Y137.385 E78.66928
G1 X154.084 Y138.038 E78.69383
G1 X153.573 Y138.45 E78.71566
G1 X152.967 Y138.751 E78.73817
G1 X152.372 Y138.842 E78.75819
G1 X129.331 Y138.842 E79.52454
G1 X128.629 Y138.698 E79.54837
G1 X127.976 Y138.354 E79.57292
G1 X127.564 Y137.843 E79.59475
G1 X127.263 Y137.237 E79.61726
G1 X127.172 Y136.642 E79.63728
G1 X127.172 Y85.317 E81.34435
G1 X127.316 Y84.615 E81.36819
G1 X127.66 Y83.962 E81.39274
M204 S2000
M205 X10 Y10
G0 F3000 X127.977 Y84.22
M204 S1000
M205 X8 Y8
G1 F2400 X128.349 Y83.908 E81.40888
G1 X128.898 Y83.635 E81.42928
G1 X129.372 Y83.558 E81.44525
G1 X152.372 Y83.558 E82.21023
G1 X152.978 Y83.682 E82.2308
G1 X153.51 Y83.963 E82.25082
G1 X153.822 Y84.335 E82.26696
G1 X154.095 Y84.884 E82.28736
G1 X154.172 Y85.358 E82.30333
G1 X154.172 Y136.642 E84.00904
G1 X154.048 Y137.248 E84.02962
G1 X153.767 Y137.78 E84.04963
G1 X153.395 Y138.092 E84.06577
G1 X152.846 Y138.365 E84.08617
G1 X152.372 Y138.442 E84.10214
G1 X129.372 Y138.442 E84.86712
G1 X128.766 Y138.318 E84.8877
G1 X128.234 Y138.037 E84.90771
G1 X127.922 Y137.665 E84.92386
G1 X127.649 Y137.116 E84.94425
G1 X127.572 Y136.642 E84.96022
G1 X127.572 Y85.358 E86.66593
G1 X127.696 Y84.752 E86.68651
G1 X127.977 Y84.22 E86.70652
M204 S2000
M205 X10 Y10
G0 F3000 X128.295 Y84.475
M204 S1000
M205 X8 Y8
G1 F2400 X128.527 Y84.266 E86.7169
G1 X129.021 Y84.02 E86.73526
G1 X129.372 Y83.958 E86.74711
G1 X152.372 Y83.958 E87.5121
G1 X152.791 Y84.036 E87.52627
G1 X153.255 Y84.281 E87.54372
G1 X153.464 Y84.513 E87.55411
G1 X153.71 Y85.007 E87.57246
G1 X153.772 Y85.358 E87.58432
G1 X153.772 Y136.642 E89.29003
G1 X153.694 Y137.061 E89.30421
G1 X153.449 Y137.525 E89.32166
G1 X153.217 Y137.734 E89.33204
G1 X152.723 Y137.98 E89.3504
G1 X152.372 Y138.042 E89.36225
G1 X129.372 Y138.042 E90.12724
G1 X128.953 Y137.964 E90.14141
G1 X128.489 Y137.719 E90.15887
G1 X128.28 Y137.487 E90.16925
G1 X128.034 Y136.993 E90.18761
G1 X127.972 Y136.642 E90.19946
G1 X127.972 Y85.358 E91.90517
G1 X128.05 Y84.939 E91.91935
G1 X128.295 Y84.475 E91.9368
M204 S2000
M205 X10 Y10
G0 F3000 X128.579 Y84.757
M204 S1000
M205 X8 Y8
G1 F2400 X128.717 Y84.618 E91.94332
G1 X129.099 Y84.412 E91.95775
G1 X129.372 Y84.358 E91.96701
G1 X152.372 Y84.358 E92.73199
G1 X152.71 Y84.428 E92.74347
G1 X152.973 Y84.565 E92.75333
G1 X153.112 Y84.703 E92.75985
G1 X153.318 Y85.085 E92.77428
G1 X153.372 Y85.358 E92.78354
G1 X153.372 Y136.642 E94.48925
G1 X153.302 Y136.98 E94.50073
G1 X153.165 Y137.243 E94.5106
G1 X153.027 Y137.382 E94.51711
G1 X152.645 Y137.588 E94.53155
G1 X152.372 Y137.642 E94.5408
G1 X129.372 Y137.642 E95.30578
G1 X129.034 Y137.572 E95.31726
G1 X128.771 Y137.435 E95.32713
G1 X128.632 Y137.297 E95.33364
G1 X128.426 Y136.915 E95.34808
G1 X128.372 Y136.642 E95.35733
G1 X128.372 Y85.358 E97.06305
G1 X128.442 Y85.02 E97.07453
G1 X128.579 Y84.757 E97.08439
M204 S2000
M205 X10 Y10
G0 F3000 X129.211 Y85.239
M204 S1000
M205 X8 Y8
G1 F2400 X129.372 Y85.158 E97.09038
G1 X152.372 Y85.158 E97.85537
G1 X152.491 Y85.197 E97.85953
G1 X152.572 Y85.358 E97.86553
G1 X152.572 Y136.642 E99.57124
G1 X152.533 Y136.761 E99.5754
G1 X152.372 Y136.842 E99.5814
G1 X129.372 Y136.842 E100.34638
G1 X129.253 Y136.803 E100.35055
G1 X129.172 Y136.642 E100.35654
G1 X129.172 Y85.358 E102.06225
G1 X129.211 Y85.239 E102.06642
M204 S2000
M205 X10 Y10
G0 F3000 X128.922 Y84.962
M204 S1000
M205 X8 Y8
G1 F2400 X129.192 Y84.801 E102.07688
G1 X129.372 Y84.758 E102.08303
G1 X152.372 Y84.758 E102.84801
G1 X152.616 Y84.817 E102.85636
G1 X152.768 Y84.908 E102.86226
G1 X152.929 Y85.178 E102.87271
G1 X152.972 Y85.358 E102.87887
G1 X152.972 Y136.642 E104.58458
