;FLAVOR:Marlin
;TIME:9100
;Filament used: 8.70777m
;Layer height: 0.2
;MINX:91.544
;MINY:7.194
;MINZ:0.2
;MAXX:130.456
;MAXY:214.806
;MAXZ:9.2
;TARGET_MACHINE.NAME:Anycubic Kobra
;Generated with Cura_SteamEngine 5.6.0
M140 S60
M105
M190 S60
M104 S200
M105
M109 S200
M82 ;absolute extrusion mode
G28 ;Home
G1 Z15.0 F1200 ;Move the platform down 15mm
;Prime the extruder
G92 E0
G1 F200 E3
G92 E0
G92 E0
G92 E0
G1 F2400 E-6
;LAYER_COUNT:46
;LAYER:0
M107
M204 S2000
M205 X10 Y10
G0 F3000 X91.544 Y10.789 Z0.2
M204 S1000
M205 X8 Y8
;TYPE:SKIRT
G1 F2400 E0
G1 X91.766 Y9.708 E0.0367
G1 X92.249 Y8.8 E0.07091
G1 X92.551 Y8.415 E0.08719
G1 X93.275 Y7.832 E0.1181
G1 X94.267 Y7.338 E0.15496
G1 X95.17 Y7.206 E0.18532
G1 X108.557 Y7.194 E0.63057
G1 X109.638 Y7.416 E0.66727
G1 X110.546 Y7.899 E0.70148
G1 X110.931 Y8.201 E0.71776
G1 X111.514 Y8.925 E0.74867
G1 X112.008 Y9.917 E0.78553
G1 X112.14 Y10.82 E0.81588
G1 X112.152 Y24.903 E1.28429
G1 X112.633 Y24.685 E1.30185
G1 X113.474 Y24.562 E1.33012
G1 X126.861 Y24.55 E1.77537
G1 X127.942 Y24.772 E1.81208
G1 X128.85 Y25.255 E1.84629
G1 X129.235 Y25.557 E1.86256
G1 X129.818 Y26.281 E1.89348
G1 X130.312 Y27.273 E1.93034
G1 X130.444 Y28.176 E1.96069
G1 X130.456 Y193.855 E7.4712
G1 X130.234 Y194.936 E7.5079
G1 X129.751 Y195.844 E7.54211
G1 X129.449 Y196.229 E7.55838
G1 X128.725 Y196.812 E7.5893
G1 X127.733 Y197.306 E7.62616
G1 X126.83 Y197.438 E7.65651
G1 X113.443 Y197.45 E8.10176
G1 X112.418 Y197.24 E8.13656
G1 X112.152 Y197.118 E8.1463
G1 X112.152 Y211.211 E8.61503
G1 X111.93 Y212.292 E8.65174
G1 X111.447 Y213.2 E8.68594
G1 X111.145 Y213.585 E8.70222
G1 X110.421 Y214.168 E8.73314
G1 X109.429 Y214.662 E8.76999
G1 X108.526 Y214.794 E8.80035
G1 X95.139 Y214.806 E9.2456
G1 X94.058 Y214.584 E9.28231
G1 X93.15 Y214.101 E9.31651
G1 X92.765 Y213.799 E9.33279
G1 X92.182 Y213.075 E9.3637
G1 X91.688 Y212.083 E9.40056
G1 X91.556 Y211.18 E9.43092
G1 X91.544 Y10.789 E16.09595
M204 S2000
M205 X10 Y10
G0 F3000 X91.944 Y10.83
M204 S1000
M205 X8 Y8
G1 F2400 X92.146 Y9.844 E16.12942
G1 X92.57 Y9.039 E16.15968
G1 X92.802 Y8.727 E16.17262
G1 X93.495 Y8.169 E16.20221
G1 X94.387 Y7.725 E16.23535
G1 X95.228 Y7.602 E16.26362
G1 X108.516 Y7.594 E16.70558
G1 X109.502 Y7.796 E16.73905
G1 X110.307 Y8.22 E16.76932
G1 X110.619 Y8.452 E16.78225
G1 X111.177 Y9.145 E16.81184
G1 X111.621 Y10.037 E16.84498
G1 X111.744 Y10.878 E16.87325
G1 X111.752 Y25.548 E17.36118
G1 X112.691 Y25.081 E17.39606
G1 X113.532 Y24.958 E17.42433
G1 X126.82 Y24.95 E17.86629
G1 X127.806 Y25.152 E17.89976
G1 X128.611 Y25.576 E17.93002
G1 X128.923 Y25.808 E17.94296
G1 X129.481 Y26.501 E17.97255
G1 X129.925 Y27.393 E18.00569
G1 X130.048 Y28.234 E18.03396
G1 X130.056 Y193.814 E23.54117
G1 X129.854 Y194.8 E23.57465
G1 X129.43 Y195.605 E23.60491
G1 X129.198 Y195.917 E23.61784
G1 X128.505 Y196.475 E23.64743
G1 X127.613 Y196.919 E23.68057
G1 X126.772 Y197.042 E23.70884
G1 X113.484 Y197.05 E24.1508
G1 X112.498 Y196.848 E24.18428
G1 X111.752 Y196.455 E24.21232
G1 X111.752 Y211.17 E24.70174
G1 X111.55 Y212.156 E24.73522
G1 X111.126 Y212.961 E24.76548
G1 X110.894 Y213.273 E24.77841
G1 X110.201 Y213.831 E24.80801
G1 X109.309 Y214.275 E24.84115
G1 X108.468 Y214.398 E24.86942
G1 X95.18 Y214.406 E25.31138
G1 X94.194 Y214.204 E25.34485
G1 X93.389 Y213.78 E25.37511
G1 X93.077 Y213.548 E25.38804
G1 X92.519 Y212.855 E25.41764
G1 X92.075 Y211.963 E25.45078
G1 X91.952 Y211.122 E25.47905
G1 X91.944 Y10.83 E32.14079
M204 S2000
M205 X10 Y10
G0 F3000 X92.344 Y10.871
M204 S1000
M205 X8 Y8
G1 F2400 X92.526 Y9.981 E32.171
G1 X92.924 Y9.226 E32.19939
G1 X93.093 Y9.006 E32.20861
G1 X93.711 Y8.508 E32.23501
G1 X94.507 Y8.112 E32.26458
G1 X95.286 Y7.998 E32.29077
G1 X108.475 Y7.994 E32.72943
G1 X109.365 Y8.176 E32.75965
G1 X110.12 Y8.574 E32.78804
G1 X110.34 Y8.743 E32.79726
G1 X110.838 Y9.361 E32.82366
G1 X111.234 Y10.157 E32.85323
G1 X111.348 Y10.936 E32.87942
G1 X111.352 Y26.398 E33.39369
G1 X112.015 Y25.864 E33.422
G1 X112.811 Y25.468 E33.45157
G1 X113.59 Y25.354 E33.47776
G1 X126.779 Y25.35 E33.91642
G1 X127.669 Y25.532 E33.94664
G1 X128.424 Y25.93 E33.97502
G1 X128.644 Y26.099 E33.98425
G1 X129.142 Y26.717 E34.01065
G1 X129.538 Y27.513 E34.04022
G1 X129.652 Y28.292 E34.06641
G1 X129.656 Y193.773 E39.57033
G1 X129.474 Y194.663 E39.60054
G1 X129.076 Y195.418 E39.62893
G1 X128.907 Y195.638 E39.63815
G1 X128.289 Y196.136 E39.66455
G1 X127.493 Y196.532 E39.69412
G1 X126.714 Y196.646 E39.72031
G1 X113.525 Y196.65 E40.15898
G1 X112.635 Y196.468 E40.18919
G1 X111.88 Y196.07 E40.21758
G1 X111.687 Y195.922 E40.22567
G1 X111.352 Y195.519 E40.2431
G1 X111.352 Y211.129 E40.76229
G1 X111.17 Y212.019 E40.7925
G1 X110.772 Y212.774 E40.82089
G1 X110.603 Y212.994 E40.83011
G1 X109.985 Y213.492 E40.85651
G1 X109.189 Y213.888 E40.88608
G1 X108.41 Y214.002 E40.91227
G1 X95.221 Y214.006 E41.35094
G1 X94.331 Y213.824 E41.38115
G1 X93.576 Y213.426 E41.40954
G1 X93.356 Y213.257 E41.41876
G1 X92.858 Y212.639 E41.44516
G1 X92.462 Y211.843 E41.47473
G1 X92.348 Y211.064 E41.50092
G1 X92.344 Y10.871 E48.15936
M204 S2000
M205 X10 Y10
G0 F3000 X92.744 Y10.912
M204 S1000
M205 X8 Y8
G1 F2400 X92.907 Y10.116 E48.18639
G1 X93.278 Y9.412 E48.21286
G1 X93.381 Y9.287 E48.21824
G1 X93.927 Y8.847 E48.24157
G1 X94.627 Y8.499 E48.26757
G1 X95.344 Y8.394 E48.29167
G1 X108.434 Y8.394 E48.72704
G1 X109.23 Y8.557 E48.75407
G1 X109.934 Y8.928 E48.78054
G1 X110.059 Y9.031 E48.78592
G1 X110.499 Y9.577 E48.80925
G1 X110.847 Y10.277 E48.83525
G1 X110.952 Y10.994 E48.85935
G1 X110.952 Y211.088 E55.5145
G1 X110.789 Y211.884 E55.54153
G1 X110.418 Y212.588 E55.56799
G1 X110.315 Y212.713 E55.57338
G1 X109.769 Y213.153 E55.5967
G1 X109.069 Y213.501 E55.6227
G1 X108.352 Y213.606 E55.64681
G1 X95.262 Y213.606 E56.08218
G1 X94.466 Y213.443 E56.10921
G1 X93.762 Y213.072 E56.13567
G1 X93.637 Y212.969 E56.14106
G1 X93.197 Y212.423 E56.16438
G1 X92.849 Y211.723 E56.19038
G1 X92.744 Y211.006 E56.21449
G1 X92.744 Y10.912 E62.86964
M204 S2000
M205 X10 Y10
G0 F3000 X93.144 Y10.953
M204 S1000
M205 X8 Y8
G1 F2400 X93.144 Y211.006 E69.52343
G1 X93.235 Y211.601 E69.54345
G1 X93.536 Y212.207 E69.56595
G1 X93.948 Y212.718 E69.58779
G1 X94.601 Y213.062 E69.61233
G1 X95.303 Y213.206 E69.63617
G1 X108.352 Y213.206 E70.07018
G1 X108.947 Y213.115 E70.0902
G1 X109.553 Y212.814 E70.11271
G1 X110.064 Y212.402 E70.13454
G1 X110.408 Y211.749 E70.15909
G1 X110.552 Y211.047 E70.18292
G1 X110.552 Y10.994 E76.83671
G1 X110.461 Y10.399 E76.85673
G1 X110.16 Y9.793 E76.87924
G1 X109.748 Y9.282 E76.90107
G1 X109.095 Y8.938 E76.92562
G1 X108.393 Y8.794 E76.94945
G1 X95.344 Y8.794 E77.38346
G1 X94.749 Y8.885 E77.40348
G1 X94.143 Y9.186 E77.42599
G1 X93.632 Y9.598 E77.44782
G1 X93.288 Y10.251 E77.47237
G1 X93.144 Y10.953 E77.4962
M204 S2000
M205 X10 Y10
G0 F3000 X93.544 Y10.994
M204 S1000
M205 X8 Y8
G1 F2400 X93.544 Y211.006 E84.14863
G1 X93.621 Y211.48 E84.1646
G1 X93.894 Y212.029 E84.18499
G1 X94.206 Y212.401 E84.20114
G1 X94.738 Y212.682 E84.22115
G1 X95.344 Y212.806 E84.24173
G1 X108.352 Y212.806 E84.67437
G1 X108.826 Y212.729 E84.69035
G1 X109.375 Y212.456 E84.71074
G1 X109.747 Y212.144 E84.72689
G1 X110.028 Y211.612 E84.7469
G1 X110.152 Y211.006 E84.76747
G1 X110.152 Y10.994 E91.4199
G1 X110.075 Y10.52 E91.43587
G1 X109.802 Y9.971 E91.45626
G1 X109.49 Y9.599 E91.47241
G1 X108.958 Y9.318 E91.49242
G1 X108.352 Y9.194 E91.51299
G1 X95.344 Y9.194 E91.94564
G1 X94.87 Y9.271 E91.96161
G1 X94.321 Y9.544 E91.98201
G1 X93.949 Y9.856 E91.99816
G1 X93.668 Y10.388 E92.01817
G1 X93.544 Y10.994 E92.03874
M204 S2000
M205 X10 Y10
G0 F3000 X93.944 Y10.994
M204 S1000
M205 X8 Y8
G1 F2400 X94.022 Y10.575 E92.05292
G1 X94.267 Y10.111 E92.07037
G1 X94.499 Y9.902 E92.08075
G1 X94.993 Y9.656 E92.09911
G1 X95.344 Y9.594 E92.11096
G1 X108.352 Y9.594 E92.54361
G1 X108.771 Y9.672 E92.55779
G1 X109.235 Y9.917 E92.57524
G1 X109.444 Y10.149 E92.58562
G1 X109.69 Y10.643 E92.60398
G1 X109.752 Y10.994 E92.61583
G1 X109.752 Y211.006 E99.26826
G1 X109.674 Y211.425 E99.28244
G1 X109.429 Y211.889 E99.29989
G1 X109.197 Y212.098 E99.31027
G1 X108.703 Y212.344 E99.32863
G1 X108.352 Y212.406 E99.34048
G1 X95.344 Y212.406 E99.77313
G1 X94.925 Y212.328 E99.78731
G1 X94.461 Y212.083 E99.80476
G1 X94.252 Y211.851 E99.81514
G1 X94.006 Y211.357 E99.8335
G1 X93.944 Y211.006 E99.84535
G1 X93.944 Y10.994 E106.49778
M204 S2000
M205 X10 Y10
G0 F3000 X94.344 Y10.994
M204 S1000
M205 X8 Y8
G1 F2400 X94.414 Y10.656 E106.50926
G1 X94.551 Y10.393 E106.51912
G1 X94.689 Y10.254 E106.52564
G1 X95.071 Y10.048 E106.54007
G1 X95.344 Y9.994 E106.54933
G1 X108.352 Y9.994 E106.98198
G1 X108.69 Y10.064 E106.99346
G1 X108.953 Y10.201 E107.00332
G1 X109.092 Y10.339 E107.00984
G1 X109.298 Y10.721 E107.02427
G1 X109.352 Y10.994 E107.03353
G1 X109.352 Y211.006 E113.68595
G1 X109.282 Y211.344 E113.69743
G1 X109.145 Y211.607 E113.7073
G1 X109.007 Y211.746 E113.71381
G1 X108.625 Y211.952 E113.72825
G1 X108.352 Y212.006 E113.7375
G1 X95.344 Y212.006 E114.17015
G1 X95.006 Y211.936 E114.18163
G1 X94.743 Y211.799 E114.19149
G1 X94.604 Y211.661 E114.19801
G1 X94.398 Y211.279 E114.21244
G1 X94.344 Y211.006 E114.2217
G1 X94.344 Y10.994 E120.87412
M204 S2000
M205 X10 Y10
G0 F3000 X95.144 Y10.994
M204 S1000
M205 X8 Y8
G1 F2400 X95.183 Y10.875 E120.87829
G1 X95.344 Y10.794 E120.88428
G1 X108.352 Y10.794 E121.31693
G1 X108.471 Y10.833 E121.3211
G1 X108.552 Y10.994 E121.32709
G1 X108.552 Y211.006 E127.97952
G1 X108.513 Y211.125 E127.98368
G1 X108.352 Y211.206 E127.98968
G1 X95.344 Y211.206 E128.42233
G1 X95.225 Y211.167 E128.42649
G1 X95.144 Y211.006 E128.43248
G1 X95.144 Y10.994 E135.08491
M204 S2000
M205 X10 Y10
G0 F3000 X94.744 Y10.994
M204 S1000
M205 X8 Y8
G1 F2400 X94.803 Y10.75 E135.09326
G1 X94.894 Y10.598 E135.09915
G1 X95.164 Y10.437 E135.10961
G1 X95.344 Y10.394 E135.11576
G1 X108.352 Y10.394 E135.54841
G1 X108.596 Y10.453 E135.55676
G1 X108.748 Y10.544 E135.56265
G1 X108.909 Y10.814 E135.57311
G1 X108.952 Y10.994 E135.57926
G1 X108.952 Y211.006 E142.23169
G1 X108.893 Y211.25 E142.24004
G1 X108.802 Y211.402 E142.24593
G1 X108.532 Y211.563 E142.25639
G1 X108.352 Y211.606 E142.26254
G1 X95.344 Y211.606 E142.69519
G1 X95.1 Y211.547 E142.70354
G1 X94.948 Y211.456 E142.70943
G1 X94.787 Y211.186 E142.71989
G1 X94.744 Y211.006 E142.72604
G1 X94.744 Y10.994 E149.37847
M204 S2000
M205 X10 Y10
G1 F2400 E143.37847
G0 F3000 X94.679 Y10.994
G0 X109.005 Y10.341
G0 X111.685 Y26.643
M204 S1000
M205 X8 Y8
G1 F2400 E149.37847
G1 X112.231 Y26.203 E149.40179
G1 X112.931 Y25.855 E149.42779
G1 X113.648 Y25.75 E149.45189
G1 X126.738 Y25.75 E149.88727
G1 X127.534 Y25.913 E149.91429
G1 X128.238 Y26.284 E149.94076
G1 X128.363 Y26.387 E149.94615
G1 X128.803 Y26.933 E149.96947
G1 X129.151 Y27.633 E149.99547
G1 X129.256 Y28.35 E150.01957
G1 X129.256 Y193.732 E155.5202
G1 X129.093 Y194.528 E155.54723
G1 X128.722 Y195.232 E155.57369
G1 X128.619 Y195.357 E155.57908
G1 X128.073 Y195.797 E155.6024
G1 X127.373 Y196.145 E155.6284
G1 X126.656 Y196.25 E155.65251
G1 X113.566 Y196.25 E156.08788
G1 X112.77 Y196.087 E156.11491
G1 X112.066 Y195.716 E156.14137
G1 X111.941 Y195.613 E156.14676
G1 X111.501 Y195.067 E156.17008
G1 X111.153 Y194.367 E156.19608
G1 X111.048 Y193.65 E156.22018
G1 X111.048 Y28.268 E161.72081
G1 X111.211 Y27.472 E161.74784
G1 X111.582 Y26.768 E161.7743
G1 X111.685 Y26.643 E161.77969
M204 S2000
M205 X10 Y10
G0 F3000 X111.592 Y27.607
M204 S1000
M205 X8 Y8
G1 F2400 X111.936 Y26.954 E161.80424
G1 X112.447 Y26.542 E161.82607
G1 X113.053 Y26.241 E161.84858
G1 X113.648 Y26.15 E161.8686
G1 X126.697 Y26.15 E162.30261
G1 X127.399 Y26.294 E162.32644
G1 X128.052 Y26.638 E162.35099
G1 X128.464 Y27.149 E162.37282
G1 X128.765 Y27.755 E162.39533
G1 X128.856 Y28.35 E162.41535
G1 X128.856 Y193.691 E167.91461
G1 X128.712 Y194.393 E167.93845
G1 X128.368 Y195.046 E167.963
G1 X127.857 Y195.458 E167.98483
G1 X127.251 Y195.759 E168.00733
G1 X126.656 Y195.85 E168.02735
G1 X113.607 Y195.85 E168.46136
G1 X112.905 Y195.706 E168.4852
G1 X112.252 Y195.362 E168.50975
G1 X111.84 Y194.851 E168.53158
G1 X111.539 Y194.245 E168.55408
G1 X111.448 Y193.65 E168.5741
G1 X111.448 Y28.309 E174.07337
G1 X111.592 Y27.607 E174.0972
M204 S2000
M205 X10 Y10
G0 F3000 X111.972 Y27.744
M204 S1000
M205 X8 Y8
G1 F2400 X112.253 Y27.212 E174.11721
G1 X112.625 Y26.9 E174.13336
G1 X113.174 Y26.627 E174.15376
G1 X113.648 Y26.55 E174.16973
G1 X126.656 Y26.55 E174.60237
G1 X127.262 Y26.674 E174.62295
G1 X127.794 Y26.955 E174.64296
G1 X128.106 Y27.327 E174.65911
G1 X128.379 Y27.876 E174.6795
G1 X128.456 Y28.35 E174.69547
G1 X128.456 Y193.65 E180.19337
G1 X128.332 Y194.256 E180.21395
G1 X128.051 Y194.788 E180.23396
G1 X127.679 Y195.1 E180.25011
G1 X127.13 Y195.373 E180.2705
G1 X126.656 Y195.45 E180.28647
G1 X113.648 Y195.45 E180.71912
G1 X113.042 Y195.326 E180.73969
G1 X112.51 Y195.045 E180.7597
G1 X112.198 Y194.673 E180.77585
G1 X111.925 Y194.124 E180.79624
G1 X111.848 Y193.65 E180.81222
G1 X111.848 Y28.35 E186.31012
G1 X111.972 Y27.744 E186.33069
M204 S2000
M205 X10 Y10
G0 F3000 X112.326 Y27.931
M204 S1000
M205 X8 Y8
G1 F2400 X112.571 Y27.467 E186.34814
G1 X112.803 Y27.258 E186.35853
G1 X113.297 Y27.012 E186.37688
G1 X113.648 Y26.95 E186.38874
G1 X126.656 Y26.95 E186.82138
G1 X127.075 Y27.028 E186.83556
G1 X127.539 Y27.273 E186.85301
G1 X127.748 Y27.505 E186.8634
G1 X127.994 Y27.999 E186.88175
G1 X128.056 Y28.35 E186.89361
G1 X128.056 Y193.65 E192.39151
G1 X127.978 Y194.069 E192.40568
G1 X127.733 Y194.533 E192.42314
G1 X127.501 Y194.742 E192.43352
G1 X127.007 Y194.988 E192.45188
G1 X126.656 Y195.05 E192.46373
G1 X113.648 Y195.05 E192.89638
G1 X113.229 Y194.972 E192.91055
G1 X112.765 Y194.727 E192.92801
G1 X112.556 Y194.495 E192.93839
G1 X112.31 Y194.001 E192.95675
G1 X112.248 Y193.65 E192.9686
G1 X112.248 Y28.35 E198.4665
G1 X112.326 Y27.931 E198.48068
M204 S2000
M205 X10 Y10
G0 F3000 X112.718 Y28.012
M204 S1000
M205 X8 Y8
G1 F2400 X112.648 Y28.35 E198.49216
G1 X112.648 Y193.65 E203.99006
G1 X112.702 Y193.923 E203.99931
G1 X112.908 Y194.305 E204.01375
G1 X113.047 Y194.443 E204.02026
G1 X113.31 Y194.58 E204.03013
G1 X113.648 Y194.65 E204.04161
G1 X126.656 Y194.65 E204.47426
G1 X126.929 Y194.596 E204.48351
G1 X127.311 Y194.39 E204.49795
G1 X127.449 Y194.251 E204.50446
G1 X127.586 Y193.988 E204.51432
G1 X127.656 Y193.65 E204.52581
G1 X127.656 Y28.35 E210.02371
G1 X127.602 Y28.077 E210.03296
G1 X127.396 Y27.695 E210.0474
G1 X127.257 Y27.557 E210.05391
G1 X126.994 Y27.42 E210.06377
G1 X126.656 Y27.35 E210.07525
G1 X113.648 Y27.35 E210.5079
G1 X113.375 Y27.404 E210.51716
G1 X112.993 Y27.61 E210.53159
G1 X112.855 Y27.749 E210.53811
G1 X112.718 Y28.012 E210.54797
M204 S2000
M205 X10 Y10
G0 F3000 X113.448 Y28.35
M204 S1000
M205 X8 Y8
G1 F2400 X113.487 Y28.231 E210.55214
G1 X113.648 Y28.15 E210.55813
G1 X126.656 Y28.15 E210.99078
G1 X126.775 Y28.189 E210.99494
G1 X126.856 Y28.35 E211.00094
G1 X126.856 Y193.65 E216.49884
G1 X126.817 Y193.769 E216.503
G1 X126.656 Y193.85 E216.509
G1 X113.648 Y193.85 E216.94165
G1 X113.529 Y193.811 E216.94581
G1 X113.448 Y193.65 E216.95181
G1 X113.448 Y28.35 E222.44971
M204 S2000
M205 X10 Y10
G0 F3000 X113.107 Y28.106
M204 S1000
M205 X8 Y8
G1 F2400 X113.198 Y27.954 E222.4556
G1 X113.468 Y27.793 E222.46605
G1 X113.648 Y27.75 E222.47221
G1 X126.656 Y27.75 E222.90486
G1 X126.9 Y27.809 E222.91321
G1 X127.052 Y27.9 E222.9191
G1 X127.213 Y28.17 E222.92955
G1 X127.256 Y28.35 E222.93571
G1 X127.256 Y193.65 E228.43361
G1 X127.197 Y193.894 E228.44196
G1 X127.106 Y194.046 E228.44785
G1 X126.836 Y194.207 E228.45831
G1 X126.656 Y194.25 E228.46446
G1 X113.648 Y194.25 E228.89711
G1 X113.404 Y194.191 E228.90546
G1 X113.252 Y194.1 E228.91135
G1 X113.091 Y193.83 E228.92181
G1 X113.048 Y193.65 E228.92796
G1 X113.048 Y28.35 E234.42586
G1 X113.107 Y28.106 E234.43421
M204 S2000
M205 X10 Y10
G1 F2400 E228.43421
;MESH:Temporary_Slits.stl
G0 F3000 X114.062 Y28.764
G0 X126.456 Y193.45
M204 S1000
M205 X8 Y8
;TYPE:WALL-OUTER
G1 F2400 E234.43421
G1 F1500 X126.456 Y28.55 E239.91881
G1 X113.848 Y28.55 E240.33815
G1 X113.848 Y193.45 E245.82275
G1 X126.456 Y193.45 E246.24209
M204 S2000
M205 X10 Y10
