;FLAVOR:Marlin
;TIME:962
;Filament used: 0.899409m
;Layer height: 0.2
;MINX:87.31
;MINY:87.267
;MINZ:0.1
;MAXX:134.69
;MAXY:134.702
;MAXZ:3.4
;TARGET_MACHINE.NAME:Anycubic Kobra
;Generated with Cura_SteamEngine 5.6.0
M140 S60
M105
M190 S60
M104 S200
M105
M109 S200
M82 ;absolute extrusion mode
G28 ;Home
G1 Z15.0 F1200 ;Move the platform down 15mm
;Prime the extruder
G92 E0
G1 F200 E3
G92 E0
G92 E0
G92 E0
G1 F2400 E-6
;LAYER_COUNT:17
;LAYER:0
M107
M204 S2000
M205 X10 Y10
G0 F3000 X94.916 Y94.575 Z0.2
M204 S1000
M205 X8 Y8
;TYPE:SKIRT
G1 F2400 E0
G1 X95.577 Y93.948 E0.0303
G1 X96.434 Y93.214 E0.06783
G1 X97.324 Y92.516 E0.10545
G1 X98.298 Y91.829 E0.14509
G1 X99.325 Y91.176 E0.18557
G1 X100.535 Y90.522 E0.23132
G1 X101.55 Y90.033 E0.26879
G1 X102.357 Y89.692 E0.29793
G1 X103.459 Y89.269 E0.33719
G1 X104.492 Y88.937 E0.37328
G1 X105.669 Y88.868 E0.41249
G1 X106.174 Y88.992 E0.42979
G1 X106.243 Y88.865 E0.4346
G1 X106.579 Y88.457 E0.45218
G1 X107.263 Y87.906 E0.48139
G1 X108.255 Y87.412 E0.51825
G1 X109.158 Y87.28 E0.5486
G1 X112.871 Y87.267 E0.6721
G1 X113.954 Y87.489 E0.70887
G1 X114.862 Y87.972 E0.74307
G1 X115.245 Y88.274 E0.7593
G1 X115.8 Y88.969 E0.78888
G1 X116.77 Y88.858 E0.82135
G1 X117.657 Y88.977 E0.85112
G1 X118.96 Y89.424 E0.89693
G1 X119.791 Y89.744 E0.92655
G1 X120.718 Y90.148 E0.96018
G1 X121.939 Y90.771 E1.00578
G1 X122.802 Y91.263 E1.03882
G1 X123.839 Y91.927 E1.07977
G1 X124.811 Y92.616 E1.1194
G1 X125.706 Y93.325 E1.15738
G1 X126.5 Y94.013 E1.19232
G1 X127.166 Y94.651 E1.22299
G1 X127.779 Y95.284 E1.2523
G1 X128.372 Y95.947 E1.28189
G1 X129.11 Y96.852 E1.32073
G1 X129.793 Y97.773 E1.35886
G1 X130.625 Y99.025 E1.40886
G1 X131.224 Y100.079 E1.44918
G1 X131.816 Y101.271 E1.49345
G1 X132.338 Y102.466 E1.53682
G1 X132.775 Y103.672 E1.57949
G1 X133.003 Y104.502 E1.60811
G1 X133.116 Y105.393 E1.63799
G1 X132.957 Y106.128 E1.663
G1 X133.5 Y106.537 E1.68561
G1 X134.051 Y107.221 E1.71482
G1 X134.545 Y108.213 E1.75168
G1 X134.677 Y109.116 E1.78203
G1 X134.69 Y112.828 E1.9055
G1 X134.468 Y113.911 E1.94227
G1 X133.985 Y114.819 E1.97647
G1 X133.683 Y115.202 E1.9927
G1 X132.974 Y115.767 E2.02285
G1 X133.12 Y116.725 E2.05508
G1 X132.882 Y117.93 E2.09593
G1 X132.447 Y119.154 E2.13914
G1 X131.972 Y120.295 E2.18024
G1 X131.619 Y121.052 E2.20803
G1 X131.212 Y121.844 E2.23764
G1 X130.682 Y122.779 E2.27339
G1 X129.99 Y123.857 E2.31599
G1 X129.399 Y124.695 E2.3501
G1 X128.818 Y125.44 E2.38152
G1 X128.055 Y126.338 E2.42072
G1 X127.304 Y127.126 E2.45692
G1 X125.651 Y128.725 E2.53342
G1 X124.659 Y129.276 E2.57116
G1 X123.986 Y129.498 E2.59473
G1 X122.877 Y129.574 E2.6317
G1 X121.735 Y129.28 E2.67092
G1 X120.234 Y128.64 E2.72519
G1 X119.44 Y128.037 E2.75835
G1 X118.84 Y127.369 E2.78822
G1 X118.333 Y126.324 E2.82685
G1 X118.213 Y125.42 E2.85718
G1 X118.205 Y121.258 E2.99561
G1 X115.797 Y121.258 E3.0757
G1 X115.797 Y125.737 E3.22467
G1 X115.498 Y126.993 E3.26761
G1 X114.915 Y127.857 E3.30228
G1 X114.583 Y128.187 E3.31785
G1 X114.795 Y129.158 E3.35091
G1 X114.565 Y131.575 E3.43166
G1 X114.253 Y132.542 E3.46546
G1 X113.726 Y133.344 E3.49737
G1 X113.351 Y133.746 E3.51566
G1 X112.577 Y134.259 E3.54654
G1 X111.55 Y134.659 E3.5832
G1 X110.634 Y134.702 E3.6137
G1 X106.815 Y134.358 E3.74123
G1 X105.857 Y134.033 E3.77488
G1 X105.067 Y133.517 E3.80627
G1 X104.664 Y133.141 E3.8246
G1 X104.179 Y132.4 E3.85405
G1 X103.204 Y132.423 E3.88649
G1 X102.143 Y132.139 E3.92302
G1 X101.199 Y131.726 E3.95729
G1 X100.089 Y131.161 E3.99872
G1 X99.053 Y130.572 E4.03836
G1 X97.695 Y129.666 E4.09265
G1 X96.704 Y128.926 E4.13379
G1 X95.789 Y128.171 E4.17324
G1 X94.785 Y127.209 E4.21949
G1 X94.183 Y126.589 E4.24824
G1 X93.632 Y125.968 E4.27585
G1 X93.053 Y125.273 E4.30593
G1 X92.402 Y124.427 E4.34144
G1 X91.625 Y123.297 E4.38705
G1 X90.914 Y122.076 E4.43404
G1 X90.44 Y121.186 E4.46758
G1 X89.892 Y120.01 E4.51073
G1 X89.172 Y118.131 E4.57766
G1 X89.032 Y117.625 E4.59512
G1 X88.878 Y116.534 E4.63177
G1 X89.033 Y115.781 E4.65734
G1 X88.5 Y115.378 E4.67956
G1 X87.949 Y114.694 E4.70878
G1 X87.455 Y113.702 E4.74564
G1 X87.323 Y112.799 E4.77599
G1 X87.31 Y109.087 E4.89945
G1 X87.532 Y108.004 E4.93622
G1 X88.015 Y107.096 E4.97043
G1 X88.317 Y106.713 E4.98665
G1 X89.027 Y106.147 E5.01685
G1 X88.883 Y105.199 E5.04874
G1 X89.081 Y104.123 E5.08513
G1 X89.577 Y102.695 E5.13541
G1 X89.866 Y101.979 E5.16109
G1 X90.377 Y100.87 E5.20171
G1 X90.788 Y100.062 E5.23186
G1 X91.306 Y99.152 E5.26668
G1 X91.973 Y98.109 E5.30786
G1 X92.695 Y97.098 E5.34918
G1 X93.38 Y96.224 E5.38611
G1 X94.32 Y95.181 E5.43281
G1 X94.916 Y94.575 E5.46108
M204 S2000
M205 X10 Y10
G0 F3000 X95.191 Y94.865
M204 S1000
M205 X8 Y8
G1 F2400 X95.837 Y94.252 E5.4907
G1 X96.681 Y93.529 E5.52767
G1 X97.571 Y92.831 E5.56529
G1 X98.513 Y92.167 E5.60362
G1 X99.54 Y91.514 E5.6441
G1 X100.709 Y90.882 E5.6883
G1 X101.706 Y90.401 E5.72512
G1 X102.5 Y90.065 E5.75379
G1 X103.581 Y89.65 E5.7923
G1 X104.568 Y89.333 E5.82678
G1 X105.692 Y89.267 E5.86423
G1 X106.372 Y89.467 E5.88781
G1 X106.595 Y89.056 E5.90336
G1 X106.83 Y88.769 E5.9157
G1 X107.483 Y88.243 E5.94359
G1 X108.375 Y87.799 E5.97673
G1 X109.216 Y87.676 E6.00499
G1 X112.831 Y87.667 E6.12523
G1 X113.818 Y87.869 E6.15874
G1 X114.623 Y88.293 E6.189
G1 X114.934 Y88.525 E6.2019
G1 X115.465 Y89.183 E6.23003
G1 X115.615 Y89.463 E6.24059
G1 X115.947 Y89.354 E6.25221
G1 X116.766 Y89.261 E6.27963
G1 X117.564 Y89.368 E6.30641
G1 X118.816 Y89.797 E6.35043
G1 X119.631 Y90.111 E6.37948
G1 X120.558 Y90.515 E6.41311
G1 X121.741 Y91.119 E6.45729
G1 X122.586 Y91.6 E6.48963
G1 X123.623 Y92.264 E6.53058
G1 X124.563 Y92.93 E6.5689
G1 X125.444 Y93.627 E6.60626
G1 X126.223 Y94.302 E6.64055
G1 X126.889 Y94.94 E6.67122
G1 X127.481 Y95.551 E6.69952
G1 X128.062 Y96.2 E6.72849
G1 X128.789 Y97.09 E6.76671
G1 X129.46 Y97.995 E6.80418
G1 X130.277 Y99.223 E6.85324
G1 X130.876 Y100.277 E6.89356
G1 X131.449 Y101.431 E6.93641
G1 X131.971 Y102.626 E6.97979
G1 X132.399 Y103.808 E7.0216
G1 X132.606 Y104.552 E7.04728
G1 X132.71 Y105.375 E7.07487
G1 X132.502 Y106.337 E7.10761
G1 X132.901 Y106.553 E7.1227
G1 X133.188 Y106.788 E7.13504
G1 X133.714 Y107.441 E7.16293
G1 X134.158 Y108.333 E7.19607
G1 X134.281 Y109.174 E7.22434
G1 X134.29 Y112.788 E7.34454
G1 X134.088 Y113.775 E7.37805
G1 X133.664 Y114.58 E7.40831
G1 X133.432 Y114.891 E7.42121
G1 X132.774 Y115.422 E7.44934
G1 X132.493 Y115.572 E7.45993
G1 X132.578 Y115.823 E7.46874
G1 X132.714 Y116.714 E7.49872
G1 X132.505 Y117.796 E7.53538
G1 X132.078 Y119 E7.57786
G1 X131.61 Y120.126 E7.61842
G1 X131.263 Y120.869 E7.6457
G1 X130.864 Y121.647 E7.67478
G1 X130.334 Y122.582 E7.71052
G1 X129.663 Y123.626 E7.7518
G1 X129.072 Y124.464 E7.78591
G1 X128.513 Y125.181 E7.81615
G1 X127.75 Y126.079 E7.85534
G1 X127.026 Y126.838 E7.89023
G1 X125.41 Y128.401 E7.965
G1 X124.498 Y128.907 E7.99969
G1 X123.907 Y129.103 E8.0204
G1 X122.915 Y129.171 E8.05347
G1 X121.892 Y128.912 E8.08857
G1 X120.438 Y128.292 E8.14114
G1 X119.711 Y127.74 E8.1715
G1 X119.176 Y127.144 E8.19814
G1 X118.721 Y126.208 E8.23276
G1 X118.61 Y125.368 E8.26094
G1 X118.604 Y120.858 E8.41094
G1 X115.397 Y120.858 E8.51761
G1 X115.397 Y125.69 E8.67832
G1 X115.126 Y126.828 E8.71723
G1 X114.583 Y127.633 E8.74952
G1 X114.104 Y128.092 E8.77159
G1 X114.21 Y128.354 E8.78099
G1 X114.391 Y129.183 E8.80921
G1 X114.171 Y131.491 E8.88632
G1 X113.888 Y132.369 E8.91701
G1 X113.392 Y133.124 E8.94705
G1 X113.091 Y133.439 E8.96154
G1 X112.394 Y133.901 E8.98936
G1 X111.467 Y134.262 E9.02244
G1 X110.615 Y134.302 E9.05081
G1 X106.901 Y133.965 E9.17485
G1 X106.033 Y133.67 E9.20534
G1 X105.286 Y133.182 E9.23502
G1 X104.971 Y132.88 E9.24953
G1 X104.535 Y132.224 E9.27573
G1 X104.411 Y131.927 E9.28643
G1 X104.045 Y132.003 E9.29887
G1 X103.252 Y132.022 E9.32525
G1 X102.303 Y131.772 E9.35789
G1 X101.38 Y131.369 E9.39139
G1 X100.287 Y130.813 E9.43217
G1 X99.251 Y130.224 E9.47181
G1 X97.934 Y129.345 E9.52448
G1 X96.959 Y128.617 E9.56495
G1 X96.044 Y127.862 E9.6044
G1 X95.072 Y126.93 E9.64919
G1 X94.482 Y126.323 E9.67735
G1 X93.939 Y125.712 E9.70453
G1 X93.37 Y125.029 E9.7341
G1 X92.732 Y124.2 E9.76889
G1 X91.955 Y123.07 E9.8145
G1 X91.267 Y121.888 E9.85999
G1 X90.803 Y121.017 E9.89282
G1 X90.255 Y119.841 E9.93597
G1 X89.557 Y118.021 E10.0008
G1 X89.428 Y117.569 E10.01643
G1 X89.284 Y116.548 E10.05073
G1 X89.485 Y115.572 E10.08387
G1 X89.099 Y115.362 E10.09849
G1 X88.812 Y115.127 E10.11083
G1 X88.286 Y114.474 E10.13871
G1 X87.842 Y113.582 E10.17185
G1 X87.719 Y112.741 E10.20012
G1 X87.71 Y109.127 E10.32033
G1 X87.912 Y108.14 E10.35383
G1 X88.336 Y107.335 E10.3841
G1 X88.568 Y107.024 E10.397
G1 X89.226 Y106.493 E10.42512
G1 X89.508 Y106.343 E10.43575
G1 X89.423 Y106.093 E10.44453
G1 X89.288 Y105.208 E10.47431
G1 X89.459 Y104.254 E10.50654
G1 X89.948 Y102.845 E10.55615
G1 X90.237 Y102.129 E10.58183
G1 X90.734 Y101.051 E10.62131
G1 X91.136 Y100.26 E10.65082
G1 X91.643 Y99.368 E10.68495
G1 X92.31 Y98.325 E10.72612
G1 X93.01 Y97.345 E10.76618
G1 X93.695 Y96.471 E10.80311
G1 X94.605 Y95.461 E10.84833
G1 X95.191 Y94.865 E10.87613
M204 S2000
M205 X10 Y10
G0 F3000 X95.466 Y95.155
M204 S1000
M205 X8 Y8
G1 F2400 X96.097 Y94.556 E10.90507
G1 X96.928 Y93.844 E10.94146
G1 X97.802 Y93.158 E10.97842
G1 X98.728 Y92.505 E11.0161
G1 X99.755 Y91.852 E11.05658
G1 X100.883 Y91.242 E11.09923
G1 X101.862 Y90.769 E11.1354
G1 X102.643 Y90.438 E11.16361
G1 X103.703 Y90.031 E11.20138
G1 X104.643 Y89.729 E11.23421
G1 X105.644 Y89.67 E11.26757
G1 X106.573 Y89.944 E11.29978
G1 X106.912 Y89.3 E11.32399
G1 X107.081 Y89.08 E11.33321
G1 X107.699 Y88.582 E11.35961
G1 X108.495 Y88.186 E11.38918
G1 X109.274 Y88.072 E11.41537
G1 X112.791 Y88.067 E11.53234
G1 X113.681 Y88.249 E11.56256
G1 X114.436 Y88.647 E11.59094
G1 X114.656 Y88.816 E11.60017
G1 X115.154 Y89.434 E11.62657
G1 X115.417 Y89.962 E11.64619
G1 X115.992 Y89.751 E11.66656
G1 X116.762 Y89.664 E11.69233
G1 X117.471 Y89.759 E11.71613
G1 X118.672 Y90.17 E11.75834
G1 X119.471 Y90.478 E11.78683
G1 X120.398 Y90.882 E11.82046
G1 X121.543 Y91.467 E11.86322
G1 X122.388 Y91.948 E11.89556
G1 X123.392 Y92.59 E11.9352
G1 X124.315 Y93.244 E11.97282
G1 X125.182 Y93.929 E12.00957
G1 X125.946 Y94.591 E12.0432
G1 X126.612 Y95.229 E12.07387
G1 X127.183 Y95.818 E12.10116
G1 X127.752 Y96.453 E12.12952
G1 X128.468 Y97.328 E12.16712
G1 X129.127 Y98.217 E12.20393
G1 X129.929 Y99.421 E12.25204
G1 X130.528 Y100.475 E12.29237
G1 X131.082 Y101.591 E12.33381
G1 X131.604 Y102.786 E12.37718
G1 X132.014 Y103.918 E12.41722
G1 X132.209 Y104.602 E12.44088
G1 X132.305 Y105.359 E12.46626
G1 X132.128 Y106.2 E12.49484
G1 X131.989 Y106.52 E12.50645
G1 X132.657 Y106.87 E12.53153
G1 X132.877 Y107.039 E12.54076
G1 X133.375 Y107.657 E12.56715
G1 X133.771 Y108.453 E12.59672
G1 X133.885 Y109.232 E12.62291
G1 X133.89 Y112.748 E12.73985
G1 X133.708 Y113.638 E12.77007
G1 X133.31 Y114.393 E12.79845
G1 X133.141 Y114.613 E12.80768
G1 X132.523 Y115.111 E12.83408
G1 X131.99 Y115.376 E12.85388
G1 X132.183 Y115.883 E12.87192
G1 X132.308 Y116.705 E12.89957
G1 X132.128 Y117.662 E12.93196
G1 X131.701 Y118.866 E12.97445
G1 X131.248 Y119.957 E13.01374
G1 X130.907 Y120.687 E13.04054
G1 X130.516 Y121.45 E13.06906
G1 X129.986 Y122.385 E13.1048
G1 X129.336 Y123.395 E13.14475
G1 X128.745 Y124.233 E13.17886
G1 X128.208 Y124.922 E13.20791
G1 X127.46 Y125.803 E13.24635
G1 X126.748 Y126.55 E13.28067
G1 X125.167 Y128.079 E13.35383
G1 X124.372 Y128.527 E13.38418
G1 X123.827 Y128.708 E13.40328
G1 X122.951 Y128.768 E13.43248
G1 X122.049 Y128.544 E13.46339
G1 X120.642 Y127.944 E13.51427
G1 X119.982 Y127.443 E13.54183
G1 X119.512 Y126.919 E13.56524
G1 X119.11 Y126.092 E13.59582
G1 X119.007 Y125.315 E13.62189
G1 X119.004 Y120.458 E13.78344
G1 X114.997 Y120.458 E13.91671
G1 X114.997 Y125.643 E14.08916
G1 X114.754 Y126.663 E14.12404
G1 X114.274 Y127.374 E14.15257
G1 X113.822 Y127.808 E14.17341
G1 X113.607 Y127.947 E14.18193
G1 X113.819 Y128.439 E14.19975
G1 X113.987 Y129.208 E14.22593
G1 X113.777 Y131.407 E14.2994
G1 X113.522 Y132.198 E14.32704
G1 X113.058 Y132.905 E14.35517
G1 X112.87 Y133.106 E14.36432
G1 X112.211 Y133.543 E14.39062
G1 X111.384 Y133.865 E14.42014
G1 X110.596 Y133.902 E14.44638
G1 X106.987 Y133.571 E14.56692
G1 X106.209 Y133.307 E14.59424
G1 X105.505 Y132.847 E14.62221
G1 X105.304 Y132.659 E14.63137
G1 X104.868 Y132.003 E14.65756
G1 X104.659 Y131.459 E14.67695
G1 X104.035 Y131.603 E14.69825
G1 X103.298 Y131.621 E14.72277
G1 X102.463 Y131.405 E14.75145
G1 X101.54 Y131.002 E14.78495
G1 X100.485 Y130.465 E14.82432
G1 X99.449 Y129.876 E14.86396
G1 X98.173 Y129.024 E14.91499
G1 X97.214 Y128.308 E14.9548
G1 X96.299 Y127.553 E14.99425
G1 X95.359 Y126.651 E15.03758
G1 X94.781 Y126.057 E15.06515
G1 X94.246 Y125.456 E15.09191
G1 X93.687 Y124.785 E15.12096
G1 X93.062 Y123.973 E15.15504
G1 X92.285 Y122.843 E15.20065
G1 X91.62 Y121.7 E15.24463
G1 X91.166 Y120.848 E15.27674
G1 X90.618 Y119.672 E15.3199
G1 X89.942 Y117.911 E15.38264
G1 X89.813 Y117.459 E15.39827
G1 X89.69 Y116.562 E15.42838
G1 X89.887 Y115.602 E15.46098
G1 X89.991 Y115.386 E15.46895
G1 X89.343 Y115.045 E15.49331
G1 X89.123 Y114.876 E15.50253
G1 X88.625 Y114.258 E15.52893
G1 X88.229 Y113.462 E15.5585
G1 X88.115 Y112.683 E15.58469
G1 X88.11 Y109.167 E15.70163
G1 X88.292 Y108.277 E15.73184
G1 X88.69 Y107.522 E15.76023
G1 X88.859 Y107.302 E15.76946
G1 X89.477 Y106.804 E15.79586
G1 X90.011 Y106.539 E15.81568
G1 X89.818 Y106.033 E15.8337
G1 X89.693 Y105.216 E15.86118
G1 X89.853 Y104.325 E15.89129
G1 X90.319 Y102.995 E15.93817
G1 X90.608 Y102.279 E15.96385
G1 X91.09 Y101.232 E16.00218
G1 X91.484 Y100.458 E16.03107
G1 X91.991 Y99.566 E16.0652
G1 X92.636 Y98.557 E16.10503
G1 X93.325 Y97.592 E16.14446
G1 X94.01 Y96.718 E16.1814
G1 X94.891 Y95.741 E16.22515
G1 X95.466 Y95.155 E16.25246
M204 S2000
M205 X10 Y10
G0 F3000 X95.741 Y95.445
M204 S1000
M205 X8 Y8
G1 F2400 X96.357 Y94.86 E16.28071
G1 X97.175 Y94.159 E16.31654
G1 X98.033 Y93.485 E16.35283
G1 X98.943 Y92.843 E16.38987
G1 X99.97 Y92.19 E16.43035
G1 X101.057 Y91.602 E16.47146
G1 X102.018 Y91.137 E16.50697
G1 X102.786 Y90.811 E16.53472
G1 X103.825 Y90.412 E16.57173
G1 X104.718 Y90.125 E16.60293
G1 X105.598 Y90.073 E16.63225
G1 X106.431 Y90.314 E16.66109
G1 X106.819 Y90.563 E16.67643
G1 X106.922 Y90.139 E16.69094
G1 X107.266 Y89.486 E16.71549
G1 X107.369 Y89.361 E16.72087
G1 X107.915 Y88.921 E16.7442
G1 X108.615 Y88.573 E16.7702
G1 X109.332 Y88.468 E16.7943
G1 X112.75 Y88.467 E16.90798
G1 X113.546 Y88.63 E16.93501
G1 X114.25 Y89.001 E16.96147
G1 X114.375 Y89.104 E16.96686
G1 X114.815 Y89.65 E16.99018
G1 X115.135 Y90.294 E17.0141
G1 X115.193 Y90.547 E17.02274
G1 X115.627 Y90.303 E17.0393
G1 X116.08 Y90.144 E17.05526
G1 X116.758 Y90.068 E17.07796
G1 X117.383 Y90.151 E17.09893
G1 X118.528 Y90.543 E17.13918
G1 X119.311 Y90.845 E17.16709
G1 X120.238 Y91.249 E17.20072
G1 X121.345 Y91.815 E17.24208
G1 X122.19 Y92.296 E17.27442
G1 X123.161 Y92.916 E17.31273
G1 X124.067 Y93.558 E17.34967
G1 X124.92 Y94.231 E17.3858
G1 X125.669 Y94.88 E17.41877
G1 X126.325 Y95.508 E17.44897
G1 X126.885 Y96.085 E17.47571
G1 X127.454 Y96.72 E17.50407
G1 X128.147 Y97.566 E17.54045
G1 X128.794 Y98.439 E17.57659
G1 X129.581 Y99.619 E17.62376
G1 X130.18 Y100.673 E17.66408
G1 X130.715 Y101.751 E17.70411
G1 X131.237 Y102.946 E17.74748
G1 X131.63 Y104.03 E17.78583
G1 X131.812 Y104.652 E17.80739
G1 X131.9 Y105.344 E17.83059
G1 X131.737 Y106.118 E17.8569
G1 X131.482 Y106.655 E17.87667
G1 X131.391 Y106.776 E17.88171
G1 X131.818 Y106.88 E17.89632
G1 X132.471 Y107.224 E17.92087
G1 X132.596 Y107.327 E17.92626
G1 X133.036 Y107.873 E17.94958
G1 X133.384 Y108.573 E17.97558
G1 X133.489 Y109.29 E17.99968
G1 X133.49 Y112.707 E18.11333
G1 X133.327 Y113.503 E18.14036
G1 X132.956 Y114.207 E18.16683
G1 X132.853 Y114.332 E18.17221
G1 X132.307 Y114.772 E18.19554
G1 X131.663 Y115.092 E18.21945
G1 X131.392 Y115.152 E18.22869
G1 X131.592 Y115.46 E18.2409
G1 X131.788 Y115.943 E18.25824
G1 X131.903 Y116.698 E18.28364
G1 X131.751 Y117.528 E18.3117
G1 X131.324 Y118.732 E18.35419
G1 X130.886 Y119.788 E18.39222
G1 X130.551 Y120.505 E18.41854
G1 X130.168 Y121.253 E18.44649
G1 X129.649 Y122.169 E18.48151
