;FLAVOR:Marlin
;TIME:3562
;Filament used: 2.96036m
;Layer height: 0.2
;MINX:96.193
;MINY:67.539
;MINZ:0.2
;MAXX:125.807
;MAXY:154.423
;MAXZ:16.8
;TARGET_MACHINE.NAME:Anycubic Kobra
;Generated with Cura_SteamEngine 5.6.0
M140 S60
M105
M190 S60
M104 S200
M105
M109 S200
M82 ;absolute extrusion mode
G28 ;Home
G1 Z15.0 F1200 ;Move the platform down 15mm
;Prime the extruder
G92 E0
G1 F200 E3
G92 E0
G92 E0
G92 E0
G1 F2400 E-6
;LAYER_COUNT:84
;LAYER:0
M107
M204 S2000
M205 X10 Y10
G0 F3000 X101.72 Y69.97 Z0.2
M204 S1000
M205 X8 Y8
;TYPE:SKIRT
G1 F2400 E0
G1 X102.59 Y68.994 E0.04349
G1 X103.656 Y68.242 E0.08688
G1 X104.964 Y67.727 E0.13363
G1 X106.284 Y67.556 E0.1779
G1 X107.537 Y67.687 E0.2198
G1 X108.907 Y68.159 E0.268
G1 X110.031 Y68.935 E0.31343
G1 X110.862 Y69.822 E0.35385
G1 X110.977 Y70.013 E0.36127
G1 X112.002 Y68.889 E0.41186
G1 X113.086 Y68.209 E0.45442
G1 X114.065 Y67.771 E0.4901
G1 X115.604 Y67.539 E0.54186
G1 X117.035 Y67.733 E0.58989
G1 X118.173 Y68.154 E0.63025
G1 X119.307 Y68.897 E0.67534
G1 X120.24 Y69.928 E0.72159
G1 X120.957 Y71.281 E0.77252
G1 X121.174 Y72.573 E0.81609
G1 X121.197 Y73.586 E0.84979
G1 X120.946 Y74.8 E0.89102
G1 X120.359 Y76.011 E0.93579
G1 X119.525 Y77.014 E0.97917
G1 X118.544 Y77.746 E1.01988
G1 X117.546 Y78.201 E1.05636
G1 X116.609 Y78.487 E1.08895
G1 X115.303 Y78.542 E1.13242
G1 X114.183 Y78.329 E1.17034
G1 X113.281 Y78.03 E1.20195
G1 X112.082 Y77.295 E1.24872
G1 X110.984 Y76.094 E1.30285
G1 X110.22 Y77.015 E1.34265
G1 X109.24 Y77.746 E1.38331
G1 X108.242 Y78.201 E1.41979
G1 X107.305 Y78.487 E1.45238
G1 X105.999 Y78.542 E1.49585
G1 X104.879 Y78.329 E1.53377
G1 X103.977 Y78.03 E1.56538
G1 X102.771 Y77.291 E1.61242
G1 X101.687 Y76.119 E1.66552
G1 X101.03 Y74.762 E1.71566
G1 X100.74 Y73.054 E1.77329
G1 X101.032 Y71.311 E1.83207
G1 X101.72 Y69.97 E1.88219
M204 S2000
M205 X10 Y10
G0 F3000 X102.053 Y70.198
M204 S1000
M205 X8 Y8
G1 F2400 X102.858 Y69.295 E1.92243
G1 X103.849 Y68.596 E1.96277
G1 X105.063 Y68.118 E2.00616
G1 X106.29 Y67.959 E2.04731
G1 X107.452 Y68.08 E2.08617
G1 X108.725 Y68.519 E2.13096
G1 X109.766 Y69.238 E2.17304
G1 X110.57 Y70.096 E2.21214
G1 X111.002 Y70.913 E2.24288
G1 X111.352 Y70.196 E2.26942
G1 X112.26 Y69.2 E2.31425
G1 X113.299 Y68.548 E2.35504
G1 X114.178 Y68.159 E2.38702
G1 X115.61 Y67.943 E2.43518
G1 X116.936 Y68.123 E2.47969
G1 X117.994 Y68.514 E2.51721
G1 X119.043 Y69.202 E2.55893
G1 X119.911 Y70.161 E2.60195
G1 X120.573 Y71.41 E2.64897
G1 X120.774 Y72.582 E2.68852
G1 X120.796 Y73.549 E2.72069
G1 X120.564 Y74.672 E2.75883
G1 X120.022 Y75.79 E2.80015
G1 X119.247 Y76.722 E2.84047
G1 X118.337 Y77.401 E2.87823
G1 X117.429 Y77.818 E2.91146
G1 X116.541 Y78.089 E2.94234
G1 X115.33 Y78.14 E2.98266
G1 X114.309 Y77.949 E3.01721
G1 X113.449 Y77.664 E3.04734
G1 X112.339 Y76.983 E3.09065
G1 X111.295 Y75.849 E3.14192
G1 X111.002 Y75.205 E3.16545
G1 X110.717 Y75.79 E3.18709
G1 X109.944 Y76.722 E3.22737
G1 X109.033 Y77.401 E3.26516
G1 X108.125 Y77.818 E3.29839
G1 X107.237 Y78.089 E3.32927
G1 X106.026 Y78.14 E3.36958
G1 X105.005 Y77.949 E3.40413
G1 X104.145 Y77.664 E3.43427
G1 X103.029 Y76.98 E3.4778
G1 X102.02 Y75.889 E3.52723
G1 X101.414 Y74.638 E3.57346
G1 X101.146 Y73.056 E3.62683
G1 X101.417 Y71.438 E3.68139
G1 X102.053 Y70.198 E3.72774
M204 S2000
M205 X10 Y10
G0 F3000 X102.386 Y70.426
M204 S1000
M205 X8 Y8
G1 F2400 X103.126 Y69.596 E3.76473
G1 X104.043 Y68.949 E3.80205
G1 X105.161 Y68.509 E3.84202
G1 X106.295 Y68.362 E3.88005
G1 X107.367 Y68.474 E3.9159
G1 X108.543 Y68.879 E3.95727
G1 X109.503 Y69.542 E3.99607
G1 X110.242 Y70.331 E4.03203
G1 X110.884 Y71.543 E4.07764
G1 X110.998 Y72.172 E4.0989
G1 X111.123 Y71.576 E4.11916
G1 X111.684 Y70.427 E4.16169
G1 X112.521 Y69.509 E4.20301
G1 X113.461 Y68.914 E4.24001
G1 X114.29 Y68.547 E4.27016
G1 X115.616 Y68.347 E4.31476
G1 X116.837 Y68.513 E4.35575
G1 X117.811 Y68.873 E4.39028
G1 X118.781 Y69.509 E4.42886
G1 X119.582 Y70.394 E4.46856
G1 X120.189 Y71.539 E4.51167
G1 X120.374 Y72.591 E4.54719
G1 X120.395 Y73.512 E4.57783
G1 X120.182 Y74.542 E4.61282
G1 X119.683 Y75.571 E4.65085
G1 X118.969 Y76.43 E4.688
G1 X118.132 Y77.054 E4.72273
G1 X117.312 Y77.435 E4.7528
G1 X116.473 Y77.691 E4.78198
G1 X115.355 Y77.738 E4.8192
G1 X114.435 Y77.569 E4.85031
G1 X113.617 Y77.298 E4.87897
G1 X112.595 Y76.671 E4.91885
G1 X111.633 Y75.626 E4.96609
G1 X111.107 Y74.471 E5.0083
G1 X111.003 Y73.938 E5.02636
G1 X110.878 Y74.542 E5.04688
G1 X110.379 Y75.571 E5.08491
G1 X109.665 Y76.43 E5.12206
G1 X108.828 Y77.054 E5.15679
G1 X108.008 Y77.435 E5.18686
G1 X107.169 Y77.691 E5.21604
G1 X106.051 Y77.738 E5.25326
G1 X105.131 Y77.569 E5.28437
G1 X104.313 Y77.298 E5.31303
G1 X103.287 Y76.669 E5.35305
G1 X102.353 Y75.659 E5.39881
G1 X101.798 Y74.514 E5.44113
G1 X101.552 Y73.058 E5.49024
G1 X101.802 Y71.565 E5.54059
G1 X102.386 Y70.426 E5.58316
M204 S2000
M205 X10 Y10
G0 F3000 X102.718 Y70.655
M204 S1000
M205 X8 Y8
G1 F2400 X103.394 Y69.897 E5.61695
G1 X104.237 Y69.302 E5.65126
G1 X105.259 Y68.9 E5.68779
G1 X106.301 Y68.765 E5.72274
G1 X107.282 Y68.867 E5.75554
G1 X108.361 Y69.239 E5.7935
G1 X109.24 Y69.846 E5.82903
G1 X109.914 Y70.566 E5.86183
G1 X110.501 Y71.673 E5.90351
G1 X110.671 Y72.612 E5.93525
G1 X110.69 Y73.479 E5.96409
G1 X110.496 Y74.412 E5.99579
G1 X110.04 Y75.352 E6.03054
G1 X109.387 Y76.138 E6.06452
G1 X108.621 Y76.709 E6.0963
G1 X107.891 Y77.052 E6.12313
G1 X107.101 Y77.293 E6.1506
G1 X106.078 Y77.336 E6.18465
G1 X105.257 Y77.189 E6.21239
G1 X104.481 Y76.932 E6.23958
G1 X103.545 Y76.358 E6.2761
G1 X102.687 Y75.43 E6.31814
G1 X102.182 Y74.389 E6.35662
G1 X101.957 Y73.057 E6.40155
G1 X102.186 Y71.693 E6.44755
G1 X102.718 Y70.655 E6.48635
M204 S2000
M205 X10 Y10
G0 F3000 X103.051 Y70.883
M204 S1000
M205 X8 Y8
G1 F2400 X103.663 Y70.196 E6.51695
G1 X104.429 Y69.656 E6.54812
G1 X105.357 Y69.291 E6.58129
G1 X106.306 Y69.168 E6.61311
G1 X107.197 Y69.261 E6.64291
G1 X108.179 Y69.599 E6.67745
G1 X108.975 Y70.149 E6.70963
G1 X109.588 Y70.803 E6.73945
G1 X110.118 Y71.803 E6.77709
G1 X110.277 Y72.683 E6.80683
G1 X110.289 Y73.441 E6.83205
G1 X110.114 Y74.282 E6.86062
G1 X109.701 Y75.133 E6.89208
G1 X109.109 Y75.846 E6.9229
G1 X108.413 Y76.365 E6.95178
G1 X107.774 Y76.669 E6.97531
G1 X107.033 Y76.895 E7.00108
G1 X106.104 Y76.934 E7.03201
G1 X105.327 Y76.795 E7.05826
G1 X104.65 Y76.567 E7.08202
G1 X103.803 Y76.047 E7.11508
G1 X103.021 Y75.201 E7.15339
G1 X102.566 Y74.264 E7.18804
G1 X102.362 Y73.056 E7.22879
G1 X102.569 Y71.823 E7.27037
G1 X103.051 Y70.883 E7.3055
M204 S2000
M205 X10 Y10
G0 F3000 X103.384 Y71.111
M204 S1000
M205 X8 Y8
G1 F2400 X103.931 Y70.497 E7.33286
G1 X104.623 Y70.009 E7.36102
G1 X105.455 Y69.682 E7.39075
G1 X106.311 Y69.571 E7.41946
G1 X107.112 Y69.655 E7.44625
G1 X107.997 Y69.959 E7.47737
G1 X108.712 Y70.453 E7.50628
G1 X109.26 Y71.038 E7.53294
G1 X109.735 Y71.934 E7.56667
G1 X109.877 Y72.689 E7.59222
G1 X109.888 Y73.402 E7.61594
G1 X109.732 Y74.152 E7.64142
G1 X109.362 Y74.914 E7.66959
G1 X108.828 Y75.557 E7.69739
G1 X108.208 Y76.02 E7.72313
G1 X107.657 Y76.286 E7.74348
G1 X106.965 Y76.497 E7.76754
G1 X106.129 Y76.532 E7.79537
G1 X105.455 Y76.416 E7.81811
G1 X104.82 Y76.202 E7.8404
G1 X104.059 Y75.735 E7.8701
G1 X103.356 Y74.974 E7.90456
G1 X102.95 Y74.139 E7.93544
G1 X102.767 Y73.055 E7.972
G1 X102.952 Y71.953 E8.00917
G1 X103.384 Y71.111 E8.04064
M204 S2000
M205 X10 Y10
G0 F3000 X103.717 Y71.339
M204 S1000
M205 X8 Y8
G1 F2400 X104.199 Y70.798 E8.06474
G1 X104.817 Y70.362 E8.0899
G1 X105.553 Y70.073 E8.1162
G1 X106.317 Y69.974 E8.14182
G1 X107.027 Y70.048 E8.16556
G1 X107.815 Y70.319 E8.19328
G1 X108.449 Y70.757 E8.21891
G1 X108.931 Y71.272 E8.24237
G1 X109.354 Y72.069 E8.27238
G1 X109.477 Y72.695 E8.2936
G1 X109.487 Y73.363 E8.31582
G1 X109.35 Y74.022 E8.33821
G1 X109.022 Y74.697 E8.36317
G1 X108.552 Y75.264 E8.38766
G1 X108 Y75.676 E8.41057
G1 X107.54 Y75.903 E8.42763
G1 X106.897 Y76.099 E8.44999
G1 X106.154 Y76.13 E8.47472
G1 X105.583 Y76.037 E8.49397
G1 X104.99 Y75.837 E8.51478
G1 X104.315 Y75.423 E8.54112
G1 X103.691 Y74.747 E8.57172
G1 X103.334 Y74.014 E8.59883
G1 X103.172 Y73.054 E8.63121
G1 X103.335 Y72.083 E8.66396
G1 X103.717 Y71.339 E8.69178
M204 S2000
M205 X10 Y10
G0 F3000 X104.05 Y71.567
M204 S1000
M205 X8 Y8
G1 F2400 X104.467 Y71.099 E8.71263
G1 X105.011 Y70.715 E8.73477
G1 X105.651 Y70.464 E8.75764
G1 X106.323 Y70.377 E8.78018
G1 X106.942 Y70.441 E8.80087
G1 X107.633 Y70.679 E8.82518
G1 X108.184 Y71.06 E8.84746
G1 X108.605 Y71.509 E8.86793
G1 X108.972 Y72.201 E8.89399
G1 X109.084 Y72.772 E8.91334
G1 X109.086 Y73.323 E8.93167
G1 X108.968 Y73.892 E8.95099
G1 X108.682 Y74.48 E8.97274
G1 X108.275 Y74.971 E8.99395
G1 X107.819 Y75.319 E9.01303
G1 X107.423 Y75.52 E9.0278
G1 X106.829 Y75.701 E9.04846
G1 X106.137 Y75.73 E9.07149
G1 X105.711 Y75.658 E9.08586
G1 X105.16 Y75.472 E9.10521
G1 X104.571 Y75.111 E9.12818
G1 X104.026 Y74.52 E9.15492
G1 X103.718 Y73.888 E9.1783
G1 X103.577 Y73.053 E9.20647
G1 X103.718 Y72.213 E9.2348
G1 X104.05 Y71.567 E9.25896
M204 S2000
M205 X10 Y10
G0 F3000 X104.716 Y72.023
M204 S1000
M205 X8 Y8
G1 F2400 X105.034 Y71.666 E9.27486
G1 X105.429 Y71.399 E9.29072
G1 X105.887 Y71.231 E9.30694
G1 X106.372 Y71.178 E9.32317
G1 X106.809 Y71.231 E9.33781
G1 X107.267 Y71.399 E9.35404
G1 X107.695 Y71.695 E9.37134
G1 X107.948 Y71.978 E9.38397
G1 X108.209 Y72.469 E9.40246
G1 X108.291 Y72.845 E9.41526
G1 X108.286 Y73.315 E9.4309
G1 X108.199 Y73.663 E9.44283
G1 X107.986 Y74.081 E9.45843
G1 X107.75 Y74.364 E9.47069
G1 X107.385 Y74.65 E9.48611
G1 X107.189 Y74.754 E9.49349
G1 X106.69 Y74.906 E9.51084
G1 X106.215 Y74.931 E9.52666
G1 X105.958 Y74.897 E9.53528
G1 X105.539 Y74.766 E9.54988
G1 X105.083 Y74.487 E9.56766
G1 X104.695 Y74.065 E9.58673
G1 X104.486 Y73.638 E9.60254
G1 X104.388 Y73.055 E9.62221
G1 X104.486 Y72.47 E9.64193
G1 X104.716 Y72.023 E9.65865
M204 S2000
M205 X10 Y10
G0 F3000 X104.383 Y71.795
M204 S1000
M205 X8 Y8
G1 F2400 X104.735 Y71.4 E9.67625
G1 X105.205 Y71.068 E9.69539
G1 X105.749 Y70.855 E9.71482
G1 X106.329 Y70.78 E9.73427
G1 X106.857 Y70.834 E9.75193
G1 X107.449 Y71.038 E9.77275
G1 X107.923 Y71.366 E9.79192
G1 X108.276 Y71.743 E9.8091
G1 X108.59 Y72.334 E9.83136
G1 X108.691 Y72.849 E9.84882
G1 X108.686 Y73.319 E9.86445
G1 X108.587 Y73.76 E9.87948
G1 X108.342 Y74.263 E9.89809
G1 X107.997 Y74.679 E9.91607
G1 X107.632 Y74.965 E9.93149
G1 X107.306 Y75.137 E9.94375
G1 X106.761 Y75.303 E9.9627
G1 X106.163 Y75.328 E9.9826
G1 X105.839 Y75.279 E9.9935
G1 X105.33 Y75.107 E10.01137
G1 X104.827 Y74.799 E10.03099
G1 X104.361 Y74.293 E10.05387
G1 X104.102 Y73.762 E10.07352
G1 X103.982 Y73.052 E10.09747
G1 X104.101 Y72.343 E10.12138
G1 X104.383 Y71.795 E10.14188
M204 S2000
M205 X10 Y10
G1 F2400 E4.14188
G0 F3000 X104.335 Y71.754
G0 X105.191 Y70.993
G0 X106.348 Y70.707
G0 X111.711 Y72.671
M204 S1000
M205 X8 Y8
G1 F2400 E10.14188
G1 X111.886 Y71.834 E10.17032
G1 X112.35 Y70.885 E10.20545
G1 X113.043 Y70.125 E10.23966
G1 X113.785 Y69.646 E10.26904
G1 X114.514 Y69.323 E10.29556
G1 X115.628 Y69.155 E10.33303
G1 X116.639 Y69.293 E10.36697
G1 X117.445 Y69.591 E10.39555
G1 X118.257 Y70.123 E10.42783
G1 X118.923 Y70.859 E10.46085
G1 X119.423 Y71.801 E10.49632
G1 X119.574 Y72.609 E10.52366
G1 X119.593 Y73.438 E10.55124
G1 X119.418 Y74.282 E10.57991
G1 X119.005 Y75.133 E10.61137
G1 X118.413 Y75.846 E10.64219
G1 X117.717 Y76.365 E10.67107
G1 X117.078 Y76.669 E10.6946
G1 X116.337 Y76.895 E10.72037
G1 X115.408 Y76.934 E10.7513
G1 X114.631 Y76.795 E10.77755
G1 X113.954 Y76.567 E10.80131
G1 X113.107 Y76.047 E10.83437
G1 X112.309 Y75.18 E10.87356
G1 X111.857 Y74.187 E10.90985
G1 X111.723 Y73.428 E10.93548
G1 X111.711 Y72.671 E10.96066
M204 S2000
M205 X10 Y10
G1 F2400 E4.96066
G0 F3000 X112.684 Y71.112
M204 S1000
M205 X8 Y8
G1 F2400 E10.96066
G1 X113.303 Y70.434 E10.9912
G1 X113.947 Y70.012 E11.01681
G1 X114.626 Y69.711 E11.04151
G1 X115.634 Y69.559 E11.07541
G1 X116.54 Y69.683 E11.10583
G1 X117.262 Y69.95 E11.13143
G1 X117.995 Y70.43 E11.16057
G1 X118.593 Y71.091 E11.19022
G1 X119.04 Y71.933 E11.22193
G1 X119.174 Y72.618 E11.24514
G1 X119.192 Y73.401 E11.27119
G1 X119.036 Y74.152 E11.2967
G1 X118.666 Y74.914 E11.32488
G1 X118.132 Y75.557 E11.35268
G1 X117.512 Y76.02 E11.37841
G1 X116.961 Y76.286 E11.39876
G1 X116.269 Y76.497 E11.42283
G1 X115.433 Y76.532 E11.45066
G1 X114.759 Y76.416 E11.4734
G1 X114.124 Y76.202 E11.49569
G1 X113.363 Y75.735 E11.52539
G1 X112.647 Y74.957 E11.56055
G1 X112.241 Y74.066 E11.59312
G1 X112.123 Y73.422 E11.6149
G1 X112.112 Y72.711 E11.63855
G1 X112.268 Y71.962 E11.66399
G1 X112.684 Y71.112 E11.69547
M204 S2000
M205 X10 Y10
G0 F3000 X113.017 Y71.342
M204 S1000
M205 X8 Y8
G1 F2400 X113.566 Y70.74 E11.72257
G1 X114.109 Y70.378 E11.74427
G1 X114.738 Y70.099 E11.76716
G1 X115.64 Y69.963 E11.7975
G1 X116.441 Y70.073 E11.82439
G1 X117.083 Y70.31 E11.84715
G1 X117.731 Y70.735 E11.87293
G1 X118.263 Y71.323 E11.8993
G1 X118.658 Y72.066 E11.92729
G1 X118.781 Y72.695 E11.9486
G1 X118.791 Y73.363 E11.97082
G1 X118.654 Y74.022 E11.99321
G1 X118.326 Y74.697 E12.01817
G1 X117.856 Y75.264 E12.04267
G1 X117.304 Y75.676 E12.06558
G1 X116.844 Y75.903 E12.08264
G1 X116.201 Y76.099 E12.105
G1 X115.458 Y76.13 E12.12973
G1 X114.887 Y76.037 E12.14897
G1 X114.294 Y75.837 E12.16979
G1 X113.619 Y75.423 E12.19612
G1 X112.985 Y74.734 E12.22727
G1 X112.626 Y73.946 E12.25607
G1 X112.523 Y73.416 E12.27402
G1 X112.513 Y72.75 E12.29618
G1 X112.65 Y72.091 E12.31856
G1 X113.017 Y71.342 E12.34631
M204 S2000
M205 X10 Y10
G0 F3000 X113.351 Y71.57
M204 S1000
M205 X8 Y8
G1 F2400 X113.828 Y71.046 E12.36987
G1 X114.271 Y70.744 E12.38771
G1 X114.85 Y70.487 E12.40878
G1 X115.645 Y70.367 E12.43552
G1 X116.343 Y70.463 E12.45895
G1 X116.9 Y70.669 E12.4787
G1 X117.469 Y71.042 E12.50133
G1 X117.933 Y71.555 E12.52434
G1 X118.276 Y72.2 E12.54864
G1 X118.388 Y72.772 E12.56802
G1 X118.39 Y73.323 E12.58635
G1 X118.272 Y73.892 E12.60568
G1 X117.986 Y74.48 E12.62742
G1 X117.579 Y74.971 E12.64864
G1 X117.123 Y75.319 E12.66771
G1 X116.727 Y75.52 E12.68249
G1 X116.133 Y75.701 E12.70314
G1 X115.441 Y75.73 E12.72618
G1 X115.015 Y75.658 E12.74054
G1 X114.464 Y75.472 E12.75989
G1 X113.875 Y75.111 E12.78286
G1 X113.323 Y74.511 E12.80998
G1 X113.01 Y73.824 E12.83509
G1 X112.916 Y73.34 E12.85149
G1 X112.914 Y72.79 E12.86978
G1 X113.032 Y72.22 E12.88914
G1 X113.351 Y71.57 E12.91322
M204 S2000
M205 X10 Y10
G0 F3000 X114.02 Y72.023
M204 S1000
M205 X8 Y8
G1 F2400 X114.33 Y71.671 E12.92883
G1 X114.595 Y71.476 E12.93977
G1 X115.078 Y71.262 E12.95734
G1 X115.652 Y71.175 E12.97665
G1 X116.114 Y71.231 E12.99213
G1 X116.507 Y71.367 E13.00596
G1 X116.916 Y71.623 E13.02201
G1 X117.25 Y71.975 E13.03815
G1 X117.513 Y72.469 E13.05676
G1 X117.595 Y72.845 E13.06956
G1 X117.59 Y73.315 E13.08519
G1 X117.503 Y73.663 E13.09712
G1 X117.29 Y74.081 E13.11273
G1 X117.054 Y74.364 E13.12498
G1 X116.689 Y74.65 E13.14041
G1 X116.493 Y74.754 E13.14779
G1 X115.994 Y74.906 E13.16514
G1 X115.519 Y74.931 E13.18096
G1 X115.262 Y74.897 E13.18958
G1 X114.843 Y74.766 E13.20418
G1 X114.387 Y74.487 E13.22196
G1 X113.998 Y74.064 E13.24107
G1 X113.785 Y73.617 E13.25754
G1 X113.709 Y73.268 E13.26942
G1 X113.714 Y72.798 E13.28506
G1 X113.801 Y72.449 E13.29702
G1 X114.02 Y72.023 E13.31295
M204 S2000
M205 X10 Y10
G0 F3000 X113.685 Y71.798
M204 S1000
M205 X8 Y8
G1 F2400 X114.093 Y71.349 E13.33313
G1 X114.433 Y71.11 E13.34695
G1 X114.962 Y70.875 E13.3662
G1 X115.65 Y70.771 E13.38935
G1 X116.245 Y70.853 E13.40932
G1 X116.719 Y71.028 E13.42613
G1 X117.206 Y71.348 E13.44551
G1 X117.603 Y71.787 E13.4652
G1 X117.894 Y72.334 E13.48581
G1 X117.995 Y72.849 E13.50326
G1 X117.99 Y73.319 E13.51889
G1 X117.891 Y73.76 E13.53393
G1 X117.646 Y74.263 E13.55254
G1 X117.301 Y74.679 E13.57051
G1 X116.936 Y74.965 E13.58593
G1 X116.61 Y75.137 E13.59819
G1 X116.065 Y75.303 E13.61714
G1 X115.467 Y75.328 E13.63705
G1 X115.143 Y75.279 E13.64795
G1 X114.634 Y75.107 E13.66582
G1 X114.131 Y74.799 E13.68543
G1 X113.661 Y74.288 E13.70853
G1 X113.394 Y73.702 E13.72994
G1 X113.309 Y73.264 E13.74478
G1 X113.314 Y72.794 E13.76042
G1 X113.413 Y72.352 E13.77548
G1 X113.685 Y71.798 E13.79601
M204 S2000
M205 X10 Y10
G1 F2400 E7.79601
