;FLAVOR:Marlin
;TIME:8785
;Filament used: 7.24986m
;Layer height: 0.2
;MINX:86.373
;MINY:83.735
;MINZ:0.1
;MAXX:134.966
;MAXY:140.732
;MAXZ:45.4
;TARGET_MACHINE.NAME:Anycubic Kobra
;Generated with Cura_SteamEngine 5.6.0
M140 S60
M105
M190 S60
M104 S200
M105
M109 S200
M82 ;absolute extrusion mode
G28 ;Home
G1 Z15.0 F1200 ;Move the platform down 15mm
;Prime the extruder
G92 E0
G1 F200 E3
G92 E0
G92 E0
G92 E0
G1 F2400 E-6
;LAYER_COUNT:227
;LAYER:0
M107
M204 S2000
M205 X10 Y10
G0 F3000 X89.708 Y85.272 Z0.2
M204 S1000
M205 X8 Y8
;TYPE:SKIRT
G1 F2400 E0
G1 X90.717 Y84.597 E0.04038
G1 X93.531 Y83.812 E0.13754
G1 X94.823 Y83.735 E0.18059
G1 X97.65 Y84.528 E0.27825
G1 X98.774 Y85.124 E0.32056
G1 X100.873 Y87.341 E0.42211
G1 X101.406 Y88.245 E0.45701
G1 X101.761 Y89.468 E0.49937
G1 X102.382 Y89.432 E0.52006
G1 X105.629 Y90.342 E0.63221
G1 X106.76 Y90.942 E0.6748
G1 X109.168 Y93.486 E0.7913
G1 X109.697 Y94.382 E0.82591
G1 X110.578 Y97.415 E0.93096
G1 X110.66 Y98.736 E0.97498
G1 X109.741 Y102.015 E1.08824
G1 X109.642 Y102.218 E1.09575
G1 X112.17 Y102.218 E1.17984
G1 X112.037 Y101.97 E1.1892
G1 X111.182 Y99.037 E1.29081
G1 X111.101 Y97.69 E1.33569
G1 X112.039 Y94.474 E1.44711
G1 X112.549 Y93.532 E1.48274
G1 X114.902 Y91.046 E1.59659
G1 X116.002 Y90.379 E1.63937
G1 X118.011 Y89.821 E1.70872
G1 X118.098 Y89.578 E1.71731
G1 X118.548 Y88.747 E1.74874
G1 X120.559 Y86.623 E1.84603
G1 X121.566 Y85.95 E1.88631
G1 X124.38 Y85.165 E1.98348
G1 X125.672 Y85.088 E2.02653
G1 X128.499 Y85.881 E2.12418
G1 X129.623 Y86.477 E2.1665
G1 X131.724 Y88.697 E2.26816
G1 X132.253 Y89.594 E2.30279
G1 X133.015 Y92.22 E2.39374
G1 X133.099 Y93.528 E2.43733
G1 X132.286 Y96.438 E2.53782
G1 X131.726 Y97.461 E2.57661
G1 X130.222 Y98.965 E2.64736
G1 X130.29 Y100.032 E2.68292
G1 X129.538 Y102.729 E2.77604
G1 X129.033 Y103.65 E2.81098
G1 X128.823 Y103.891 E2.82161
G1 X129.294 Y104.902 E2.85871
G1 X129.415 Y105.82 E2.8895
G1 X129.422 Y119.793 E3.35425
G1 X130.359 Y120.193 E3.38813
G1 X131.169 Y120.843 E3.42268
G1 X131.966 Y121.687 E3.46128
G1 X132.503 Y122.593 E3.49631
G1 X133.207 Y125.012 E3.58011
G1 X133.282 Y126.121 E3.61708
G1 X133.229 Y126.464 E3.62862
G1 X133.614 Y126.885 E3.6476
G1 X134.121 Y127.74 E3.68066
G1 X134.882 Y130.367 E3.77162
G1 X134.966 Y131.675 E3.81522
G1 X134.153 Y134.585 E3.91571
G1 X133.593 Y135.608 E3.9545
G1 X131.553 Y137.648 E4.05046
G1 X130.543 Y138.271 E4.08993
G1 X127.808 Y139.041 E4.18443
G1 X126.478 Y139.111 E4.22873
G1 X123.642 Y138.282 E4.327
G1 X122.597 Y137.664 E4.36738
G1 X120.536 Y135.603 E4.46432
G1 X119.919 Y134.559 E4.50466
G1 X119.206 Y132.113 E4.5894
G1 X119.169 Y131.819 E4.59925
G1 X117.391 Y130.049 E4.6827
G1 X116.774 Y129.005 E4.72303
G1 X116.084 Y126.637 E4.80507
G1 X116.003 Y125.29 E4.84995
G1 X116.274 Y124.363 E4.88207
G1 X103.381 Y124.363 E5.31089
G1 X103.667 Y125.341 E5.34478
G1 X103.757 Y126.662 E5.38882
G1 X103.388 Y127.964 E5.43383
G1 X103.806 Y128.406 E5.45407
G1 X104.369 Y129.395 E5.49192
G1 X105.118 Y131.959 E5.58076
G1 X105.202 Y133.271 E5.62449
G1 X104.387 Y136.193 E5.72538
G1 X103.826 Y137.216 E5.76419
G1 X101.776 Y139.266 E5.86061
G1 X100.766 Y139.889 E5.90008
G1 X98.02 Y140.662 E5.99497
G1 X96.69 Y140.732 E6.03926
G1 X93.843 Y139.899 E6.13792
G1 X92.798 Y139.281 E6.1783
G1 X90.728 Y137.211 E6.27567
G1 X90.111 Y136.167 E6.316
G1 X89.358 Y133.584 E6.40549
G1 X89.277 Y132.237 E6.45037
G1 X89.728 Y130.695 E6.50381
G1 X89.496 Y130.437 E6.51535
G1 X88.931 Y129.481 E6.55228
G1 X88.199 Y126.968 E6.63934
G1 X88.118 Y125.617 E6.68436
G1 X88.983 Y122.718 E6.78498
G1 X89.388 Y121.858 E6.81659
G1 X90.87 Y120.297 E6.88819
G1 X91.798 Y119.757 E6.9239
G1 X92.547 Y119.514 E6.95009
G1 X92.547 Y105.641 E7.4115
G1 X92.846 Y104.387 E7.45438
G1 X93.429 Y103.521 E7.4891
G1 X93.762 Y103.189 E7.50474
G1 X93.074 Y100.832 E7.58641
G1 X93.157 Y99.433 E7.63302
G1 X90.926 Y98.782 E7.71032
G1 X89.881 Y98.164 E7.7507
G1 X87.82 Y96.103 E7.84764
G1 X87.203 Y95.059 E7.88798
G1 X86.454 Y92.487 E7.97708
G1 X86.373 Y91.14 E8.02196
G1 X87.19 Y88.335 E8.11913
G1 X87.7 Y87.393 E8.15476
G1 X89.708 Y85.272 E8.2519
M204 S2000
M205 X10 Y10
G0 F3000 X89.968 Y85.579
M204 S1000
M205 X8 Y8
G1 F2400 X90.887 Y84.965 E8.28866
G1 X93.598 Y84.208 E8.38228
G1 X94.779 Y84.138 E8.42163
G1 X97.502 Y84.902 E8.51569
G1 X98.528 Y85.446 E8.55432
G1 X100.552 Y87.584 E8.65224
G1 X101.036 Y88.404 E8.68391
G1 X101.466 Y89.886 E8.73523
G1 X102.338 Y89.835 E8.76429
G1 X105.481 Y90.716 E8.87285
G1 X106.514 Y91.264 E8.91174
G1 X108.845 Y93.726 E9.02451
G1 X109.327 Y94.543 E9.05606
G1 X110.182 Y97.485 E9.15796
G1 X110.257 Y98.693 E9.19822
G1 X109.356 Y101.907 E9.30924
G1 X108.968 Y102.618 E9.33618
G1 X112.87 Y102.618 E9.46596
G1 X112.421 Y101.858 E9.49532
G1 X111.578 Y98.967 E9.59548
G1 X111.504 Y97.736 E9.63649
G1 X112.411 Y94.627 E9.74421
G1 X112.875 Y93.77 E9.77662
G1 X115.157 Y91.359 E9.88704
G1 X116.163 Y90.749 E9.92617
G1 X118.324 Y90.149 E10.00076
G1 X118.45 Y89.768 E10.01411
G1 X118.875 Y88.983 E10.0438
G1 X120.817 Y86.932 E10.13774
G1 X121.736 Y86.318 E10.1745
G1 X124.447 Y85.561 E10.26812
G1 X125.628 Y85.491 E10.30747
G1 X128.351 Y86.255 E10.40153
G1 X129.377 Y86.799 E10.44016
G1 X131.401 Y88.937 E10.53808
G1 X131.884 Y89.756 E10.5697
G1 X132.619 Y92.289 E10.65743
G1 X132.696 Y93.486 E10.69732
G1 X131.913 Y96.285 E10.79399
G1 X131.403 Y97.218 E10.82936
G1 X129.812 Y98.809 E10.90419
G1 X129.887 Y99.99 E10.94355
G1 X129.165 Y102.576 E11.03285
G1 X128.682 Y103.458 E11.0663
G1 X128.289 Y103.874 E11.08533
G1 X128.526 Y104.202 E11.09879
G1 X128.905 Y105.015 E11.12862
G1 X129.018 Y105.872 E11.15738
G1 X129.022 Y120.144 E11.63206
G1 X129.378 Y120.209 E11.6441
G1 X130.152 Y120.54 E11.6721
G1 X130.878 Y121.118 E11.70296
G1 X131.646 Y121.931 E11.74016
G1 X132.133 Y122.753 E11.77194
G1 X132.811 Y125.083 E11.85265
G1 X132.883 Y126.148 E11.88815
G1 X132.797 Y126.589 E11.9031
G1 X133.27 Y127.089 E11.92599
G1 X133.751 Y127.901 E11.95738
G1 X134.486 Y130.436 E12.04517
G1 X134.563 Y131.633 E12.08506
G1 X133.78 Y134.432 E12.18173
G1 X133.27 Y135.365 E12.21709
G1 X131.301 Y137.334 E12.30971
G1 X130.382 Y137.901 E12.34563
G1 X127.741 Y138.644 E12.43688
G1 X126.526 Y138.708 E12.47734
G1 X123.802 Y137.912 E12.57173
G1 X122.845 Y137.346 E12.60871
G1 X120.854 Y135.355 E12.70236
G1 X120.289 Y134.399 E12.7393
G1 X119.59 Y132.001 E12.82238
G1 X119.549 Y131.603 E12.83568
G1 X119.399 Y131.491 E12.84191
G1 X117.709 Y129.801 E12.9214
G1 X117.144 Y128.845 E12.95834
G1 X116.48 Y126.567 E13.03726
G1 X116.406 Y125.336 E13.07827
G1 X116.808 Y123.963 E13.12586
G1 X102.848 Y123.963 E13.59017
G1 X103.271 Y125.412 E13.64037
G1 X103.353 Y126.619 E13.68061
G1 X102.941 Y128.074 E13.73091
G1 X103.482 Y128.646 E13.75709
G1 X103.999 Y129.554 E13.79185
G1 X104.722 Y132.029 E13.87761
G1 X104.799 Y133.229 E13.9176
G1 X104.014 Y136.04 E14.01467
G1 X103.503 Y136.973 E14.05005
G1 X101.524 Y138.952 E14.14314
G1 X100.605 Y139.519 E14.17905
G1 X97.953 Y140.265 E14.27068
G1 X96.738 Y140.329 E14.31115
G1 X94.003 Y139.529 E14.40593
G1 X93.046 Y138.963 E14.44291
G1 X91.046 Y136.963 E14.53698
G1 X90.481 Y136.007 E14.57392
G1 X89.754 Y133.514 E14.66029
G1 X89.68 Y132.283 E14.70131
G1 X90.176 Y130.587 E14.76008
G1 X89.84 Y130.233 E14.77631
G1 X89.301 Y129.321 E14.81155
G1 X88.595 Y126.898 E14.89549
G1 X88.521 Y125.663 E14.93664
G1 X89.345 Y122.889 E15.03288
G1 X89.724 Y122.085 E15.06245
G1 X91.119 Y120.615 E15.12985
G1 X91.964 Y120.123 E15.16237
G1 X92.652 Y119.898 E15.18645
G1 X92.947 Y119.863 E15.19633
G1 X92.947 Y105.688 E15.66779
G1 X93.218 Y104.55 E15.7067
G1 X93.761 Y103.744 E15.73902
G1 X94.214 Y103.31 E15.75989
G1 X93.477 Y100.786 E15.84734
G1 X93.551 Y99.542 E15.88879
G1 X93.64 Y99.24 E15.89926
G1 X93.618 Y99.151 E15.90231
G1 X91.086 Y98.412 E15.99004
G1 X90.129 Y97.846 E16.02702
G1 X88.138 Y95.855 E16.12067
G1 X87.573 Y94.899 E16.15761
G1 X86.85 Y92.417 E16.24359
G1 X86.776 Y91.186 E16.28461
G1 X87.562 Y88.488 E16.37807
G1 X88.026 Y87.631 E16.41049
G1 X89.968 Y85.579 E16.50445
M204 S2000
M205 X10 Y10
G0 F3000 X90.226 Y85.888
M204 S1000
M205 X8 Y8
G1 F2400 X91.058 Y85.332 E16.53774
G1 X93.664 Y84.605 E16.62772
G1 X94.735 Y84.541 E16.66341
G1 X97.354 Y85.276 E16.75388
G1 X98.282 Y85.768 E16.78882
G1 X100.231 Y87.827 E16.88311
G1 X100.665 Y88.562 E16.9115
G1 X101.171 Y90.304 E16.97184
G1 X102.294 Y90.238 E17.00925
G1 X105.333 Y91.09 E17.11423
G1 X106.268 Y91.586 E17.14943
G1 X108.524 Y93.969 E17.25857
G1 X108.956 Y94.701 E17.28684
G1 X109.786 Y97.555 E17.3857
G1 X109.854 Y98.65 E17.42219
G1 X108.984 Y101.754 E17.52941
G1 X108.524 Y102.597 E17.56135
G1 X108.103 Y103.018 E17.58115
G1 X113.756 Y103.018 E17.76917
G1 X113.304 Y102.566 E17.79043
G1 X112.791 Y101.698 E17.82397
G1 X111.974 Y98.897 E17.92101
G1 X111.907 Y97.782 E17.95816
G1 X112.783 Y94.78 E18.06217
G1 X113.202 Y94.005 E18.09148
G1 X115.41 Y91.673 E18.19829
G1 X116.324 Y91.119 E18.23384
G1 X118.642 Y90.476 E18.31385
G1 X118.802 Y89.958 E18.33188
G1 X119.202 Y89.219 E18.35983
G1 X121.075 Y87.241 E18.45043
G1 X121.907 Y86.685 E18.48371
G1 X124.513 Y85.958 E18.5737
G1 X125.584 Y85.894 E18.60938
G1 X128.203 Y86.629 E18.69986
G1 X129.131 Y87.121 E18.73479
G1 X131.08 Y89.18 E18.82909
G1 X131.514 Y89.915 E18.85748
G1 X132.223 Y92.358 E18.94209
G1 X132.293 Y93.444 E18.97828
G1 X131.541 Y96.132 E19.07112
G1 X131.08 Y96.975 E19.10308
G1 X129.36 Y98.695 E19.18398
G1 X129.42 Y98.949 E19.19266
G1 X129.484 Y99.948 E19.22596
G1 X128.792 Y102.423 E19.31143
G1 X128.331 Y103.266 E19.34339
G1 X127.759 Y103.838 E19.37029
G1 X128.163 Y104.371 E19.39254
G1 X128.516 Y105.128 E19.42032
G1 X128.621 Y105.924 E19.44702
G1 X128.622 Y120.49 E19.93149
G1 X129.221 Y120.577 E19.95162
G1 X129.945 Y120.887 E19.97782
G1 X130.587 Y121.393 E20.00501
G1 X131.326 Y122.175 E20.04079
G1 X131.763 Y122.913 E20.06932
G1 X132.415 Y125.154 E20.14694
G1 X132.484 Y126.175 E20.18098
G1 X132.358 Y126.707 E20.19916
G1 X132.948 Y127.33 E20.2277
G1 X133.381 Y128.062 E20.25599
G1 X134.09 Y130.505 E20.3406
G1 X134.16 Y131.591 E20.37679
G1 X133.408 Y134.279 E20.46963
G1 X132.947 Y135.122 E20.50159
G1 X131.049 Y137.02 E20.59086
G1 X130.221 Y137.531 E20.62322
G1 X127.674 Y138.247 E20.71122
G1 X126.574 Y138.305 E20.74786
G1 X123.962 Y137.542 E20.83836
G1 X123.093 Y137.028 E20.87194
G1 X121.172 Y135.107 E20.9623
G1 X120.659 Y134.239 E20.99584
G1 X119.974 Y131.889 E21.07725
G1 X119.933 Y131.382 E21.09417
G1 X119.682 Y131.208 E21.10433
G1 X118.027 Y129.553 E21.18217
G1 X117.514 Y128.685 E21.21571
G1 X116.876 Y126.497 E21.29151
G1 X116.809 Y125.382 E21.32866
G1 X117.342 Y123.563 E21.39171
G1 X102.314 Y123.563 E21.89154
G1 X102.875 Y125.483 E21.95807
G1 X102.949 Y126.576 E21.99451
G1 X102.494 Y128.184 E22.05009
G1 X103.158 Y128.886 E22.08223
G1 X103.629 Y129.713 E22.11388
G1 X104.326 Y132.099 E22.19656
G1 X104.396 Y133.187 E22.23282
G1 X103.641 Y135.887 E22.32607
G1 X103.18 Y136.73 E22.35802
G1 X101.272 Y138.638 E22.44777
G1 X100.444 Y139.149 E22.48013
G1 X97.886 Y139.868 E22.56851
G1 X96.786 Y139.926 E22.60515
G1 X94.163 Y139.159 E22.69604
G1 X93.294 Y138.645 E22.72962
G1 X91.364 Y136.715 E22.8204
G1 X90.851 Y135.847 E22.85394
G1 X90.15 Y133.444 E22.93719
G1 X90.083 Y132.329 E22.97434
G1 X90.626 Y130.471 E23.03873
G1 X90.184 Y130.029 E23.05952
G1 X89.671 Y129.161 E23.09305
G1 X88.991 Y126.828 E23.17388
G1 X88.924 Y125.711 E23.21109
G1 X89.707 Y123.06 E23.30303
G1 X90.06 Y122.312 E23.33054
G1 X91.368 Y120.933 E23.39376
G1 X92.13 Y120.489 E23.42309
G1 X92.776 Y120.278 E23.44569
G1 X93.347 Y120.234 E23.46474
G1 X93.347 Y105.735 E23.94698
G1 X93.59 Y104.715 E23.98186
G1 X94.07 Y104.003 E24.01042
G1 X94.556 Y103.538 E24.03279
G1 X94.757 Y103.413 E24.04066
G1 X94.564 Y103.081 E24.05343
G1 X93.88 Y100.74 E24.13455
G1 X93.947 Y99.614 E24.17207
G1 X94.054 Y99.251 E24.18465
G1 X93.939 Y98.782 E24.20072
G1 X93.73 Y98.767 E24.20768
G1 X91.246 Y98.042 E24.29375
G1 X90.377 Y97.528 E24.32733
G1 X88.456 Y95.607 E24.41769
G1 X87.943 Y94.739 E24.45122
G1 X87.246 Y92.347 E24.53409
G1 X87.179 Y91.232 E24.57124
G1 X87.934 Y88.641 E24.661
G1 X88.353 Y87.866 E24.69031
G1 X90.226 Y85.888 E24.78091
M204 S2000
M205 X10 Y10
G0 F3000 X90.484 Y86.197
M204 S1000
M205 X8 Y8
G1 F2400 X91.228 Y85.7 E24.81067
G1 X93.731 Y85.001 E24.8971
G1 X94.691 Y84.944 E24.92909
G1 X97.204 Y85.649 E25.0159
G1 X98.035 Y86.09 E25.04719
G1 X99.912 Y88.073 E25.138
G1 X100.294 Y88.72 E25.16299
G1 X100.9 Y90.807 E25.23528
G1 X101.333 Y90.695 E25.25015
G1 X102.25 Y90.641 E25.2807
G1 X105.185 Y91.464 E25.38209
G1 X106.022 Y91.908 E25.4136
G1 X108.203 Y94.212 E25.51912
G1 X108.585 Y94.859 E25.54411
G1 X109.39 Y97.625 E25.63993
G1 X109.451 Y98.607 E25.67265
G1 X108.612 Y101.601 E25.77607
G1 X108.201 Y102.354 E25.8046
G1 X107.137 Y103.418 E25.85465
G1 X114.722 Y103.418 E26.10692
G1 X113.622 Y102.318 E26.15867
G1 X113.161 Y101.538 E26.1888
G1 X112.37 Y98.827 E26.28273
G1 X112.31 Y97.828 E26.31602
G1 X113.154 Y94.935 E26.41625
G1 X113.531 Y94.239 E26.44257
G1 X115.662 Y91.989 E26.54565
G1 X116.486 Y91.489 E26.5777
G1 X118.964 Y90.801 E26.66324
G1 X119.154 Y90.149 E26.68583
G1 X119.531 Y89.453 E26.71216
G1 X121.333 Y87.55 E26.79932
G1 X122.077 Y87.053 E26.82908
G1 X124.58 Y86.354 E26.91552
G1 X125.54 Y86.297 E26.9475
G1 X128.053 Y87.002 E27.03431
G1 X128.884 Y87.443 E27.0656
G1 X130.761 Y89.426 E27.15642
G1 X131.143 Y90.073 E27.18141
G1 X131.827 Y92.428 E27.26297
G1 X131.89 Y93.402 E27.29544
G1 X131.168 Y95.979 E27.38445
G1 X130.757 Y96.732 E27.41298
G1 X128.914 Y98.575 E27.49967
G1 X129.021 Y98.975 E27.51344
G1 X129.081 Y99.906 E27.54447
G1 X128.42 Y102.27 E27.62611
G1 X128.008 Y103.023 E27.65466
G1 X127.161 Y103.87 E27.6945
G1 X127.467 Y104.107 E27.70738
G1 X127.818 Y104.578 E27.72691
G1 X128.128 Y105.244 E27.75135
G1 X128.221 Y105.924 E27.77417
G1 X128.222 Y120.604 E28.26243
G1 X128.175 Y120.873 E28.27152
G1 X128.363 Y120.857 E28.27779
G1 X129.11 Y120.965 E28.30289
G1 X129.742 Y121.236 E28.32577
G1 X130.296 Y121.668 E28.34913
G1 X131.006 Y122.419 E28.38351
G1 X131.393 Y123.073 E28.40878
G1 X132.019 Y125.225 E28.48332
G1 X132.085 Y126.202 E28.51589
G1 X131.911 Y126.816 E28.53712
G1 X132.628 Y127.573 E28.5718
G1 X133.01 Y128.22 E28.59679
G1 X133.694 Y130.575 E28.67835
G1 X133.757 Y131.549 E28.71082
G1 X133.035 Y134.126 E28.79983
G1 X132.624 Y134.879 E28.82836
G1 X130.797 Y136.706 E28.9143
G1 X130.06 Y137.161 E28.9431
G1 X127.607 Y137.85 E29.02785
G1 X126.622 Y137.902 E29.06066
G1 X124.122 Y137.172 E29.14728
G1 X123.341 Y136.71 E29.17746
G1 X121.49 Y134.859 E29.26452
G1 X121.029 Y134.079 E29.29466
G1 X120.358 Y131.777 E29.37441
G1 X120.32 Y131.158 E29.39504
G1 X119.965 Y130.925 E29.40916
G1 X118.345 Y129.305 E29.48536
G1 X117.884 Y128.525 E29.5155
G1 X117.272 Y126.427 E29.58818
G1 X117.212 Y125.428 E29.62147
G1 X117.713 Y123.707 E29.68109
G1 X118.018 Y123.163 E29.70183
G1 X101.627 Y123.163 E30.247
G1 X101.928 Y123.667 E30.26652
G1 X102.479 Y125.554 E30.33191
G1 X102.545 Y126.533 E30.36454
G1 X102.047 Y128.294 E30.42541
G1 X102.834 Y129.126 E30.4635
G1 X103.259 Y129.872 E30.49206
G1 X103.93 Y132.169 E30.57165
G1 X103.993 Y133.145 E30.60418
G1 X103.269 Y135.734 E30.69359
G1 X102.857 Y136.487 E30.72214
G1 X101.02 Y138.324 E30.80855
G1 X100.283 Y138.779 E30.83736
G1 X97.819 Y139.471 E30.92248
G1 X96.834 Y139.523 E30.95529
G1 X94.323 Y138.789 E31.0423
G1 X93.542 Y138.327 E31.07248
G1 X91.682 Y136.467 E31.15997
G1 X91.221 Y135.687 E31.1901
G1 X90.546 Y133.374 E31.27024
G1 X90.486 Y132.375 E31.30353
G1 X91.076 Y130.355 E31.37352
G1 X90.502 Y129.781 E31.40052
G1 X90.041 Y129.001 E31.43066
G1 X89.387 Y126.758 E31.50836
G1 X89.327 Y125.759 E31.54165
G1 X90.069 Y123.231 E31.62928
G1 X90.396 Y122.539 E31.65474
G1 X91.617 Y121.251 E31.71376
G1 X92.297 Y120.855 E31.73994
G1 X92.853 Y120.673 E31.7594
G1 X93.575 Y120.618 E31.78348
G1 X93.747 Y120.644 E31.78926
G1 X93.747 Y105.782 E32.28358
G1 X93.962 Y104.878 E32.31448
G1 X94.376 Y104.265 E32.33909
G1 X94.833 Y103.827 E32.36014
G1 X95.324 Y103.56 E32.37873
G1 X94.948 Y102.969 E32.40203
G1 X94.283 Y100.694 E32.48086
G1 X94.343 Y99.686 E32.51444
G1 X94.471 Y99.252 E32.52949
G1 X94.341 Y98.814 E32.54469
